/* XPM */
static char *ghost_down[] = {
/* columns rows colors chars-per-pixel */
"64 32 128 2 ",
"   c black",
".  c #000001",
"X  c #3F1D00",
"o  c gray24",
"O  c #482508",
"+  c #7B3E00",
"@  c #443F3E",
"#  c #7E4516",
"$  c #414141",
"%  c #434343",
"&  c #766F6D",
"*  c #727272",
"=  c #747474",
"-  c gray46",
";  c #AE5D00",
":  c #AF5D00",
">  c #B05E00",
",  c #B66100",
"<  c #C26800",
"1  c #CA6A00",
"2  c #DE7800",
"3  c #E17900",
"4  c #E37800",
"5  c #E17A00",
"6  c #E27A00",
"7  c #E57C00",
"8  c #E97E00",
"9  c #EB7F00",
"0  c #F07E00",
"q  c #F17E00",
"w  c #F07F00",
"e  c #CA7229",
"r  c #EE8100",
"t  c #F08000",
"y  c #F08100",
"u  c #F28000",
"i  c #F08200",
"p  c #F18300",
"a  c #F08201",
"s  c #F08205",
"d  c #F0830D",
"f  c #F08312",
"g  c #F08314",
"h  c #F08315",
"j  c #F08419",
"k  c #F0841D",
"l  c #F0841E",
"z  c #E2802F",
"x  c #EF862B",
"c  c #EF872F",
"v  c #F08522",
"b  c #F08628",
"n  c #EF8832",
"m  c #EF8938",
"M  c #EF8A3C",
"N  c #EF8A3D",
"B  c #F18933",
"V  c #EF8D47",
"C  c #EE9051",
"Z  c #EE945A",
"A  c #EC9B6C",
"S  c #EC9D70",
"D  c #EC9D71",
"F  c #ECA077",
"G  c #EBA17A",
"H  c #EBA27B",
"J  c #EBA27C",
"K  c #EBA37C",
"L  c #BEB3AF",
"P  c #BBBBBB",
"I  c #BBBCBC",
"U  c gray74",
"Y  c gray",
"T  c #EBA682",
"R  c #EBA683",
"E  c #EAA785",
"W  c #E9B197",
"Q  c #E7B8A3",
"!  c #E7B8A4",
"~  c #E6BEAD",
"^  c #E5C3B5",
"/  c #E5C4B6",
"(  c #E5C4B7",
")  c #E4C5B8",
"_  c #E4C5B9",
"`  c #E4C7BC",
"'  c #C0C0C0",
"]  c #C6C6C6",
"[  c #D4C8C4",
"{  c gray82",
"}  c #D1D2D3",
"|  c #D2D2D2",
" . c #D5D5D5",
".. c #DADADA",
"X. c gray86",
"o. c #DFDAD8",
"O. c #DFDAD9",
"+. c #DFDBDA",
"@. c #DFDCDA",
"#. c #DFDCDB",
"$. c gainsboro",
"%. c #DDDDDD",
"&. c #DEDDDD",
"*. c gray87",
"=. c #DEDFDF",
"-. c #DFDFDF",
";. c #E3CBC2",
":. c #E3CCC4",
">. c #E2CDC5",
",. c #E1D1CB",
"<. c #E1D3CE",
"1. c #E1D4D0",
"2. c #E0D5D1",
"3. c #E2D5D1",
"4. c #E0D7D3",
"5. c #E2D6D2",
"6. c #E0D7D4",
"7. c #E0D8D5",
"8. c #E0D8D6",
"9. c #DEDFE0",
"0. c #DDE0E1",
"q. c #DEE0E0",
"w. c #DFE0E1",
"e. c #DFE1E1",
"r. c #DDE0E2",
"t. c #DFE2E3",
"y. c gray88",
"u. c None",
/* pixels */
"u.u.u.u.u.u.u.u.u.u.u.u.u.u.u.u.u.u.u.u.u.u.u.u.u.u.u.u.u.u.u.u.u.u.u.u.u.u.u.u.u.u.u.u.u.u.u.u.u.u.u.u.u.u.u.u.u.u.u.u.u.u.u.u.",
"u.u.u.u.u.u.u.u.u.u.u.u.u.u.u.u.u.u.u.u.u.u.u.u.u.u.u.u.u.u.u.u.u.u.u.u.u.u.u.u.u.u.u.u.u.u.u.u.u.u.u.u.u.u.u.u.u.u.u.u.u.u.u.u.",
"u.u.u.u.u.u.u.u.u.u.u.u.u.u.u.u.u.u.u.u.u.u.u.u.u.u.u.u.u.u.u.u.u.u.u.u.u.u.u.u.u.u.u.u.u.u.u.u.u.u.u.u.u.u.u.u.u.u.u.u.u.u.u.u.",
"u.u.u.u.u.u.u.u.u.u.u.u.u.u.u.u.u.u.u.u.u.u.u.u.u.u.u.u.u.u.u.u.u.u.u.u.u.u.u.u.u.u.u.u.u.u.u.u.u.u.u.u.u.u.u.u.u.u.u.u.u.u.u.u.",
"u.u.u.u.u.u.u.u.u.u.u.u.u.i i i i i i i u.u.u.u.u.u.u.u.u.u.u.u.u.u.u.u.u.u.u.u.u.u.u.u.u.i i i i i i i u.u.u.u.u.u.u.u.u.u.u.u.",
"u.u.u.u.u.u.u.u.u.i i i i i i i i i i i i i i u.u.u.u.u.u.u.u.u.u.u.u.u.u.u.u.u.u.u.i i i i i i i i i i i i i i u.u.u.u.u.u.u.u.",
"u.u.u.u.u.u.u.u.u.i i i i i i i i i i i i i i u.u.u.u.u.u.u.u.u.u.u.u.u.u.u.u.u.u.u.i i i i i i i i i i i i i i u.u.u.u.u.u.u.u.",
"u.u.u.u.u.u.u.i i i i i i i i i i i i i i i i i i u.u.u.u.u.u.u.u.u.u.u.u.u.u.u.i i i i i i i i i i i i i i i i i u.u.u.u.u.u.u.",
"u.u.u.u.u.u.u.i i i i i i i i i i i i i i i i i i u.u.u.u.u.u.u.u.u.u.u.u.u.u.i i i i i i i i i i i i i i i i i i u.u.u.u.u.u.u.",
"u.u.u.u.u.u.i i i i i i i i i i i i i i i i i i i i i u.u.u.u.u.u.u.u.u.u.u.i i i i i i i i i i i i i i i i i i i i i u.u.u.u.u.",
"u.u.u.u.u.u.i i y F H H A y i i i i i x K H J V i i i u.u.u.u.u.u.u.u.u.u.u.i i i d l l l s i i i i i i j l l k i i i u.u.u.u.u.",
"u.u.u.u.u.u.i t q o.9.9.>.q i i i i t C r.9.0.R y a i u.u.u.u.u.u.u.u.u.u.u.i y y T =.*.9.C y i i i y 0 :.*.*.8.0 i i u.u.u.u.u.",
"u.u.u.u.u.u.g o.O.*.*.*.&.+.M i i F @.+.*.*.*.#.,.w i u.u.u.u.u.u.u.u.u.u.u.i E / :.*.*.=.` W y i t ~ ^ 7.*.*.#.( Z i u.u.u.u.u.",
"u.u.u.u.u.u.h &.*.*.*.*.*.9.N i i G 9.*.*.*.*.*.1.w i u.u.u.u.u.u.u.u.u.u.u.i Q *.*.*.*.*.*.) y i w 4.*.*.*.*.*.9.S i u.u.u.u.u.",
"u.u.u.u.i i h &.*.*.*.*.*.9.N i i G 9.*.*.*.*.*.1.w i i u.u.u.u.u.u.u.u.u.u.i Q *.*.*.*.*.*.) y i w 4.*.*.*.*.*.9.S i i u.u.u.u.",
"u.u.u.i i i h &.-.' Y Y ] q.N i i G 9...U Y U  .1.w i i u.u.u.u.u.u.u.u.i i i Q *.%.X.X.X.*.) y i w 4.*.$.X.X.X.9.S i i i u.u.u.",
"u.u.u.i i i h &.y.o     * e.N i i G 9.{       P 1.w i i u.u.u.u.u.u.u.u.i i i Q *.P       | ) y i w 4.y.=     $ e.S i i i u.u.u.",
"u.u.u.i i i f <.3.@     & 5.m i i D 2.[       L ;.t i i u.u.u.u.u.u.u.u.i i i ! =.I       } _ t i w 6.w.-     % t.S i i i u.u.u.",
"u.u.u.i i i i w u X     + u i i i y w 4 .   . 1 t a i i u.u.u.u.u.u.u.u.i i i v n e       z b i i i c B #     O B g i i i u.u.u.",
"u.u.u.i i i i i i 6 5 5 7 i i i i i i r 3 5 5 9 i i i i u.u.u.u.u.u.u.u.i i i i i 2 : > ; 8 i i i i i p < > > , p i i i i u.u.u.",
"u.u.u.i i i i i i i i i i i i i i i i i i i i i i i i i u.u.u.u.u.u.u.u.i i i i i i i i i i i i i i i i i i i i i i i i i u.u.u.",
"u.u.u.i i i i i i i i i i i i i i i i i i i i i i i i i u.u.u.u.u.u.u.u.i i i i i i i i i i i i i i i i i i i i i i i i i u.u.u.",
"u.u.u.i i i i i i i i i i i i i i i i i i i i i i i i i u.u.u.u.u.u.u.u.i i i i i i i i i i i i i i i i i i i i i i i i i u.u.u.",
"u.u.u.i i i i i i i i i i i i i i i i i i i i i i i i i u.u.u.u.u.u.u.u.i i i i i i i i i i i i i i i i i i i i i i i i i u.u.u.",
"u.u.u.i i i i i i i i i i i i i i i i i i i i i i i i i u.u.u.u.u.u.u.u.i i i i i i i i i i i i i i i i i i i i i i i i i u.u.u.",
"u.u.u.i i i i i i i i u.i i i i i i i i u.i i i i i i i u.u.u.u.u.u.u.u.i i i u.u.i i i i i i u.u.u.i i i i i i u.u.i i i u.u.u.",
"u.u.u.u.u.i i i i u.u.u.u.u.i i i i u.u.u.u.u.i i i u.u.u.u.u.u.u.u.u.u.i i i u.u.i i i i i i u.u.u.i i i i i i u.u.i i i u.u.u.",
"u.u.u.u.u.u.i i u.u.u.u.u.u.i i i i u.u.u.u.u.i i i u.u.u.u.u.u.u.u.u.u.i u.u.u.u.u.u.i i i i u.u.u.i i i i u.u.u.u.u.i i u.u.u.",
"u.u.u.u.u.u.u.u.u.u.u.u.u.u.u.u.u.u.u.u.u.u.u.u.u.u.u.u.u.u.u.u.u.u.u.u.i u.u.u.u.u.u.i i i i u.u.u.i i i i u.u.u.u.u.u.i u.u.u.",
"u.u.u.u.u.u.u.u.u.u.u.u.u.u.u.u.u.u.u.u.u.u.u.u.u.u.u.u.u.u.u.u.u.u.u.u.u.u.u.u.u.u.u.u.u.u.u.u.u.u.u.u.u.u.u.u.u.u.u.u.u.u.u.u.",
"u.u.u.u.u.u.u.u.u.u.u.u.u.u.u.u.u.u.u.u.u.u.u.u.u.u.u.u.u.u.u.u.u.u.u.u.u.u.u.u.u.u.u.u.u.u.u.u.u.u.u.u.u.u.u.u.u.u.u.u.u.u.u.u.",
"u.u.u.u.u.u.u.u.u.u.u.u.u.u.u.u.u.u.u.u.u.u.u.u.u.u.u.u.u.u.u.u.u.u.u.u.u.u.u.u.u.u.u.u.u.u.u.u.u.u.u.u.u.u.u.u.u.u.u.u.u.u.u.u."
};
