/* XPM */
static char *ghost_right[] = {
/* columns rows colors chars-per-pixel */
"64 32 121 2 ",
"   c black",
".  c #010000",
"X  c #341700",
"o  c #373737",
"O  c #3F3F3F",
"+  c #934D00",
"@  c #954F00",
"#  c #A75900",
"$  c #AF5B00",
"%  c #AD5C00",
"&  c #B25F00",
"*  c #955424",
"=  c #AD632A",
"-  c #AD642E",
";  c #C56900",
":  c #D77400",
">  c #DC7700",
",  c #E27A00",
"<  c #E67C00",
"1  c #F07F00",
"2  c #F17F00",
"3  c #916854",
"4  c #F08000",
"5  c #F08100",
"6  c #F08200",
"7  c #F18200",
"8  c #F18300",
"9  c #F08201",
"0  c #EF862B",
"q  c #EF8831",
"w  c #EF8833",
"e  c #EF8937",
"r  c #EF8939",
"t  c #EF8A3C",
"y  c #EF8A3D",
"u  c #EF8B3D",
"i  c #EF8B40",
"p  c #EF8D45",
"a  c #EF8D47",
"s  c #EE8F4D",
"d  c #F08C40",
"f  c #EE904F",
"g  c #EE9152",
"h  c #EE9154",
"j  c #EE9255",
"k  c #ED9763",
"l  c #EC9764",
"z  c #ED9866",
"x  c #EC9F74",
"c  c #EBA27B",
"v  c #EBA27C",
"b  c #EBA47F",
"n  c #838383",
"m  c #848484",
"M  c #878889",
"N  c gray54",
"B  c #A39A96",
"V  c #9FA0A1",
"C  c #B7B7B7",
"Z  c #EBA480",
"A  c #EAA888",
"S  c #EAAB8C",
"D  c #EBAB8C",
"F  c #E9B096",
"G  c #E9B197",
"H  c #E8B198",
"J  c #E9B198",
"K  c #E8B29A",
"L  c #E8B39B",
"P  c #E8B49C",
"I  c #E8B49D",
"U  c #E8B59E",
"Y  c #E8B59F",
"T  c #E7B7A2",
"R  c #E7B9A5",
"E  c #E6BBA9",
"W  c #E7BBA9",
"Q  c #E7BEAD",
"!  c #E6BFAF",
"~  c #E5C0B1",
"^  c #E5C1B2",
"/  c #E5C4B7",
"(  c #E4C4B8",
")  c #E4C5B8",
"_  c #E4C5B9",
"`  c #E4C7BC",
"'  c #E3C9BE",
"]  c #E3C9BF",
"[  c #E4C8BD",
"{  c gray77",
"}  c #C6C6C6",
"|  c #CDCDCD",
" . c gray82",
".. c #DFD9D6",
"X. c #DFD9D7",
"o. c gray86",
"O. c #DFDBD9",
"+. c #DBDBDC",
"@. c #DBDDDD",
"#. c gainsboro",
"$. c #DDDDDD",
"%. c gray87",
"&. c #DEDEDF",
"*. c #DEDFDF",
"=. c #DFDFDF",
"-. c #E2CDC5",
";. c #E2CEC6",
":. c #E2CEC7",
">. c #E2D0CA",
",. c #E1D3CE",
"<. c #E1D4D0",
"1. c #E0D8D5",
"2. c #DEDFE0",
"3. c #DDE0E1",
"4. c #DEE0E0",
"5. c #DFE0E0",
"6. c #DFE1E1",
"7. c #DFE1E2",
"8. c gray88",
"9. c #E0E1E1",
"0. c None",
/* pixels */
"0.0.0.0.0.0.0.0.0.0.0.0.0.0.0.0.0.0.0.0.0.0.0.0.0.0.0.0.0.0.0.0.0.0.0.0.0.0.0.0.0.0.0.0.0.0.0.0.0.0.0.0.0.0.0.0.0.0.0.0.0.0.0.0.",
"0.0.0.0.0.0.0.0.0.0.0.0.0.0.0.0.0.0.0.0.0.0.0.0.0.0.0.0.0.0.0.0.0.0.0.0.0.0.0.0.0.0.0.0.0.0.0.0.0.0.0.0.0.0.0.0.0.0.0.0.0.0.0.0.",
"0.0.0.0.0.0.0.0.0.0.0.0.0.0.0.0.0.0.0.0.0.0.0.0.0.0.0.0.0.0.0.0.0.0.0.0.0.0.0.0.0.0.0.0.0.0.0.0.0.0.0.0.0.0.0.0.0.0.0.0.0.0.0.0.",
"0.0.0.0.0.0.0.0.0.0.0.0.0.6 6 6 6 6 6 6 0.0.0.0.0.0.0.0.0.0.0.0.0.0.0.0.0.0.0.0.0.0.0.0.0.0.0.0.0.0.0.0.0.0.0.0.0.0.0.0.0.0.0.0.",
"0.0.0.0.0.0.0.0.0.0.0.0.0.6 6 6 6 6 6 6 0.0.0.0.0.0.0.0.0.0.0.0.0.0.0.0.0.0.0.0.0.0.0.0.0.6 6 6 6 6 6 6 0.0.0.0.0.0.0.0.0.0.0.0.",
"0.0.0.0.0.0.0.0.0.6 6 6 6 6 6 6 6 6 6 6 6 6 6 0.0.0.0.0.0.0.0.0.0.0.0.0.0.0.0.0.0.6 6 6 6 6 6 6 6 6 6 6 6 6 6 6 0.0.0.0.0.0.0.0.",
"0.0.0.0.0.0.0.0.0.6 6 6 6 6 6 6 6 6 6 6 6 6 6 0.0.0.0.0.0.0.0.0.0.0.0.0.0.0.0.0.0.6 6 6 6 6 6 6 6 6 6 6 6 6 6 6 0.0.0.0.0.0.0.0.",
"0.0.0.0.0.0.0.6 6 6 5 5 5 5 6 6 6 6 6 6 9 5 5 5 5 0.0.0.0.0.0.0.0.0.0.0.0.0.0.6 6 6 6 6 6 6 6 6 6 6 6 6 6 6 6 6 6 0.0.0.0.0.0.0.",
"0.0.0.0.0.0.6 6 6 6 c / / ) q 6 6 6 6 6 4 E / / ! 1 6 0.0.0.0.0.0.0.0.0.0.0.0.6 6 6 0 Z b b s 6 6 6 6 6 6 j b b b 0.0.0.0.0.0.0.",
"0.0.0.0.0.0.6 6 6 6 F &.%.2.y 6 6 6 6 6 1 ,.%.%.<.1 6 0.0.0.0.0.0.0.0.0.0.0.6 6 6 6 g 3.*.4.S 6 6 6 6 6 6 K 2.*.3.i 6 0.0.0.0.0.",
"0.0.0.0.0.0.6 6 5 G ` %.%.*.T U p 6 6 r P 1.%.%...L I 0.0.0.0.0.0.0.0.0.0.0.6 6 6 h v 2.%.*.Y z s 6 6 6 k W %.%.*.x z 0.0.0.0.0.",
"0.0.0.0.0.0.6 6 4 X.%.%.$.o.+.@.l 6 6 h 4.%.%.#.o.+.+.0.0.0.0.0.0.0.0.0.0.0.6 6 4 _ 2.%.%.8.9.7.Q 5 6 4 O.*.%.%.8.6.7.0.0.0.0.0.",
"0.0.0.0.0.0.6 6 4 ..%.%.{       > 6 6 h 2.%.=.n       0.0.0.0.0.0.0.0.0.0.0.6 6 4 ( %.%.#.O O O - 6 6 4 X.%.%.} o O O 0.0.0.0.0.",
"0.0.0.0.0.0.6 6 4 ..%.%.{       > 6 6 h 2.%.=.m       0.0.0.0.0.0.0.0.0.0.0.6 6 4 ( %.%.#.      # 7 6 4 X.%.%.{     . 0.0.0.0.0.",
"0.0.0.6 6 6 6 6 4 ..%.%.{       > 6 6 h 4.%.=.m     X 8 0.0.0.0.0.0.0.0.6 6 6 6 4 ( %.%.#.      # 7 6 4 X.%.%.{       : 6 0.0.0.",
"0.0.0.6 6 6 6 6 5 Y ] %. .V = % < 6 6 t R ..=.C B $ & 7 0.0.0.0.0.0.0.0.6 6 6 6 5 J [ &.#.N 3 @ ; 6 6 5 ^ >.%.| M * + , 6 0.0.0.",
"0.0.0.6 6 6 6 6 6 6 F &.%.2.u 6 6 6 6 6 1 ,.%.%.<.2 6 6 0.0.0.0.0.0.0.0.6 6 6 6 6 5 f 2.%.5.D 8 6 6 6 6 5 H &.%.5.d 8 6 6 0.0.0.",
"0.0.0.6 6 6 6 6 6 6 b [ [ ' w 6 6 6 6 6 4 ! [ [ ~ 4 6 6 0.0.0.0.0.0.0.0.6 6 6 6 6 6 a :.-.;.c 6 6 6 6 6 6 A ;.-.:.e 6 6 6 0.0.0.",
"0.0.0.6 6 6 6 6 6 6 5 4 4 4 6 6 6 6 6 6 9 4 4 4 4 9 6 6 0.0.0.0.0.0.0.0.6 6 6 6 6 6 6 4 4 4 5 6 6 6 6 6 6 5 4 4 4 6 6 6 6 0.0.0.",
"0.0.0.6 6 6 6 6 6 6 6 6 6 6 6 6 6 6 6 6 6 6 6 6 6 6 6 6 0.0.0.0.0.0.0.0.6 6 6 6 6 6 6 6 6 6 6 6 6 6 6 6 6 6 6 6 6 6 6 6 6 0.0.0.",
"0.0.0.6 6 6 6 6 6 6 6 6 6 6 6 6 6 6 6 6 6 6 6 6 6 6 6 6 0.0.0.0.0.0.0.0.6 6 6 6 6 6 6 6 6 6 6 6 6 6 6 6 6 6 6 6 6 6 6 6 6 0.0.0.",
"0.0.0.6 6 6 6 6 6 6 6 6 6 6 6 6 6 6 6 6 6 6 6 6 6 6 6 6 0.0.0.0.0.0.0.0.6 6 6 6 6 6 6 6 6 6 6 6 6 6 6 6 6 6 6 6 6 6 6 6 6 0.0.0.",
"0.0.0.6 6 6 6 6 6 6 6 6 6 6 6 6 6 6 6 6 6 6 6 6 6 6 6 6 0.0.0.0.0.0.0.0.6 6 6 6 6 6 6 6 6 6 6 6 6 6 6 6 6 6 6 6 6 6 6 6 6 0.0.0.",
"0.0.0.6 6 6 6 6 6 6 6 6 6 6 6 6 6 6 6 6 6 6 6 6 6 6 6 6 0.0.0.0.0.0.0.0.6 6 6 6 6 6 6 6 6 6 6 6 6 6 6 6 6 6 6 6 6 6 6 6 6 0.0.0.",
"0.0.0.6 6 6 6 6 6 6 6 6 6 6 6 6 6 6 6 6 6 6 6 6 6 6 6 6 0.0.0.0.0.0.0.0.6 6 6 6 6 6 6 6 6 6 6 6 6 6 6 6 6 6 6 6 6 6 6 6 6 0.0.0.",
"0.0.0.6 6 6 6 6 6 6 6 0.6 6 6 6 6 6 6 6 0.6 6 6 6 6 6 6 0.0.0.0.0.0.0.0.6 6 6 0.0.6 6 6 6 6 0.0.0.0.6 6 6 6 6 6 0.0.6 6 6 0.0.0.",
"0.0.0.0.0.0.6 6 0.0.0.0.0.0.6 6 6 6 0.0.0.0.0.6 6 6 0.0.0.0.0.0.0.0.0.0.6 0.0.0.0.0.0.6 6 6 0.0.0.0.6 6 6 6 0.0.0.0.0.6 6 0.0.0.",
"0.0.0.0.0.0.6 6 0.0.0.0.0.0.6 6 6 6 0.0.0.0.0.6 6 6 0.0.0.0.0.0.0.0.0.0.6 0.0.0.0.0.0.6 6 6 0.0.0.0.6 6 6 6 0.0.0.0.0.6 6 0.0.0.",
"0.0.0.0.0.0.0.0.0.0.0.0.0.0.0.0.0.0.0.0.0.0.0.0.0.0.0.0.0.0.0.0.0.0.0.0.0.0.0.0.0.0.0.0.0.0.0.0.0.0.0.0.0.0.0.0.0.0.0.0.0.0.0.0.",
"0.0.0.0.0.0.0.0.0.0.0.0.0.0.0.0.0.0.0.0.0.0.0.0.0.0.0.0.0.0.0.0.0.0.0.0.0.0.0.0.0.0.0.0.0.0.0.0.0.0.0.0.0.0.0.0.0.0.0.0.0.0.0.0.",
"0.0.0.0.0.0.0.0.0.0.0.0.0.0.0.0.0.0.0.0.0.0.0.0.0.0.0.0.0.0.0.0.0.0.0.0.0.0.0.0.0.0.0.0.0.0.0.0.0.0.0.0.0.0.0.0.0.0.0.0.0.0.0.0.",
"0.0.0.0.0.0.0.0.0.0.0.0.0.0.0.0.0.0.0.0.0.0.0.0.0.0.0.0.0.0.0.0.0.0.0.0.0.0.0.0.0.0.0.0.0.0.0.0.0.0.0.0.0.0.0.0.0.0.0.0.0.0.0.0."
};
