/* XPM */
static char *ghost_up[] = {
/* columns rows colors chars-per-pixel */
"64 32 114 2 ",
"   c black",
".  c #000001",
"X  c #131313",
"o  c gray21",
"O  c gray23",
"+  c #7E4100",
"@  c #7F4100",
"#  c #7E4A26",
"$  c #4C4C4C",
"%  c #4E4E4E",
"&  c gray32",
"*  c #78675F",
"=  c #676767",
"-  c #717272",
";  c #884700",
":  c #E37900",
">  c #E27A00",
",  c #E57C00",
"<  c #F17D00",
"1  c #F07F00",
"2  c #EC8000",
"3  c #F08000",
"4  c #F08100",
"5  c #F08200",
"6  c #F18300",
"7  c #F08201",
"8  c #F28200",
"9  c #F28300",
"0  c #F08208",
"q  c #F08314",
"w  c #F08315",
"e  c #F08521",
"r  c #EF8831",
"t  c #EF8A3C",
"y  c #EF8A3D",
"u  c #EF8B3E",
"i  c #EF8B41",
"p  c #EF8D47",
"a  c #E1884B",
"s  c #EE8F4C",
"d  c #EE8F4E",
"f  c #EE9153",
"g  c #EE9154",
"h  c #F09151",
"j  c #ED9660",
"k  c #ED9764",
"l  c #ED9969",
"z  c #EC9D70",
"x  c #ECA077",
"c  c #EBA17A",
"v  c #EBA27B",
"b  c #EBA37C",
"n  c gray53",
"m  c #AFAFAF",
"M  c #BBBBBB",
"N  c #EBA581",
"B  c #EBA582",
"V  c #EBA683",
"C  c #EBA684",
"Z  c #EAA785",
"A  c #EAA886",
"S  c #E9AD90",
"D  c #E9AF94",
"F  c #E8B299",
"G  c #E8B59E",
"H  c #D8B9AD",
"J  c #E7B8A3",
"K  c #E7B8A4",
"L  c #E7B9A5",
"P  c #E7BBA8",
"I  c #E6BCAA",
"U  c #E6BEAD",
"Y  c #E4C5B8",
"T  c #E4C5B9",
"R  c #E4C6BA",
"E  c #E6C7BA",
"W  c #C0C0C0",
"Q  c gray80",
"!  c #CECECE",
"~  c gray82",
"^  c #D1D3D3",
"/  c LightGray",
"(  c #DFD9D6",
")  c gray85",
"_  c #DFDAD9",
"`  c #DFDBDA",
"'  c #DFDCDB",
"]  c gainsboro",
"[  c #DEDCDC",
"{  c #DEDDDC",
"}  c #DEDDDD",
"|  c gray87",
" . c #DEDFDF",
".. c #DFDFDF",
"X. c #E3CAC1",
"o. c #E3CCC4",
"O. c #E3CDC4",
"+. c #E2CEC7",
"@. c #E1D2CD",
"#. c #E1D4CF",
"$. c #E1D4D0",
"%. c #E0D5D1",
"&. c #E0D6D2",
"*. c #E0D6D3",
"=. c #E0D7D3",
"-. c #E0D8D5",
";. c #DEDFE0",
":. c #DDE0E1",
">. c #DEE0E0",
",. c #DFE1E1",
"<. c #DFE1E2",
"1. c gray88",
"2. c #E1E1E1",
"3. c None",
/* pixels */
"3.3.3.3.3.3.3.3.3.3.3.3.3.3.3.3.3.3.3.3.3.3.3.3.3.3.3.3.3.3.3.3.3.3.3.3.3.3.3.3.3.3.3.3.3.3.3.3.3.3.3.3.3.3.3.3.3.3.3.3.3.3.3.3.",
"3.3.3.3.3.3.3.3.3.3.3.3.3.3.3.3.3.3.3.3.3.3.3.3.3.3.3.3.3.3.3.3.3.3.3.3.3.3.3.3.3.3.3.3.3.3.3.3.3.3.3.3.3.3.3.3.3.3.3.3.3.3.3.3.",
"3.3.3.3.3.3.3.3.3.3.3.3.3.3.3.3.3.3.3.3.3.3.3.3.3.3.3.3.3.3.3.3.3.3.3.3.3.3.3.3.3.3.3.3.3.3.3.3.3.3.3.3.3.3.3.3.3.3.3.3.3.3.3.3.",
"3.3.3.3.3.3.3.3.3.3.3.3.3.3.3.3.3.3.3.3.3.3.3.3.3.3.3.3.3.3.3.3.3.3.3.3.3.3.3.3.3.3.3.3.3.5 5 5 5 5 5 5 3.3.3.3.3.3.3.3.3.3.3.3.",
"3.3.3.3.3.3.3.3.3.3.3.3.3.5 5 5 5 5 5 5 3.3.3.3.3.3.3.3.3.3.3.3.3.3.3.3.3.3.3.3.3.3.3.3.3.2 5 5 5 5 5 5 3.3.3.3.3.3.3.3.3.3.3.3.",
"3.3.3.3.3.3.3.3.3.      ; 6 5 5 5 5 5 ,       3.3.3.3.3.3.3.3.3.3.3.3.3.3.3.3.3.3.3.      > 5 5 5 5 5 9 +       3.3.3.3.3.3.3.3.",
"3.3.3.3.3.3.3.3.3.      @ 8 5 5 5 5 4 : .     3.3.3.3.3.3.3.3.3.3.3.3.3.3.3.3.3.3.3.      a i 5 5 5 s h #     X 3.3.3.3.3.3.3.3.",
"3.3.3.3.3.3.3.| 2.o     * E r 5 5 k T H       m | 3.3.3.3.3.3.3.3.3.3.3.3.3.3.;.| M       ^ R 3 5 1 -.<.-     O 1.3.3.3.3.3.3.3.",
"3.3.3.3.3.3.3.| 1.= & & n ,.y 5 5 c ;./ $ & % W { 3.3.3.3.3.3.3.3.3.3.3.3.3.5 I | ) Q Q Q ] Y 4 5 1 =.| ~ Q Q ! ;.x 5 3.3.3.3.3.",
"3.3.3.3.3.3.q } | 1.1.1.1. .y 5 5 c ;.| 1.1.1...#.1 5 3.3.3.3.3.3.3.3.3.3.3.5 J | | | | | | Y 4 5 1 =.| | | | | ;.z 5 3.3.3.3.3.",
"3.3.3.3.3.3.w } | | | | | ;.y 5 5 c ;.| | | | | $.1 5 3.3.3.3.3.3.3.3.3.3.3.5 J | | | | | | Y 4 5 1 =.| | | | | ;.z 5 3.3.3.3.3.",
"3.3.3.3.3.3.w |  .| | | | :.u 5 5 v :. .| | |  .%.1 5 3.3.3.3.3.3.3.3.3.3.3.5 F %.-.| | | *.U 4 5 3 +.%.' | | } &.l 5 3.3.3.3.3.",
"3.3.3.3.3.3.0 Z V _ | | @.C e 5 5 p A D  .|  .P b 4 5 3.3.3.3.3.3.3.3.3.3.3.5 4 1 N  .| ;.d 3 7 5 7 1 < o.| | ( < 4 5 3.3.3.3.3.",
"3.3.3.3.3.3.5 5 3 ( | | O.3 5 5 5 5 5 g >.|  .C 5 5 5 3.3.3.3.3.3.3.3.3.3.3.5 5 5 B [ ` { f 5 5 5 5 5 3 X.` ` *.3 5 5 3.3.3.3.3.",
"3.3.3.3.3.5 5 5 4 G K K S 4 5 5 5 5 5 t L K L j 5 5 5 3.3.3.3.3.3.3.3.3.5 5 5 5 5 5 4 4 4 5 5 5 5 5 5 5 4 4 4 4 5 5 5 5 5 3.3.3.",
"3.3.3.5 5 5 5 5 5 5 5 5 5 5 5 5 5 5 5 5 5 5 5 5 5 5 5 5 3.3.3.3.3.3.3.3.5 5 5 5 5 5 5 5 5 5 5 5 5 5 5 5 5 5 5 5 5 5 5 5 5 3.3.3.",
"3.3.3.5 5 5 5 5 5 5 5 5 5 5 5 5 5 5 5 5 5 5 5 5 5 5 5 5 3.3.3.3.3.3.3.3.5 5 5 5 5 5 5 5 5 5 5 5 5 5 5 5 5 5 5 5 5 5 5 5 5 3.3.3.",
"3.3.3.5 5 5 5 5 5 5 5 5 5 5 5 5 5 5 5 5 5 5 5 5 5 5 5 5 3.3.3.3.3.3.3.3.5 5 5 5 5 5 5 5 5 5 5 5 5 5 5 5 5 5 5 5 5 5 5 5 5 3.3.3.",
"3.3.3.5 5 5 5 5 5 5 5 5 5 5 5 5 5 5 5 5 5 5 5 5 5 5 5 5 3.3.3.3.3.3.3.3.5 5 5 5 5 5 5 5 5 5 5 5 5 5 5 5 5 5 5 5 5 5 5 5 5 3.3.3.",
"3.3.3.5 5 5 5 5 5 5 5 5 5 5 5 5 5 5 5 5 5 5 5 5 5 5 5 5 3.3.3.3.3.3.3.3.5 5 5 5 5 5 5 5 5 5 5 5 5 5 5 5 5 5 5 5 5 5 5 5 5 3.3.3.",
"3.3.3.5 5 5 5 5 5 5 5 5 5 5 5 5 5 5 5 5 5 5 5 5 5 5 5 5 3.3.3.3.3.3.3.3.5 5 5 5 5 5 5 5 5 5 5 5 5 5 5 5 5 5 5 5 5 5 5 5 5 3.3.3.",
"3.3.3.5 5 5 5 5 5 5 5 5 5 5 5 5 5 5 5 5 5 5 5 5 5 5 5 5 3.3.3.3.3.3.3.3.5 5 5 5 5 5 5 5 5 5 5 5 5 5 5 5 5 5 5 5 5 5 5 5 5 3.3.3.",
"3.3.3.5 5 5 5 5 5 5 5 5 5 5 5 5 5 5 5 5 5 5 5 5 5 5 5 5 3.3.3.3.3.3.3.3.5 5 5 5 5 5 5 5 5 5 5 5 5 5 5 5 5 5 5 5 5 5 5 5 5 3.3.3.",
"3.3.3.5 5 5 5 5 5 5 5 5 5 5 5 5 5 5 5 5 5 5 5 5 5 5 5 5 3.3.3.3.3.3.3.3.5 5 5 5 5 5 5 5 5 5 5 5 5 5 5 5 5 5 5 5 5 5 5 5 5 3.3.3.",
"3.3.3.5 5 5 5 5 5 5 5 5 5 5 5 5 5 5 5 5 5 5 5 5 5 5 5 5 3.3.3.3.3.3.3.3.5 5 5 5 5 5 5 5 5 5 5 5 5 5 5 5 5 5 5 5 5 5 5 5 5 3.3.3.",
"3.3.3.5 5 5 5 5 5 5 5 3.5 5 5 5 5 5 5 5 3.5 5 5 5 5 5 5 3.3.3.3.3.3.3.3.5 5 5 3.3.5 5 5 5 5 5 3.3.3.5 5 5 5 5 5 3.3.5 5 5 3.3.3.",
"3.3.3.3.5 5 5 5 5 5 3.3.5 5 5 5 5 5 5 5 3.5 5 5 5 5 5 5 3.3.3.3.3.3.3.3.5 3.3.3.3.3.3.5 5 5 5 3.3.3.5 5 5 5 3.3.3.3.3.5 5 3.3.3.",
"3.3.3.3.3.3.5 5 3.3.3.3.3.3.5 5 5 5 3.3.3.3.3.5 5 5 3.3.3.3.3.3.3.3.3.3.5 3.3.3.3.3.3.5 5 5 5 3.3.3.5 5 5 5 3.3.3.3.3.5 5 3.3.3.",
"3.3.3.3.3.3.5 5 3.3.3.3.3.3.5 5 5 5 3.3.3.3.3.5 5 5 3.3.3.3.3.3.3.3.3.3.3.3.3.3.3.3.3.3.3.3.3.3.3.3.3.3.3.3.3.3.3.3.3.3.3.3.3.3.",
"3.3.3.3.3.3.3.3.3.3.3.3.3.3.3.3.3.3.3.3.3.3.3.3.3.3.3.3.3.3.3.3.3.3.3.3.3.3.3.3.3.3.3.3.3.3.3.3.3.3.3.3.3.3.3.3.3.3.3.3.3.3.3.3.",
"3.3.3.3.3.3.3.3.3.3.3.3.3.3.3.3.3.3.3.3.3.3.3.3.3.3.3.3.3.3.3.3.3.3.3.3.3.3.3.3.3.3.3.3.3.3.3.3.3.3.3.3.3.3.3.3.3.3.3.3.3.3.3.3.",
"3.3.3.3.3.3.3.3.3.3.3.3.3.3.3.3.3.3.3.3.3.3.3.3.3.3.3.3.3.3.3.3.3.3.3.3.3.3.3.3.3.3.3.3.3.3.3.3.3.3.3.3.3.3.3.3.3.3.3.3.3.3.3.3."
};
