/* XPM */
static char *ghost_left[] = {
/* columns rows colors chars-per-pixel */
"64 32 133 2 ",
"   c black",
".  c #000001",
"X  c #100400",
"o  c #271000",
"O  c #5F3103",
"+  c #6E3800",
"@  c #603F2E",
"#  c gray33",
"$  c #555555",
"%  c #5A5959",
"&  c #5A5A5A",
"*  c #5B5B5B",
"=  c #5F5F5F",
"-  c gray46",
";  c #797979",
":  c #8A4800",
">  c #B35F00",
",  c #C86B00",
"<  c #DC7600",
"1  c #DC7700",
"2  c #E07600",
"3  c #E17900",
"4  c #F17C00",
"5  c #F07E00",
"6  c #F07F00",
"7  c #896757",
"8  c #ED8000",
"9  c #F08000",
"0  c #F08100",
"q  c #F08200",
"w  c #F18200",
"e  c #F18300",
"r  c #F08201",
"t  c #F28300",
"y  c #F08314",
"u  c #F08315",
"i  c #F28515",
"p  c #F08419",
"a  c #F0841E",
"s  c #EF862A",
"d  c #EF862B",
"f  c #EF872E",
"g  c #EF8831",
"h  c #EF8B40",
"j  c #EE8E49",
"k  c #EE8F4C",
"l  c #EE8F4D",
"z  c #EE9152",
"x  c #E89056",
"c  c #EE9154",
"v  c #EE9254",
"b  c #EE9255",
"n  c #EE9256",
"m  c #EE9257",
"M  c #EE9358",
"N  c #EE945A",
"B  c #ED955C",
"V  c #ED955D",
"C  c #ED955E",
"Z  c #ED9660",
"A  c #ED9764",
"S  c #EC9F74",
"D  c #EBA17A",
"F  c #EBA27B",
"G  c #ECA078",
"H  c #ECA179",
"J  c #EEA37B",
"K  c #818181",
"L  c gray51",
"P  c #848484",
"I  c gray75",
"U  c #D8AB98",
"Y  c #EBA581",
"T  c #EBA684",
"R  c #EAA785",
"E  c #EAAA8B",
"W  c #E7B6A1",
"Q  c #E7B7A1",
"!  c #E7B8A4",
"~  c #E6BCAB",
"^  c #E6BEAD",
"/  c #E6BFAF",
"(  c #E5C3B5",
")  c #E4C4B7",
"_  c #BFC1C1",
"`  c #C0C0C0",
"'  c gray77",
"]  c #CACACA",
"[  c gray81",
"{  c #D1C8C5",
"}  c gray83",
"|  c gray84",
" . c #D7D7D7",
".. c #DFD9D6",
"X. c #D8D8D8",
"o. c #DADADA",
"O. c #DFDAD8",
"+. c #DFDAD9",
"@. c #DFDBDA",
"#. c #DFDCDB",
"$. c #DEDCDC",
"%. c #DEDDDC",
"&. c #DEDDDD",
"*. c gray87",
"=. c #DEDEDF",
"-. c #DEDFDF",
";. c #DFDFDF",
":. c #E3CCC4",
">. c #E3CDC4",
",. c #E2CEC6",
"<. c #E2D0C9",
"1. c #E2D1CA",
"2. c #E1D2CC",
"3. c #E1D2CD",
"4. c #E1D3CD",
"5. c #E1D3CE",
"6. c #E1D4CF",
"7. c #E3D4CF",
"8. c #E1D4D0",
"9. c #E0D5D1",
"0. c #E0D6D2",
"q. c #E0D7D3",
"w. c #E0D8D5",
"e. c #E0D8D6",
"r. c #E0DFDF",
"t. c #DEDFE0",
"y. c #DDE0E1",
"u. c #DDE0E2",
"i. c #DDE1E2",
"p. c gray88",
"a. c #E0E1E1",
"s. c #E0E1E2",
"d. c None",
/* pixels */
"d.d.d.d.d.d.d.d.d.d.d.d.d.d.d.d.d.d.d.d.d.d.d.d.d.d.d.d.d.d.d.d.d.d.d.d.d.d.d.d.d.d.d.d.d.d.d.d.d.d.d.d.d.d.d.d.d.d.d.d.d.d.d.d.",
"d.d.d.d.d.d.d.d.d.d.d.d.d.d.d.d.d.d.d.d.d.d.d.d.d.d.d.d.d.d.d.d.d.d.d.d.d.d.d.d.d.d.d.d.d.d.d.d.d.d.d.d.d.d.d.d.d.d.d.d.d.d.d.d.",
"d.d.d.d.d.d.d.d.d.d.d.d.d.d.d.d.d.d.d.d.d.d.d.d.d.d.d.d.d.d.d.d.d.d.d.d.d.d.d.d.d.d.d.d.d.d.d.d.d.d.d.d.d.d.d.d.d.d.d.d.d.d.d.d.",
"d.d.d.d.d.d.d.d.d.d.d.d.d.d.d.d.d.d.d.d.d.d.d.d.d.d.d.d.d.d.d.d.d.d.d.d.d.d.d.d.d.d.d.d.d.q q q q q q q d.d.d.d.d.d.d.d.d.d.d.d.",
"d.d.d.d.d.d.d.d.d.d.d.d.d.q q q q q q q d.d.d.d.d.d.d.d.d.d.d.d.d.d.d.d.d.d.d.d.d.d.d.d.d.q q q q q q q q d.d.d.d.d.d.d.d.d.d.d.",
"d.d.d.d.d.d.d.d.d.q q q q q q q q q q q q q q d.d.d.d.d.d.d.d.d.d.d.d.d.d.d.d.d.d.d.q q q q q q q q q q q q q q d.d.d.d.d.d.d.d.",
"d.d.d.d.d.d.d.d.d.q q q q q q q q q q q q q q d.d.d.d.d.d.d.d.d.d.d.d.d.d.d.d.d.d.d.q q q q q q q q q q q q q q d.d.d.d.d.d.d.d.",
"d.d.d.d.d.d.d.q q q q q q q q q q q q q q q q q q d.d.d.d.d.d.d.d.d.d.d.d.d.d.9 9 9 9 q q q q q q r 9 9 9 9 r q q d.d.d.d.d.d.d.",
"d.d.d.d.d.d.d.D D D C q q q q q q h F D F g q q q d.d.d.d.d.d.d.d.d.d.d.d.d.q W O.O.+.s q q q q q 6 5.O.O.:.6 q q q q d.d.d.d.d.",
"d.d.d.d.d.d.u =.t.t./ 0 q q q q q F y.t.u.Z q q q q q d.d.d.d.d.d.d.d.d.d.d.6 Q *.*.=.p 6 q q q q 4 q.*.*.<.4 6 r q q d.d.d.d.d.",
"d.d.d.d.d.d.m &.*.*.( z j q q q k E -.*.t.H v f q q q d.d.d.d.d.d.d.d.d.d.d.3.e.*.*.*.4.6.l q q B 5.%.*.*.#.3.,.9 q q d.d.d.d.d.",
"d.d.d.d.d.d.s.p.p.*.-.t.,.9 q 6 7.a.p.p.*.t.y.R q q q d.d.d.d.d.d.d.d.d.d.d.` ` ` ] *.*.t.c q q x _ ` I  .*.*...9 q q d.d.d.d.d.",
"d.d.d.d.d.d.= = * X.*.*.>.9 q t 7 = = ; p.*.-.T q q q d.d.d.d.d.d.d.d.d.d.d.      L ;.*.t.c q q <       ' *.*...9 q q d.d.d.d.d.",
"d.d.d.d.d.d.      | *.*.>.9 q t +     # p.*.-.T q q q d.d.d.d.d.d.d.d.d.d.d.X     P ;.*.t.c q q 1       ' *.*...9 q q d.d.d.d.d.",
"d.d.d.d.q >       | *.*.>.9 q t +     # p.*.-.T q q q q d.d.d.d.d.d.d.d.q e o     K ;.t.i.b q q < .     ' *.t.O.9 q q q q d.d.d.",
"d.d.d.q q , O % $  .O.8.) 9 q t : @ & - p.0.9.F q q q q d.d.d.d.d.d.d.d.q q 3 U [ } -.A V a q q 8 2 { [ o.2.n M q q q q q d.d.d.",
"d.d.d.q q w i r.p.*.^ 5 9 r q q t J s.p.t.N 6 0 q q q q d.d.d.d.d.d.d.d.q q q ! t.-.t.d q q q q q 6 w.-.-.1.6 q q q q q q d.d.d.",
"d.d.d.q q q y +.@.@.~ 0 q q q q q G #.@.$.V q q q q q q d.d.d.d.d.d.d.d.q q q V Y Y Y y q q q q q 0 D Y Y S 0 q q q q q q d.d.d.",
"d.d.d.q q q q 0 0 0 0 q q q q q q q 0 0 0 q q q q q q q d.d.d.d.d.d.d.d.q q q q q q q q q q q q q q q q q q q q q q q q q d.d.d.",
"d.d.d.q q q q q q q q q q q q q q q q q q q q q q q q q d.d.d.d.d.d.d.d.q q q q q q q q q q q q q q q q q q q q q q q q q d.d.d.",
"d.d.d.q q q q q q q q q q q q q q q q q q q q q q q q q d.d.d.d.d.d.d.d.q q q q q q q q q q q q q q q q q q q q q q q q q d.d.d.",
"d.d.d.q q q q q q q q q q q q q q q q q q q q q q q q q d.d.d.d.d.d.d.d.q q q q q q q q q q q q q q q q q q q q q q q q q d.d.d.",
"d.d.d.q q q q q q q q q q q q q q q q q q q q q q q q q d.d.d.d.d.d.d.d.q q q q q q q q q q q q q q q q q q q q q q q q q d.d.d.",
"d.d.d.q q q q q q q q q q q q q q q q q q q q q q q q q d.d.d.d.d.d.d.d.q q q q q q q q q q q q q q q q q q q q q q q q q d.d.d.",
"d.d.d.q q q q q q q q q q q q q q q q q q q q q q q q q d.d.d.d.d.d.d.d.q q q d.d.q q q q q q d.d.d.q q q q q q d.d.q q q d.d.d.",
"d.d.d.q q q q q q q q d.q q q q q q q q d.q q q q q q q d.d.d.d.d.d.d.d.q q q d.d.q q q q q q d.d.d.q q q q q q d.d.q q q d.d.d.",
"d.d.d.d.d.q q q q d.d.d.d.d.q q q q d.d.d.d.d.q q q q d.d.d.d.d.d.d.d.d.q d.d.d.d.d.d.q q q q d.d.d.q q q q d.d.d.d.d.q q d.d.d.",
"d.d.d.d.d.d.q q d.d.d.d.d.d.q q q q d.d.d.d.d.q q q d.d.d.d.d.d.d.d.d.d.q d.d.d.d.d.d.q q q q d.d.d.q q q q d.d.d.d.d.q q d.d.d.",
"d.d.d.d.d.d.q q d.d.d.d.d.d.q q q d.d.d.d.d.d.d.q q d.d.d.d.d.d.d.d.d.d.d.d.d.d.d.d.d.d.d.d.d.d.d.d.d.d.d.d.d.d.d.d.d.d.d.d.d.d.",
"d.d.d.d.d.d.d.d.d.d.d.d.d.d.d.d.d.d.d.d.d.d.d.d.d.d.d.d.d.d.d.d.d.d.d.d.d.d.d.d.d.d.d.d.d.d.d.d.d.d.d.d.d.d.d.d.d.d.d.d.d.d.d.d.",
"d.d.d.d.d.d.d.d.d.d.d.d.d.d.d.d.d.d.d.d.d.d.d.d.d.d.d.d.d.d.d.d.d.d.d.d.d.d.d.d.d.d.d.d.d.d.d.d.d.d.d.d.d.d.d.d.d.d.d.d.d.d.d.d.",
"d.d.d.d.d.d.d.d.d.d.d.d.d.d.d.d.d.d.d.d.d.d.d.d.d.d.d.d.d.d.d.d.d.d.d.d.d.d.d.d.d.d.d.d.d.d.d.d.d.d.d.d.d.d.d.d.d.d.d.d.d.d.d.d."
};
