/* XPM */
static char *red_yellow_frames[] = {
/* columns rows colors chars-per-pixel */
"64 128 112 2 ",
"   c #000000",
".  c #100400",
"X  c #131313",
"o  c #271000",
"O  c #341700",
"+  c #3F1D00",
"@  c #373737",
"#  c #3E3E3E",
"$  c #482508",
"%  c #5F3103",
"&  c #6E3800",
"*  c #7B3E00",
"=  c #443F3E",
"-  c #603F2E",
";  c #7F4100",
":  c #7E4516",
">  c #7E4A26",
",  c gray26",
"<  c gray30",
"1  c #535353",
"2  c #5D5D5D",
"3  c #78675F",
"4  c #676767",
"5  c #766F6D",
"6  c #737474",
"7  c #797979",
"8  c #884700",
"9  c #8A4800",
"0  c #944E00",
"q  c #A75900",
"w  c #AE5C00",
"e  c #B15E00",
"r  c #B66100",
"t  c #955424",
"y  c #AD642C",
"u  c #C36900",
"i  c #C96B00",
"p  c #D77400",
"a  c #DC7700",
"s  c #DE7800",
"d  c #E07600",
"f  c #E27A00",
"g  c #EA7F00",
"h  c #F07F00",
"j  c #CA7229",
"k  c #896757",
"l  c #916854",
"z  c #ED8000",
"x  c #F08200",
"c  c #F0830B",
"v  c #F08314",
"b  c #F0841D",
"n  c #E2802F",
"m  c #EF862C",
"M  c #F08522",
"N  c #F08628",
"B  c #EF8833",
"V  c #EF8A3C",
"C  c #F18933",
"Z  c #EF8C44",
"A  c #E1884B",
"S  c #EE8F4C",
"D  c #F08C40",
"F  c #EE904F",
"G  c #EE9154",
"H  c #ED955C",
"J  c #F09151",
"K  c #ED9762",
"L  c #ED9866",
"P  c #ED9A6A",
"I  c #EC9D71",
"U  c #ECA077",
"Y  c #EBA27B",
"T  c #848484",
"R  c #878889",
"E  c gray54",
"W  c #A39A96",
"Q  c #9FA0A1",
"!  c #AFAFAF",
"~  c #BEB3AF",
"^  c #B7B7B7",
"/  c #BDBDBD",
"(  c #D8AB98",
")  c #EBA683",
"_  c #EAA886",
"`  c #EAAA8B",
"'  c #E9AE92",
"]  c #E9B197",
"[  c #E8B39C",
"{  c #D8B9AD",
"}  c #E7B7A1",
"|  c #E7B8A4",
" . c #E6BDAC",
".. c #E5C3B6",
"X. c #E4C5B9",
"o. c #E4C8BD",
"O. c #BFC1C1",
"+. c #C3C3C3",
"@. c #CDCDCD",
"#. c #D3C8C5",
"$. c #D3D4D4",
"%. c #DFD9D6",
"&. c #DEDEDD",
"*. c #E3CDC5",
"=. c #E1D2CD",
"-. c #E0D6D2",
";. c #E0D8D5",
":. c #E0DFDF",
">. c #DEDFE0",
",. c #DEE0E1",
"<. c #E0E0E0",
"1. c None",
/* pixels */
"1.1.1.1.1.1.1.1.1.1.1.1.1.1.1.1.1.1.1.1.1.1.1.1.1.1.1.1.1.1.1.1.1.1.1.1.1.1.1.1.1.1.1.1.1.1.1.1.1.1.1.1.1.1.1.1.1.1.1.1.1.1.1.1.",
"1.1.1.1.1.1.1.1.1.1.1.1.1.1.1.1.1.1.1.1.1.1.1.1.1.1.1.1.1.1.1.1.1.1.1.1.1.1.1.1.1.1.1.1.1.1.1.1.1.1.1.1.1.1.1.1.1.1.1.1.1.1.1.1.",
"1.1.1.1.1.1.1.1.1.1.1.1.1.1.1.1.1.1.1.1.1.1.1.1.1.1.1.1.1.1.1.1.1.1.1.1.1.1.1.1.1.1.1.1.1.1.1.1.1.1.1.1.1.1.1.1.1.1.1.1.1.1.1.1.",
"1.1.1.1.1.1.1.1.1.1.1.1.1.x x x x x x x 1.1.1.1.1.1.1.1.1.1.1.1.1.1.1.1.1.1.1.1.1.1.1.1.1.1.1.1.1.1.1.1.1.1.1.1.1.1.1.1.1.1.1.1.",
"1.1.1.1.1.1.1.1.1.1.1.1.1.x x x x x x x 1.1.1.1.1.1.1.1.1.1.1.1.1.1.1.1.1.1.1.1.1.1.1.1.1.x x x x x x x 1.1.1.1.1.1.1.1.1.1.1.1.",
"1.1.1.1.1.1.1.1.1.x x x x x x x x x x x x x x 1.1.1.1.1.1.1.1.1.1.1.1.1.1.1.1.1.1.x x x x x x x x x x x x x x x 1.1.1.1.1.1.1.1.",
"1.1.1.1.1.1.1.1.1.x x x x x x x x x x x x x x 1.1.1.1.1.1.1.1.1.1.1.1.1.1.1.1.1.1.x x x x x x x x x x x x x x x 1.1.1.1.1.1.1.1.",
"1.1.1.1.1.1.1.x x x x x x x x z x x x x x x x x x 1.1.1.1.1.1.1.1.1.1.1.1.1.1.x x x x x x x x x x x x x x x x x x 1.1.1.1.1.1.1.",
"1.1.1.1.1.1.x x x x Y ..X.X.B z x x x x x  ...X. .h x 1.1.1.1.1.1.1.1.1.1.1.1.x x x m Y ) Y S x x x x x x G ) ) Y 1.1.1.1.1.1.1.",
"1.1.1.1.1.1.x x x x ] >.&.&.V z x x x x h =.&.&.-.x z 1.1.1.1.1.1.1.1.1.1.1.x x x x G ,.>.,.` x x x x x x ] >.&.,.Z x 1.1.1.1.1.",
"1.1.1.1.1.1.x x x ] o.&.&.&.| [ Z x x V [ ;.&.&.%.] [ 1.1.1.1.1.1.1.1.1.1.1.x x x G Y ,.&.>.} L F x x x L  .&.>.&.U L 1.1.1.1.1.",
"1.1.1.1.1.1.x x x %.&.&.&.&.&.&.L x x G >.&.&.&.&.&.&.1.1.1.1.1.1.1.1.1.1.1.x x x X.,.&.&.<.<.,. .x x x ;.>.&.:.<.<.,.1.1.1.1.1.",
"1.1.1.1.1.1.x x h %.&.&.+.      a x x G >.&.>.T       1.1.1.1.1.1.1.1.1.1.1.x x h X.&.&.&.# # # y x x x %.>.>.+.@ # # 1.1.1.1.1.",
"1.1.1.1.1.1.x x x %.&.&.+.      a z x G >.&.:.T       1.1.1.1.1.1.1.1.1.1.1.x x x X.&.&.&.      w x x h %.&.:.+.      1.1.1.1.1.",
"1.1.1.x x x x x h %.>.&.+.      s x x G ,.>.:.T     O x 1.1.1.1.1.1.1.1.x x x x h X.&.&.&.      q x x x %.>.&.+.      p x 1.1.1.",
"1.1.1.x x x x x x [ *.&.$.! y w g x x V | ;.:.^ W e e x 1.1.1.1.1.1.1.1.x x x x x ] o.>.&.E l 0 u z x x ..*.>.@.E t 0 f x 1.1.1.",
"1.1.1.x x x x x x x ] &.>.,.D x z x x x h -.&.&.-.h x x 1.1.1.1.1.1.1.1.x x x x x x F ,.&.,.` x x x x x z ] >.&.<.D x x x 1.1.1.",
"1.1.1.x x x x x x x Y o.o.o.B x x x x x x  .o.o. .h x x 1.1.1.1.1.1.1.1.x x x x x x S *.*.*.Y x x x x x x ` *.*.*.V x x x 1.1.1.",
"1.1.1.x x x x x x x x h x x x x x x x x x x x x x x x x 1.1.1.1.1.1.1.1.x x x x x x x x x x x x x x x x x x x x x x x x x 1.1.1.",
"1.1.1.x x x x x x x x x x x x x x x x x x x x x x x x x 1.1.1.1.1.1.1.1.x x x x x x x x x x x x x x x x x x x x x x x x x 1.1.1.",
"1.1.1.x x x x x x x x x x x x x x x x x x x x x x x x x 1.1.1.1.1.1.1.1.x x x x x x x x x x x x x x x x x x x x x x x x x 1.1.1.",
"1.1.1.x x x x x x x x x x x x x x x x x x x x x x x x x 1.1.1.1.1.1.1.1.x x x x x x x x x x x x x x x x x x x x x x x x x 1.1.1.",
"1.1.1.x x x x x x x x x x x x x x x x x x x x x x x x x 1.1.1.1.1.1.1.1.x x x x x x x x x x x x x x x x x x x x x x x x x 1.1.1.",
"1.1.1.x x x x x x x x x x x x x z x x x x x x x x x x x 1.1.1.1.1.1.1.1.x x x x x x x x x x x x x x x x x x x x x x x x x 1.1.1.",
"1.1.1.x x x x x x x x x x x x x x x x x x x x x x x x x 1.1.1.1.1.1.1.1.x x x x x x x x x x x x x x x x x x x x x x x x x 1.1.1.",
"1.1.1.x x x x x x x x 1.x x x x x x x x 1.x x x x x x x 1.1.1.1.1.1.1.1.x x x 1.1.x x x x x 1.1.1.1.x x x x x x 1.1.x x x 1.1.1.",
"1.1.1.1.1.1.x x 1.1.1.1.1.1.x x x x 1.1.1.1.1.x x x 1.1.1.1.1.1.1.1.1.1.x 1.1.1.1.1.1.x x x 1.1.1.1.x x x x 1.1.1.1.1.x x 1.1.1.",
"1.1.1.1.1.1.x x 1.1.1.1.1.1.x x x x 1.1.1.1.1.x x x 1.1.1.1.1.1.1.1.1.1.x 1.1.1.1.1.1.x x x 1.1.1.1.x x x x 1.1.1.1.1.x x 1.1.1.",
"1.1.1.1.1.1.1.1.1.1.1.1.1.1.1.1.1.1.1.1.1.1.1.1.1.1.1.1.1.1.1.1.1.1.1.1.1.1.1.1.1.1.1.1.1.1.1.1.1.1.1.1.1.1.1.1.1.1.1.1.1.1.1.1.",
"1.1.1.1.1.1.1.1.1.1.1.1.1.1.1.1.1.1.1.1.1.1.1.1.1.1.1.1.1.1.1.1.1.1.1.1.1.1.1.1.1.1.1.1.1.1.1.1.1.1.1.1.1.1.1.1.1.1.1.1.1.1.1.1.",
"1.1.1.1.1.1.1.1.1.1.1.1.1.1.1.1.1.1.1.1.1.1.1.1.1.1.1.1.1.1.1.1.1.1.1.1.1.1.1.1.1.1.1.1.1.1.1.1.1.1.1.1.1.1.1.1.1.1.1.1.1.1.1.1.",
"1.1.1.1.1.1.1.1.1.1.1.1.1.1.1.1.1.1.1.1.1.1.1.1.1.1.1.1.1.1.1.1.1.1.1.1.1.1.1.1.1.1.1.1.1.1.1.1.1.1.1.1.1.1.1.1.1.1.1.1.1.1.1.1.",
"1.1.1.1.1.1.1.1.1.1.1.1.1.1.1.1.1.1.1.1.1.1.1.1.1.1.1.1.1.1.1.1.1.1.1.1.1.1.1.1.1.1.1.1.1.1.1.1.1.1.1.1.1.1.1.1.1.1.1.1.1.1.1.1.",
"1.1.1.1.1.1.1.1.1.1.1.1.1.1.1.1.1.1.1.1.1.1.1.1.1.1.1.1.1.1.1.1.1.1.1.1.1.1.1.1.1.1.1.1.1.1.1.1.1.1.1.1.1.1.1.1.1.1.1.1.1.1.1.1.",
"1.1.1.1.1.1.1.1.1.1.1.1.1.1.1.1.1.1.1.1.1.1.1.1.1.1.1.1.1.1.1.1.1.1.1.1.1.1.1.1.1.1.1.1.1.1.1.1.1.1.1.1.1.1.1.1.1.1.1.1.1.1.1.1.",
"1.1.1.1.1.1.1.1.1.1.1.1.1.1.1.1.1.1.1.1.1.1.1.1.1.1.1.1.1.1.1.1.1.1.1.1.1.1.1.1.1.1.1.1.1.x x x x x x x 1.1.1.1.1.1.1.1.1.1.1.1.",
"1.1.1.1.1.1.1.1.1.1.1.1.1.x x x x x x x 1.1.1.1.1.1.1.1.1.1.1.1.1.1.1.1.1.1.1.1.1.1.1.1.1.x x x x x x x x 1.1.1.1.1.1.1.1.1.1.1.",
"1.1.1.1.1.1.1.1.1.x x x x x x x x x x x x x x 1.1.1.1.1.1.1.1.1.1.1.1.1.1.1.1.1.1.1.x x x x x x x x x x x x x x 1.1.1.1.1.1.1.1.",
"1.1.1.1.1.1.1.1.1.x x x x x x x x x x x x x x 1.1.1.1.1.1.1.1.1.1.1.1.1.1.1.1.1.1.1.x x x x x x x x x x x x x x 1.1.1.1.1.1.1.1.",
"1.1.1.1.1.1.1.x x x x x x x x x x x x x x x x x x 1.1.1.1.1.1.1.1.1.1.1.1.1.1.x h x x x x x x x x x h x h x x x x 1.1.1.1.1.1.1.",
"1.1.1.1.1.1.1.Y Y Y H x x x x x x D Y Y Y B x x x 1.1.1.1.1.1.1.1.1.1.1.1.1.x } %.%.%.m z x x x x h -.;.%.*.h x x x x 1.1.1.1.1.",
"1.1.1.1.1.1.v &.,.,...x x x x x x Y ,.>.,.H x z x x x 1.1.1.1.1.1.1.1.1.1.1.h } &.>.&.b z x x x h g -.&.&.=.h h x x x 1.1.1.1.1.",
"1.1.1.1.1.1.H &.&.&...G S x x x F ` ,.&.>.Y G m x x x 1.1.1.1.1.1.1.1.1.1.1.=.;.&.&.&.=.=.F x x H =.&.&.&.:.=.*.x x x 1.1.1.1.1.",
"1.1.1.1.1.1.<.<.<.&.>.>.*.x x h =.<.<.&.&.>.,._ x x x 1.1.1.1.1.1.1.1.1.1.1./ +.+.@.&.&.,.G x x G O.O.O.$.:.&.;.x x x 1.1.1.1.1.",
"1.1.1.1.1.1.4 2 2 &.&.&.*.x x x k 2 4 7 <.&.,.) x x x 1.1.1.1.1.1.1.1.1.1.1.      T <.&.>.G x x a       +.&.&.%.x x x 1.1.1.1.1.",
"1.1.1.1.1.1.      $.&.:.*.h x x &     1 <.&.,.) x x x 1.1.1.1.1.1.1.1.1.1.1..     T &.&.>.G x x s       +.&.&.%.x x x 1.1.1.1.1.",
"1.1.1.1.z e       $.:.:.*.x x x &     1 <.&.,.) x x x x 1.1.1.1.1.1.1.1.x x o     T &.,.,.G x x a       +.<.>.%.x x x x x 1.1.1.",
"1.1.1.x z u & 2 1 $.;.-...x x x 9 - 2 6 <.-.-.Y x x x x 1.1.1.1.1.1.1.1.x x f ( @.$.,.L H b x x z d #.@.&.=.G H x x x x x 1.1.1.",
"1.1.1.x x x v <.<.>. .h x x x x x Y <.:.:.H h x x x x x 1.1.1.1.1.1.1.1.x x x | ,.>.>.N z x x x x x -.>.>.*.x x x x x x x 1.1.1.",
"1.1.1.x x x v ;.%.:. .x x x x x x Y :.;.&.H x x x x x x 1.1.1.1.1.1.1.1.x x x H ) ) ) v x x x x x x Y ) ) U x x x x x x x 1.1.1.",
"1.1.1.x x x x x x x x x x x x x x x x x x x x x x x x x 1.1.1.1.1.1.1.1.x x x x x x x x x x x x x x x x x x x x x x x x x 1.1.1.",
"1.1.1.x x x x x x x x x x x x x x x x x x x x x x x x x 1.1.1.1.1.1.1.1.x x x x x x x x x x x x x x x x x x x x x x x x x 1.1.1.",
"1.1.1.x x x x x x x x x x x x x x x x x x x x x x x x x 1.1.1.1.1.1.1.1.x x x x x x x x x x x x x x x x x x x x x x x x x 1.1.1.",
"1.1.1.x x x x x x x x x x x x x x x x x x x x x x x x x 1.1.1.1.1.1.1.1.x x x x x x x x x x x x x x x x x x x x x x x x x 1.1.1.",
"1.1.1.x x x x x x x x x x x x x x x x x x x x x x x x x 1.1.1.1.1.1.1.1.x x x x x x x x x x x x x x x x x x x x x x x x x 1.1.1.",
"1.1.1.x x x x x x x x x x x x x x x x x x x x x x x x x 1.1.1.1.1.1.1.1.x x x x x x x x x x x x x x x x x x x x x x x x x 1.1.1.",
"1.1.1.x x x x x x x x x x x x x x x x x x x x x x x x x 1.1.1.1.1.1.1.1.x x x 1.1.x x x x x x 1.1.1.x x x x x x 1.1.x x x 1.1.1.",
"1.1.1.x x x x x x x x 1.x x x x x x x x 1.x x x x x x x 1.1.1.1.1.1.1.1.x x x 1.1.x x x x x x 1.1.1.x x x x x x 1.1.x x x 1.1.1.",
"1.1.1.1.1.x x x x 1.1.1.1.1.x x x x 1.1.1.1.1.x x x x 1.1.1.1.1.1.1.1.1.x 1.1.1.1.1.1.x x x x 1.1.1.x x x x 1.1.1.1.1.x x 1.1.1.",
"1.1.1.1.1.1.x x 1.1.1.1.1.1.x x x x 1.1.1.1.1.x x x 1.1.1.1.1.1.1.1.1.1.x 1.1.1.1.1.1.x x x x 1.1.1.x x x x 1.1.1.1.1.x x 1.1.1.",
"1.1.1.1.1.1.x x 1.1.1.1.1.1.x x x 1.1.1.1.1.1.1.x x 1.1.1.1.1.1.1.1.1.1.1.1.1.1.1.1.1.1.1.1.1.1.1.1.1.1.1.1.1.1.1.1.1.1.1.1.1.1.",
"1.1.1.1.1.1.1.1.1.1.1.1.1.1.1.1.1.1.1.1.1.1.1.1.1.1.1.1.1.1.1.1.1.1.1.1.1.1.1.1.1.1.1.1.1.1.1.1.1.1.1.1.1.1.1.1.1.1.1.1.1.1.1.1.",
"1.1.1.1.1.1.1.1.1.1.1.1.1.1.1.1.1.1.1.1.1.1.1.1.1.1.1.1.1.1.1.1.1.1.1.1.1.1.1.1.1.1.1.1.1.1.1.1.1.1.1.1.1.1.1.1.1.1.1.1.1.1.1.1.",
"1.1.1.1.1.1.1.1.1.1.1.1.1.1.1.1.1.1.1.1.1.1.1.1.1.1.1.1.1.1.1.1.1.1.1.1.1.1.1.1.1.1.1.1.1.1.1.1.1.1.1.1.1.1.1.1.1.1.1.1.1.1.1.1.",
"1.1.1.1.1.1.1.1.1.1.1.1.1.1.1.1.1.1.1.1.1.1.1.1.1.1.1.1.1.1.1.1.1.1.1.1.1.1.1.1.1.1.1.1.1.1.1.1.1.1.1.1.1.1.1.1.1.1.1.1.1.1.1.1.",
"1.1.1.1.1.1.1.1.1.1.1.1.1.1.1.1.1.1.1.1.1.1.1.1.1.1.1.1.1.1.1.1.1.1.1.1.1.1.1.1.1.1.1.1.1.1.1.1.1.1.1.1.1.1.1.1.1.1.1.1.1.1.1.1.",
"1.1.1.1.1.1.1.1.1.1.1.1.1.1.1.1.1.1.1.1.1.1.1.1.1.1.1.1.1.1.1.1.1.1.1.1.1.1.1.1.1.1.1.1.1.1.1.1.1.1.1.1.1.1.1.1.1.1.1.1.1.1.1.1.",
"1.1.1.1.1.1.1.1.1.1.1.1.1.1.1.1.1.1.1.1.1.1.1.1.1.1.1.1.1.1.1.1.1.1.1.1.1.1.1.1.1.1.1.1.1.1.1.1.1.1.1.1.1.1.1.1.1.1.1.1.1.1.1.1.",
"1.1.1.1.1.1.1.1.1.1.1.1.1.x x x x x x x 1.1.1.1.1.1.1.1.1.1.1.1.1.1.1.1.1.1.1.1.1.1.1.1.1.x x x x x x x 1.1.1.1.1.1.1.1.1.1.1.1.",
"1.1.1.1.1.1.1.1.1.x x x x x x x x x x x x x x 1.1.1.1.1.1.1.1.1.1.1.1.1.1.1.1.1.1.1.x x x x x x x x x x x x x x 1.1.1.1.1.1.1.1.",
"1.1.1.1.1.1.1.1.1.x x x x x x x x x x x x x x 1.1.1.1.1.1.1.1.1.1.1.1.1.1.1.1.1.1.1.x x x x x x x x x x x x x x 1.1.1.1.1.1.1.1.",
"1.1.1.1.1.1.1.x x x x x x x x x x x x x x x x x x 1.1.1.1.1.1.1.1.1.1.1.1.1.1.1.x x x x x x x x x x x x x x x x x 1.1.1.1.1.1.1.",
"1.1.1.1.1.1.1.x x x x x x x x x x x x x x x x x x 1.1.1.1.1.1.1.1.1.1.1.1.1.1.x x x x x x x x x x x x x x x x x x 1.1.1.1.1.1.1.",
"1.1.1.1.1.1.x x x c x x x x x x x x x x x x x x x x x 1.1.1.1.1.1.1.1.1.1.1.x x x x x x x x x x x x x x x x x x x x x 1.1.1.1.1.",
"1.1.1.1.1.1.x x x I Y Y P x x x x x x N Y Y Y S x x x 1.1.1.1.1.1.1.1.1.1.1.x x x c b b b c x x x x x x b b b b x x x 1.1.1.1.1.",
"1.1.1.1.1.1.x x h %.>.>.*.h x x x x x G ,.>.>.) x x x 1.1.1.1.1.1.1.1.1.1.1.x x x ) >.%.>.G x x x x x x *.>.&.;.h x x 1.1.1.1.1.",
"1.1.1.1.1.1.v %.;.>.&.&.&.:.V x x I &.%.>.&.&.&.*.h x 1.1.1.1.1.1.1.1.1.1.1.x _ X.#.:.:.&.o.] h x x  ...;.&.&.:...H x 1.1.1.1.1.",
"1.1.1.1.1.1.v &.&.&.>.&.&.>.V x x Y >.&.&.&.&.&.-.h x 1.1.1.1.1.1.1.1.1.1.1.x | &.&.:.:.&.&.X.x x x -.&.&.&.&.&.&.I x 1.1.1.1.1.",
"1.1.1.1.x x v &.&.:.&.:.&.>.V x x Y >.&.&.&.&.&.-.h x x 1.1.1.1.1.1.1.1.1.1.x } &.&.&.&.&.&.X.x x h -.&.&.&.&.&.,.I x x 1.1.1.1.",
"1.1.1.x x x v &.:.O./ O.+.>.V x z Y >.&./ O./ $.-.x x x 1.1.1.1.1.1.1.1.x x x | &.&.&.&.&.&.X.x x h $.&.&.%.&.&.,.I x x x 1.1.1.",
"1.1.1.x x x v &.:.#     6 ,.V x x Y >.$.      / -.h z x 1.1.1.1.1.1.1.1.x x x | &./       $.X.g x x -.:.6     , ,.I c c x 1.1.1.",
"1.1.1.x x x v =.-.=     5 -.V x x I -.#.      ~ *.h x x 1.1.1.1.1.1.1.1.x x x | &./       $.X.h x x ;.,.6     , ,.I x x x 1.1.1.",
"1.1.1.x x x x x h +     * h x x x x x f       i h x x x 1.1.1.1.1.1.1.1.x x x M B j       n N x x x B C 8     $ C v x x x 1.1.1.",
"1.1.1.x x x x x x f f f g x x x x x x z f f f g x x x x 1.1.1.1.1.1.1.1.x x x x z s w r w g x x x x x x r r r r x x x x x 1.1.1.",
"1.1.1.x x x x x x x x x z x x x x x x x x x x x x x x x 1.1.1.1.1.1.1.1.x x x x x x x x x x x x x x x x x x x x x x x x x 1.1.1.",
"1.1.1.x x x x x x x x x x x x x x x x x x x x x x x x x 1.1.1.1.1.1.1.1.x x x x x x x x x x x x x x x x x x x x x x x x x 1.1.1.",
"1.1.1.x x x x x x x x x x x x x x x x x x x x x x x x x 1.1.1.1.1.1.1.1.x x x x x x x x x x x x x x x x x x x x x x x x x 1.1.1.",
"1.1.1.x x x x x x x x x x x x x x x x x x x x x x x x x 1.1.1.1.1.1.1.1.x x x x x x x x x x x x x x x x x x x x x x x x x 1.1.1.",
"1.1.1.x x x x x x x x x x x x x x x x x x x x x x x x x 1.1.1.1.1.1.1.1.x x x x x x x x x x x x x x x x x x x x x x x x x 1.1.1.",
"1.1.1.x x x x x x x x 1.x x x x x x x x 1.x x x x x x x 1.1.1.1.1.1.1.1.x x x 1.1.x x x x x x 1.1.1.x x x x x x 1.1.x x x 1.1.1.",
"1.1.1.1.1.x x x x 1.1.1.1.1.x x x x 1.1.1.1.1.x x x 1.1.1.1.1.1.1.1.1.1.x x x 1.1.x x x x x x 1.1.1.x x x x x x 1.1.x x x 1.1.1.",
"1.1.1.1.1.1.x x 1.1.1.1.1.1.x x x x 1.1.1.1.1.x x x 1.1.1.1.1.1.1.1.1.1.x 1.1.1.1.1.1.x x x x 1.1.1.x x x x 1.1.1.1.1.x x 1.1.1.",
"1.1.1.1.1.1.1.1.1.1.1.1.1.1.1.1.1.1.1.1.1.1.1.1.1.1.1.1.1.1.1.1.1.1.1.1.x 1.1.1.1.1.1.x x x x 1.1.1.x x x x 1.1.1.1.1.1.x 1.1.1.",
"1.1.1.1.1.1.1.1.1.1.1.1.1.1.1.1.1.1.1.1.1.1.1.1.1.1.1.1.1.1.1.1.1.1.1.1.1.1.1.1.1.1.1.1.1.1.1.1.1.1.1.1.1.1.1.1.1.1.1.1.1.1.1.1.",
"1.1.1.1.1.1.1.1.1.1.1.1.1.1.1.1.1.1.1.1.1.1.1.1.1.1.1.1.1.1.1.1.1.1.1.1.1.1.1.1.1.1.1.1.1.1.1.1.1.1.1.1.1.1.1.1.1.1.1.1.1.1.1.1.",
"1.1.1.1.1.1.1.1.1.1.1.1.1.1.1.1.1.1.1.1.1.1.1.1.1.1.1.1.1.1.1.1.1.1.1.1.1.1.1.1.1.1.1.1.1.1.1.1.1.1.1.1.1.1.1.1.1.1.1.1.1.1.1.1.",
"1.1.1.1.1.1.1.1.1.1.1.1.1.1.1.1.1.1.1.1.1.1.1.1.1.1.1.1.1.1.1.1.1.1.1.1.1.1.1.1.1.1.1.1.1.1.1.1.1.1.1.1.1.1.1.1.1.1.1.1.1.1.1.1.",
"1.1.1.1.1.1.1.1.1.1.1.1.1.1.1.1.1.1.1.1.1.1.1.1.1.1.1.1.1.1.1.1.1.1.1.1.1.1.1.1.1.1.1.1.1.1.1.1.1.1.1.1.1.1.1.1.1.1.1.1.1.1.1.1.",
"1.1.1.1.1.1.1.1.1.1.1.1.1.1.1.1.1.1.1.1.1.1.1.1.1.1.1.1.1.1.1.1.1.1.1.1.1.1.1.1.1.1.1.1.1.1.1.1.1.1.1.1.1.1.1.1.1.1.1.1.1.1.1.1.",
"1.1.1.1.1.1.1.1.1.1.1.1.1.1.1.1.1.1.1.1.1.1.1.1.1.1.1.1.1.1.1.1.1.1.1.1.1.1.1.1.1.1.1.1.1.x x x x x x x 1.1.1.1.1.1.1.1.1.1.1.1.",
"1.1.1.1.1.1.1.1.1.1.1.1.1.x x x x x x x 1.1.1.1.1.1.1.1.1.1.1.1.1.1.1.1.1.1.1.1.1.1.1.1.1.z x x x x x x 1.1.1.1.1.1.1.1.1.1.1.1.",
"1.1.1.1.1.1.1.1.1.      9 x x x x x x g       1.1.1.1.1.1.1.1.1.1.1.1.1.1.1.1.1.1.1.      f x x x x x x 8       1.1.1.1.1.1.1.1.",
"1.1.1.1.1.1.1.1.1.      ; x x x x x x f       1.1.1.1.1.1.1.1.1.1.1.1.1.1.1.1.1.1.1.      A Z x x x S J >     X 1.1.1.1.1.1.1.1.",
"1.1.1.1.1.1.1.>.<.@     5 X.B x x K X.{       ! &.1.1.1.1.1.1.1.1.1.1.1.1.1.1.>.&./       $.X.g x h %.,.6     # <.1.1.1.1.1.1.1.",
"1.1.1.1.1.1.1.&.<.4 1 1 R ,.V x x U >.$.< 1 < O.&.1.1.1.1.1.1.1.1.1.1.1.1.1.x  .>.$.@.@.@.%.X.x x h -.&.$.@.@.@.>.I x 1.1.1.1.1.",
"1.1.1.1.1.1.v &.&.<.<.>.<.&.V x x Y >.>.:.<.<.<.-.h x 1.1.1.1.1.1.1.1.1.1.1.x | >.>.>.%.,.>...x x h ;.&.&.&.&.&.>.I x 1.1.1.1.1.",
"1.1.1.1.1.1.v &.&.&.&.&.&.,.V x x Y >.&.&.&.&.&.=.h x 1.1.1.1.1.1.1.1.1.1.1.x | >.&.>.>.>.>...x x x -.>.&.&.>.&.>.I x 1.1.1.1.1.",
"1.1.1.1.1.1.v >.>.&.&.&.&.,.Z x z Y >.>.&.&.&.&.-.h x 1.1.1.1.1.1.1.1.1.1.1.x [ -.-.>.>.%.%...z x z *.-.&.&.&.&.-.P x 1.1.1.1.1.",
"1.1.1.1.1.1.c ) ) %.&.>.=._ M x x D ` ] ,.&.>. .Y x x 1.1.1.1.1.1.1.1.1.1.1.x x z ) >.>.<.F z x x x h h *.:.&.%.h x x 1.1.1.1.1.",
"1.1.1.1.1.1.x x x %.&.,.*.h x x x x x G ,.&.>.) x x x 1.1.1.1.1.1.1.1.1.1.1.x x x ) &.;.<.G x x x x x x *.;.%.;.h x x 1.1.1.1.1.",
"1.1.1.1.1.x x x x [ | | ` x x x x x x V | | | K x x x 1.1.1.1.1.1.1.1.1.x x x x x x x x x x x x x x x x h x h x x x x x x 1.1.1.",
"1.1.1.x x x x x x x x x x x x x x x x x x x x x x x x x 1.1.1.1.1.1.1.1.x x x x x x x x x x x x x x x x x x x x x x x x x 1.1.1.",
"1.1.1.x x x x x x x x x x x x x x x x x x x x x x x x x 1.1.1.1.1.1.1.1.x x x x x x x x x x x x x x x x x x x x x x x x x 1.1.1.",
"1.1.1.x x x x x x x x x x x x x x x x x x x x x x x x x 1.1.1.1.1.1.1.1.x x x x x x x x x x x x x x x x x x x x x x x x x 1.1.1.",
"1.1.1.x x x x x x x x x x x x x x x x x x x x x x x x x 1.1.1.1.1.1.1.1.x x x x x x x x x x x x x x x x x x x x x x x x x 1.1.1.",
"1.1.1.x x x x x x x x x x x x x x x x x x x x x x x x x 1.1.1.1.1.1.1.1.x x x x x x x x x x x x x x x x x x x x x x x x x 1.1.1.",
"1.1.1.x x x x x x x x x x x x x x x x x x x x x x x x x 1.1.1.1.1.1.1.1.x x x x x x x x x x x x x x x x x x x x x x x x x 1.1.1.",
"1.1.1.x x x x x x x x x x x x x x x x x x x x x x x x x 1.1.1.1.1.1.1.1.x x x x x x x x x x x x x x x x x x x x x x x x x 1.1.1.",
"1.1.1.x x x x x x x x x x x x x x x x x x x x x x x x x 1.1.1.1.1.1.1.1.x x x x x x x x x x x x x x x x x x x x x x x x x 1.1.1.",
"1.1.1.x x x x x x x x x x x x x x x x x x x x x x x x x 1.1.1.1.1.1.1.1.x x x x x x x x x x x x x x x x x x x x x x x x x 1.1.1.",
"1.1.1.x x x x x x x x x x x x x x x x x x x x x x x x x 1.1.1.1.1.1.1.1.x x x x x x x x x x x x x x x x x x x x x x x x x 1.1.1.",
"1.1.1.x x x x x x x x 1.x x x x x x x x 1.x x x x x x x 1.1.1.1.1.1.1.1.x x x 1.1.x x x x x x 1.1.1.x x x x x x 1.1.x x x 1.1.1.",
"1.1.1.1.x x x x x x 1.1.x x x x x x x x 1.x x x x x x x 1.1.1.1.1.1.1.1.x 1.1.1.1.1.1.x x x x 1.1.1.x x x x 1.1.1.1.1.x x 1.1.1.",
"1.1.1.1.1.1.x x 1.1.1.1.1.1.x x x x 1.1.1.1.1.x x x 1.1.1.1.1.1.1.1.1.1.x 1.1.1.1.1.1.x x x x 1.1.1.x x x x 1.1.1.1.1.x x 1.1.1.",
"1.1.1.1.1.1.x x 1.1.1.1.1.1.x x x x 1.1.1.1.1.x x x 1.1.1.1.1.1.1.1.1.1.1.1.1.1.1.1.1.1.1.1.1.1.1.1.1.1.1.1.1.1.1.1.1.1.1.1.1.1.",
"1.1.1.1.1.1.1.1.1.1.1.1.1.1.1.1.1.1.1.1.1.1.1.1.1.1.1.1.1.1.1.1.1.1.1.1.1.1.1.1.1.1.1.1.1.1.1.1.1.1.1.1.1.1.1.1.1.1.1.1.1.1.1.1.",
"1.1.1.1.1.1.1.1.1.1.1.1.1.1.1.1.1.1.1.1.1.1.1.1.1.1.1.1.1.1.1.1.1.1.1.1.1.1.1.1.1.1.1.1.1.1.1.1.1.1.1.1.1.1.1.1.1.1.1.1.1.1.1.1.",
"1.1.1.1.1.1.1.1.1.1.1.1.1.1.1.1.1.1.1.1.1.1.1.1.1.1.1.1.1.1.1.1.1.1.1.1.1.1.1.1.1.1.1.1.1.1.1.1.1.1.1.1.1.1.1.1.1.1.1.1.1.1.1.1."
};
