/* XPM */
static char *_243ccd502bf4eaa93390330c7c58702QSYcQEwx6fauBWqm[] = {
/* columns rows colors chars-per-pixel */
"16 16 4 1 ",
"  c #333C57",
". c #566C86",
"X c #94B0C2",
"o c #F4F4F4",
/* pixels */
"XXXXXo..XXXXX XX",
"XXXXXXo...... .X",
"XXXXXX  .... ...",
"..XXX   ooo  ...",
"....  ooXXXo  ..",
"...  oXXXXXXo  .",
"    oXXXXXXXX.  ",
"oo oXXXXXXXX.. o",
"XXo XXXXXXX..ooX",
"XXXX.X..XX..oXXX",
"XXX. .......XXXX",
"XX..  ......XXXX",
"X...   oooo  .XX",
"...   oXXXXo  ..",
"oooo oXXXXXXo  o",
"XXXXo XXXXXXX oX"
};
