/* XPM */
static char *_58b5cdb62874080a8eaca7a13f917fdwXolAioDwCxpR2xK[] = {
/* columns rows colors chars-per-pixel */
"64 64 194 2 ",
"   c #0E172A",
".  c #0F1928",
"X  c #15172F",
"o  c #141A2A",
"O  c #1C1D2D",
"+  c #1D1A32",
"@  c #221E2E",
"#  c #281F2F",
"$  c #231D33",
"%  c #291E30",
"&  c #261B3B",
"*  c #2C1E3C",
"=  c #321F3D",
"-  c #1F202D",
";  c #24212D",
":  c #2C242E",
">  c #30272F",
",  c #32292F",
"<  c #2E2131",
"1  c #2D2039",
"2  c #332433",
"3  c #382234",
"4  c #352931",
"5  c #3A2A35",
"6  c #33203E",
"7  c #3B243E",
"8  c #3E2A38",
"9  c #442537",
"0  c #462C36",
"q  c #44243C",
"w  c #4C263B",
"e  c #41283F",
"r  c #4F2839",
"t  c #522839",
"y  c #532A3A",
"u  c #5A2B3C",
"i  c #443133",
"p  c #4D3336",
"a  c #503437",
"s  c #55343F",
"d  c #5A343C",
"f  c #573938",
"g  c #5D3B39",
"h  c #69333F",
"j  c #633D3C",
"k  c #6A3C3E",
"l  c #723F3F",
"z  c #66413A",
"x  c #6A423B",
"c  c #76453E",
"v  c #78463F",
"b  c #7C4A3F",
"n  c #321E41",
"m  c #391F46",
"M  c #371E4A",
"N  c #391E4A",
"B  c #362142",
"V  c #3B2144",
"C  c #3E204A",
"Z  c #452443",
"A  c #4C2642",
"S  c #442940",
"D  c #4C2C43",
"F  c #43234B",
"G  c #48254B",
"H  c #54264A",
"J  c #54284A",
"K  c #5A2848",
"L  c #582A4D",
"P  c #543340",
"I  c #5A3641",
"U  c #472152",
"Y  c #4C2452",
"T  c #4E2358",
"R  c #542556",
"E  c #5E2855",
"W  c #562559",
"Q  c #5C275D",
"!  c #5F285D",
"~  c #642B45",
"^  c #6D2E43",
"/  c #672B48",
"(  c #722F44",
")  c #6D3946",
"_  c #733242",
"`  c #7B3244",
"'  c #72354F",
"]  c #612A56",
"[  c #6F2E50",
"{  c #60275F",
"}  c #64295D",
"|  c #6A2A5C",
" . c #712D55",
".. c #782F57",
"X. c #722D5B",
"o. c #7A2F5A",
"O. c #763156",
"+. c #7B3257",
"@. c #7E305A",
"#. c #5E2760",
"$. c #602761",
"%. c #754442",
"&. c #7A4640",
"*. c #7F4841",
"=. c #853648",
"-. c #8D354A",
";. c #92374F",
":. c #9D394E",
">. c #853352",
",. c #8B3456",
"<. c #823159",
"1. c #8B3459",
"2. c #8C3458",
"3. c #923657",
"4. c #963756",
"5. c #9A3757",
"6. c #933A55",
"7. c #9C3856",
"8. c #9D3856",
"9. c #943658",
"0. c #953658",
"q. c #9C3959",
"w. c #A23B4F",
"e. c #A13A55",
"r. c #A53A54",
"t. c #A53B54",
"y. c #A63B54",
"u. c #AE3C53",
"i. c #AF3D53",
"p. c #A93C54",
"a. c #AD3D54",
"s. c #A03C5A",
"d. c #B03E53",
"f. c #B63F52",
"g. c #B53F54",
"h. c #BB3F56",
"j. c #8B4146",
"k. c #874B42",
"l. c #9A4948",
"z. c #9D4E4D",
"x. c #8D5243",
"c. c #935245",
"v. c #9A5346",
"b. c #9F5A46",
"n. c #9B5448",
"m. c #994452",
"M. c #A4414E",
"N. c #A35C46",
"B. c #A8574A",
"V. c #A65A48",
"C. c #A95C49",
"Z. c #B55C4D",
"A. c #B85D4E",
"S. c #AD4254",
"D. c #B54253",
"F. c #BA4055",
"G. c #BA4654",
"H. c #B44A56",
"J. c #BE4C54",
"K. c #BA5053",
"L. c #BE5A50",
"P. c #AB6048",
"I. c #B9644C",
"U. c #C34D55",
"Y. c #C55454",
"T. c #CB5555",
"R. c #C45B52",
"E. c #CC5855",
"W. c #CC585A",
"Q. c #D05757",
"!. c #D25956",
"~. c #D75B58",
"^. c #C66C4D",
"/. c #CD6253",
"(. c #CD6A51",
"). c #D16354",
"_. c #D96356",
"`. c #D16F51",
"'. c #DE6A57",
"]. c #D76258",
"[. c #D37151",
"{. c #DA7453",
"}. c #E06A57",
"|. c #E56B58",
" X c #E96C58",
".X c #E67456",
"XX c #EA7657",
"oX c #E47954",
"OX c #EC7B57",
"+X c #EC7758",
"@X c #EF7858",
"#X c #F07A58",
"$X c #F78258",
"%X c #FC8459",
/* pixels */
"f.f.f.f.d.d.d.d.d.d.d.d.d.d.d.d.d.d.d.g.g.d.:.` r < $ * C R | <.9.p.f.D.f.d.d.d.d.d.d.d.d.d.d.d.d.d.d.d.d.d.d.f.D.f.p.4.@.| ! Q ",
"d.d.d.d.d.d.d.d.d.d.d.d.d.d.d.d.d.d.d.g.g.d.:.` r < $ * C R | @.9.t.d.f.d.d.d.d.d.d.d.d.d.d.d.d.d.d.d.d.d.d.d.d.f.d.t.3.o.| ! Q ",
"t.t.t.p.a.d.d.d.d.d.d.d.d.d.d.d.d.d.d.g.g.d.:.` r < $ * C R } o.2.7.t.a.i.d.d.d.d.d.d.d.d.d.d.d.d.d.d.d.d.d.d.i.a.t.7.1.o.} ! Q ",
"9.9.5.e.p.i.d.f.f.d.d.d.d.d.d.d.f.f.f.F.F.g.w.` t < $ * F R } X.<.2.4.e.p.i.d.d.d.d.d.d.d.d.d.d.d.f.f.f.f.d.d.p.e.4.2.@.X.} ! ! ",
"o.<.1.9.e.a.f.f.f.f.f.f.f.f.f.f.f.f.f.F.F.g.w.` t < $ * F W } | X.o.1.3.e.a.d.f.f.d.d.d.d.d.d.d.d.d.f.f.f.f.a.e.3.1.o.X.| } ! ! ",
"} | X.<.4.t.d.d.d.d.d.d.d.d.d.d.d.d.d.g.g.i.:._ r < $ * F R ! } } | X.<.4.t.d.d.f.d.d.d.d.d.d.d.d.d.d.d.d.d.t.4.<.X.} } ! ! ! ! ",
"T R E  .>.7.t.p.p.t.t.t.t.t.t.t.t.t.t.t.t.:.-.^ 9 < $ * V Y R W Q ! } o.1.7.t.p.i.d.d.d.d.d.d.i.p.t.t.t.p.t.7.2.o.} ! W W R R R ",
"M C G L  .,.9.9.4.3.3.3.3.3.3.9.9.9.3.,.=.` ^ t 3 @ O $ * m F Y R Q } X.@.1.4.e.p.d.d.f.f.d.d.t.7.4.3.3.3.3.1.@.X.} W T Y F C C ",
"& * n Z E  .@.<.@.@.o.o.o.o.@.@.@.@...[ ~ u w 3 # O X + + * n C Y W } | X.o.<.3.e.a.f.D.D.f.a.7.3.<.@.o.o.o.o.X.| } W Y C n * * ",
"$ $ 1 V G E | | | | | | | | | | | | ] H Z 3 < # @ O O O O $ * V G R ! } } } X.<.4.t.d.f.f.d.t.4.<.X.| } } | } } } ! R G V * $ $ ",
"4 4 5 e G R R W Q ! ! ! ! ! ! ! W R Y C * $ O ; : 4 4 4 4 4 5 e G Y R W Q ! } o.2.7.t.p.p.t.7.2.o.} ! ! ! ! ! Q W R Y G e 5 4 4 ",
"x z j s D F F U T W ! #.#.! Q W T G V * + X O : i g x x x x j s D F F U T Q } X.<.2.9.9.9.9.2.@.X.} ! Q #.Q Q R Y F F D s j j x ",
"C.N.c.%.s 7 n M U W ! $.$.! W T F B * + X X ; i x x.N.P.P.N.c.%.s 7 n M U W } | X.o.@.<.<.@.o.X.| } ! #.#.! W Y M n 7 s %.x.b.N.",
"{.`.I.c.j 8 1 n F R ! { { ! R G V * $ O X O 4 g x.I.[.{.{.`.I.c.j 8 1 n F R ! } } } | | | | } } } ! ! ! ! ! R F n 1 8 j c.I.`.{.",
"@X.X(.V.v a 8 7 F Y R W W R Y C * $ O O ; 4 p v V.(..X#X#X.X(.V.c p 8 7 F Y R W R R R R R R R R R R R R R R Y F 7 8 a b C.[.OX$X",
" X'.).Z.v.v j s D G F F F C m * + O O : i g v v.Z.).}. X X}.).Z.v.c j s D F C C F F F C C C C C C C C C N C F D s j b N.^.oX$X%X",
"Q.E.E.R.Z.V.c.%.I e 6 * * * & + X X ; i x c.C.A.R.E.E.Q.E.E.E.R.Z.V.c.%.s 7 * * * * * * * * * * * * * & & * 7 s %.c.P.^.{.OX$X%X",
"G.G.J.Y./.(.I.c.j 5 $ + + $ $ O O O 4 g c.I.(.).E.J.G.G.G.G.J.Y./.(.I.c.j 8 $ + + $ $ $ $ $ $ $ $ $ $ $ + $ 5 j c.I.[.oXOXOXOX#X",
"i.d.G.T._.'.(.n.j 4 O O ; 4 4 4 4 4 p v V.(.'._.T.G.d.i.i.d.G.T._.'.(.C.&.p 4 ; O O O ; < 4 4 4 4 4 4 4 4 4 p c V.(..X+XXX.X.X.X",
"i.i.D.U.~._.R.l.g < O : i g z x z x &.v.Z.)._.!.U.D.i.i.i.i.D.U.!._.).A.v.c g i : ; ; , i g z x x x z z j z v v.Z.).'.}.'._._._.",
"i.d.D.U.T.E.K.j.t < ; 8 z x.N.N.N.N.C.Z.L.Y.T.U.G.D.i.i.i.i.D.G.U.T.E.R.Z.V.x.x i : : i x x.N.N.N.N.N.N.N.N.V.Z.L.Y.E.E.T.T.T.Y.",
"d.d.d.F.G.D.M.` t 2 4 g x.I.`.{.{.[.(./.Y.J.G.D.D.d.d.d.d.d.d.D.D.G.J.E.).(.I.x.g 4 4 f x.I.`.{.[.[.[.[.[.`.(./.Y.J.G.G.G.G.G.G.",
"d.d.i.i.p.:.-._ t 0 p c V.(..X@X+X.X'.).Y.G.d.i.d.d.d.d.d.d.d.d.i.d.G.T._.'.(.n.j 8 8 j v.(..X+XXX.X.X.X.X.X'.).Y.G.d.d.d.d.d.d.",
"F.g.i.:.-.` _ h k k &.v.Z.).'. X X}._.E.U.D.i.i.i.d.d.d.d.d.d.i.i.i.D.U.!._.R.z.) D D ) z./.}. X X}.}.}.}.}._.E.U.D.i.i.i.i.i.i.",
"F.g.p.-.( u u k *.v.C.Z.R.E.E.!.E.E.T.U.G.D.d.d.d.d.d.d.d.d.d.d.i.d.D.J.U.T.K.m.' L L ' m.K.E.!.!.E.E.E.E.E.T.U.G.D.d.i.i.i.i.i.",
"g.i.:.` u 9 0 j v.I.(./.Y.J.G.G.G.G.G.D.D.d.d.d.d.d.d.d.d.d.d.d.d.d.d.D.G.G.S.6.O.] ] O.6.S.G.J.J.G.G.G.G.G.G.D.D.d.d.d.d.d.d.d.",
"w.:.-.^ w 3 8 k n.(.'._.T.G.d.i.d.d.d.d.d.d.d.d.d.d.d.d.d.d.d.d.d.d.d.f.f.d.t.3.o.| } o.1.7.t.a.i.d.d.d.d.d.d.d.d.d.d.d.d.d.d.d.",
"` ` ^ K q 6 S ) z.R._.!.U.D.i.i.i.i.i.d.d.d.d.d.d.d.d.d.d.d.d.d.d.d.d.d.f.d.t.3.o.| } | o.1.3.7.t.i.d.d.d.i.i.d.d.d.d.d.d.d.d.d.",
"t t w Z Z F J ' m.K.T.Y.J.D.d.i.i.i.d.d.d.d.d.d.d.d.d.d.d.d.d.d.d.d.d.f.f.d.t.3.o.| } } | o.<.3.7.p.d.d.d.d.d.d.d.d.d.d.d.d.d.d.",
": < 2 7 F Y ] +.6.S.G.G.D.d.d.d.d.d.d.d.d.d.d.d.d.d.d.d.d.d.d.d.d.d.d.d.d.d.t.3.o.| ! ! ! } X.<.4.t.d.d.d.d.d.d.d.d.d.d.d.d.d.d.",
"o O $ 6 G E X.1.5.p.d.f.d.d.d.d.d.d.d.d.d.d.d.d.d.d.d.d.d.d.d.d.d.d.d.i.a.t.7.1.o.} ! Q Q ! | o.1.7.t.a.i.d.d.d.d.d.d.d.d.d.d.d.",
". o $ 7 J  .1.9.e.p.i.d.d.d.d.d.d.d.d.d.d.d.d.d.d.d.d.d.d.d.d.f.f.d.i.p.e.4.2.@.X.} ! Q Q ! } | @.1.4.e.p.i.d.f.f.d.d.f.d.d.d.d.",
". o $ q ~ >.5.t.p.a.i.d.d.d.d.d.d.d.d.d.d.d.d.d.d.d.d.d.d.d.d.f.f.d.a.e.3.<.o.| | } ! ! Q Q ! } | o.<.3.e.a.f.f.f.f.f.f.f.f.f.f.",
"o O < w ( ;.t.a.d.d.d.d.d.d.d.d.d.d.d.d.d.d.d.d.d.d.d.d.d.d.d.d.d.d.t.4.<.X.} } ! ! ! ! ! ! ! ! } } X.<.4.t.d.d.d.d.d.d.d.d.d.d.",
"o O < w ( ;.t.a.d.d.d.d.d.d.d.d.d.d.d.d.d.d.d.d.d.d.d.d.d.d.d.i.a.t.7.1.o.} ! W W R R W W Q ! ! Q ! } o.,.7.t.p.p.t.t.t.t.t.t.t.",
"o O < q ~ >.5.t.a.d.d.d.d.d.d.d.d.d.d.d.d.d.d.d.d.d.d.f.f.d.i.p.e.4.1.@.| } W T Y G G Y R Q ! ! Q Q } | @.1.3.4.4.3.3.3.3.9.9.9.",
"o O $ 7 J  .1.9.e.a.d.f.f.d.d.d.d.d.d.d.d.d.d.d.d.d.d.f.f.d.a.e.3.<.o.| } ! W Y C V V F Y W ! ! Q ! ! } X.o.o.@.@.o.o.@.@.@.@.@.",
"o O $ 6 G E X.1.5.t.d.d.d.d.d.d.d.d.d.d.d.d.d.d.d.d.d.d.d.d.t.4.<.X.} } } ! R G B * * B G R ! ! ! ! ! } } } } | | | | | | | | | ",
"o O $ = F R } o.2.7.t.a.d.d.d.d.d.d.d.d.d.d.d.d.d.d.d.d.a.t.7.1.o.} ! ! ! ! R F 6 $ $ * C Y R W Q ! ! ! ! ! ! ! ! ! ! W W R R R ",
"o o + * C R } X.@.1.4.e.p.d.f.f.f.d.d.d.d.d.d.f.f.d.i.p.e.4.1.@.| } Q ! #.! R F 6 $ O $ 6 C G R W Q ! ! ! Q ! ! ! ! Q R U F C C ",
". o + * F R } | X.o.<.3.e.a.f.f.f.f.f.f.f.f.f.f.f.f.a.e.3.<.o.| } ! ! ! #.! W F 6 $ O O $ * V F R W ! $.#.! ! #.#.! W Y C n * * ",
"O O $ 6 F R ! } } } X.<.4.t.d.d.d.d.d.d.d.d.d.d.d.d.t.4.<.X.} } ! ! ! ! ! ! R F 6 $ O O O $ * V G R ! ! ! ! ! ! ! ! R G V * $ $ ",
"4 4 5 e G Y R W Q ! } o.2.7.t.p.p.t.t.t.t.t.t.p.p.t.7.,.o.} ! Q ! ! ! Q W R Y C * $ O o o O $ * C Y R W R R R R W R Y F 7 3 < : ",
"x x j I D F F U T Q } X.@.1.3.4.4.3.3.3.3.3.3.4.4.3.1.@.| } Q Q Q ! Q W R G C = $ O o o o o O $ * m C F F C F F F F F A w r t t ",
"C.N.c.%.s 7 n M U W } | X.o.o.@.@.o.o.o.o.o.o.@.@.o.o.X.} ! ! Q ! ! W Y F V * $ + X o o o o o + $ & * * * * * * * 6 7 A ~ _ ` ` ",
"{.`.I.c.j 8 1 n F R ! } } } | | | | } } } } | | | | } } } ! ! ! ! Q R G V * $ O O O O O O O O O $ $ $ $ $ $ $ $ + $ 3 t ( -.:.t.",
"#X.X(.V.v a 8 7 F Y R W Q ! ! ! ! ! ! ! ! ! ! ! ! ! ! ! ! ! ! Q W R Y C * $ O ; : 4 4 4 4 4 4 4 4 4 4 4 4 4 4 : - O < w ( ;.t.a.",
" X}.).Z.v.v j s D G G Y R Q ! ! ! ! ! ! Q Q ! ! ! ! ! ! ! ! Q W R G C * $ O O > p g x x x x x x x x x x x z g i : O $ q / >.5.s.",
"!.!.E.R.Z.V.c.%.s e V C Y W ! #.#.! ! ! ! ! ! ! ! ! ! #.$.! W R F V * $ X X ; i x x.N.C.C.C.N.N.N.N.N.N.N.N.x.x i ; $ = H  .<.1.",
"G.G.J.Y./.(.I.c.j 5 * n F R ! ! ! ! Q ! Q Q Q Q ! ! ! ! ! ! R G V * $ O X O 4 g x.I.`.{.[.[.[.[.[.[.[.[.{.`.I.x.g 4 $ = G E | | ",
"e.t.D.Y.].'.(.n.j 4 $ & m Y R W R R R R R R R R R R R W W R Y C * $ O O ; 4 p v V.(..X+XXX.X.X.X.X.X.XXX+X.X(.V.c p 8 7 F Y R W ",
"2.9.q.H.W.].R.v.g < O + * m C F F C F F F F F F F F F G G F C = $ O O : i g v v.Z.).'.|.|.}.}.}.}.}.}.|.|.'.).Z.v.&.j P D F C M ",
"o.o.1.s.H.Y.K.j.d : X X + & * * * * * * * 6 6 6 6 6 6 6 6 6 * $ + X ; i x c.C.A.R.E.E.E.E.E.E.E.E.E.E.E.E.E.E.R.Z.C.c.%.P 7 * & ",
"} | X.1.s.S.M.=.t 2 O O O $ $ $ $ $ $ $ $ $ $ $ $ $ $ $ $ $ $ O X O 4 g c.I.(.).E.J.G.G.G.G.G.G.G.G.G.G.G.G.J.E./.(.I.c.j 5 $ + ",
"R R E  .>.;.-.` d 0 4 4 4 4 4 4 4 4 4 < ; O O O O O O O O O O @ ; 4 p v C.(.'._.T.G.d.i.d.d.d.d.d.d.d.d.i.d.G.T._.'.(.V.c p 4 < ",
"C F G H ~ ^ ( _ k k x x x x x x x z g p , - o o o o o o o o O : i g v v.A.)._.!.U.D.i.i.i.i.i.i.i.i.i.i.i.i.D.U.!._./.Z.c.v x j ",
"* = 6 = 7 q t k k.v.N.N.N.N.N.N.N.N.x.x i ; o o o o o o   o ; i x c.C.A.R.E.T.U.G.D.d.i.d.d.d.i.i.i.i.i.i.d.D.G.U.T.Y.L.Z.C.N.b.",
"$ $ $ $ $ < 0 k v.I.`.{.[.[.[.[.{.`.I.x.g 4 O o o O O o o O 4 g c.I.(.).E.J.G.D.D.d.d.d.d.d.d.d.d.d.d.d.d.d.d.D.D.G.J.Y./.(.`.[.",
"O O O @ ; 4 p &.V.(..XXXXX.X.XXX+X.X(.B.l 0 < @ O O O O ; 4 p &.C.(.'._.T.G.d.i.d.d.d.d.d.d.d.d.d.d.d.d.d.d.d.d.i.d.G.Y.).'..XXX",
"o O ; 4 i g c v.Z./.'.|.|.'.'.|.|.'./.B.j.h w 3 % @ ; 4 p j &.v.A./._.!.U.D.i.i.i.d.d.d.d.d.d.d.d.d.d.d.d.d.d.d.i.i.D.U.E._.'.}.",
"o O : i x x.V.Z.R.Y.E.E.E.E.E.E.E.E.Y.H.m.=.^ t 3 # < p x c.C.A.R.Y.Y.U.G.D.d.i.d.d.d.d.d.d.d.d.d.d.d.d.d.d.d.d.i.d.D.G.U.Y.E.E.",
"  O 4 g x.I.(./.E.J.G.G.G.G.G.G.G.G.D.D.i.w.-.h 9 < 4 g x.I.(./.E.J.G.D.D.d.d.d.d.d.d.d.d.d.d.d.d.d.d.d.d.d.d.d.d.d.d.D.D.G.G.G.",
"  O 4 z b.`..X'.E.G.d.i.d.d.d.d.d.d.d.g.g.i.:.( w < 4 z b.`..X'.E.G.d.i.d.d.d.d.d.d.d.d.d.d.d.d.d.d.d.d.d.d.d.d.d.d.d.d.d.d.d.d.",
"  O 4 x C.{.@X X!.G.i.p.i.i.i.i.i.i.d.g.h.g.w.` w 2 4 x C.{.@X XQ.G.i.i.i.d.d.d.d.d.d.d.d.d.d.d.d.d.d.d.d.d.d.d.d.d.d.d.i.i.i.i."
};
