/* XPM */
static char *f35f890dbb964e3cd125850ca5cb31ccZvuVph4eHpB5pkv2[] = {
/* columns rows colors chars-per-pixel */
"64 64 156 2 ",
"   c #56245E",
".  c #5C275D",
"X  c #5F285D",
"o  c #64275C",
"O  c #65295C",
"+  c #6B2B5B",
"@  c #742D5A",
"#  c #7A2E59",
"$  c #6D325D",
"%  c #71335C",
"&  c #7D3059",
"*  c #812D57",
"=  c #892E56",
"-  c #812E58",
";  c #962F54",
":  c #8D3357",
">  c #823158",
",  c #8A3358",
"<  c #873E5B",
"1  c #8C3C5A",
"2  c #933556",
"3  c #9C3555",
"4  c #953A57",
"5  c #9C3856",
"6  c #9B3F58",
"7  c #A33553",
"8  c #AC3652",
"9  c #A63B54",
"0  c #AC3B53",
"q  c #B03751",
"w  c #B13E53",
"e  c #9F4057",
"r  c #92465B",
"t  c #9C4459",
"y  c #94485B",
"u  c #9C4C5B",
"i  c #A74156",
"p  c #AD4455",
"a  c #A04659",
"s  c #AA4F59",
"d  c #B54253",
"f  c #B94653",
"g  c #B74956",
"h  c #BB4C55",
"j  c #B14D58",
"k  c #B94F58",
"l  c #AC575D",
"z  c #AA595D",
"x  c #BC5157",
"c  c #BC5258",
"v  c #B65A59",
"b  c #BB5E59",
"n  c #BC635C",
"m  c #C14D54",
"M  c #C55354",
"N  c #C95654",
"B  c #C75D57",
"V  c #CD5A55",
"C  c #C15658",
"Z  c #C35C5A",
"A  c #CA5F58",
"S  c #D25E54",
"D  c #CE6157",
"F  c #C5615B",
"G  c #CD6359",
"H  c #C2695E",
"J  c #CB6C5E",
"K  c #D56255",
"L  c #D96655",
"P  c #D56957",
"I  c #DC6A56",
"U  c #D16659",
"Y  c #D16859",
"T  c #DC6E58",
"R  c #CE725F",
"E  c #DC7157",
"W  c #D3745E",
"Q  c #DD7359",
"!  c #DE7A5D",
"~  c #E06E56",
"^  c #E67456",
"/  c #E87657",
"(  c #ED7B57",
")  c #E07559",
"_  c #E47C5B",
"`  c #EA7E5A",
"'  c #F17E57",
"]  c #C27162",
"[  c #CF7560",
"{  c #D17660",
"}  c #D47B61",
"|  c #E7835D",
" . c #EB825B",
".. c #EE8B5E",
"X. c #F28157",
"o. c #F1855A",
"O. c #F28B5C",
"+. c #F5925F",
"@. c #F8945E",
"#. c #D68263",
"$. c #DD8562",
"%. c #D78B66",
"&. c #DC8D66",
"*. c #E08561",
"=. c #E18B63",
"-. c #EB8E60",
";. c #E39466",
":. c #EB9262",
">. c #E79967",
",. c #ED9F67",
"<. c #E29668",
"1. c #E59C69",
"2. c #E99E69",
"3. c #F29661",
"4. c #F49A63",
"5. c #F69D63",
"6. c #F19F65",
"7. c #F89D62",
"8. c #EFA067",
"9. c #E7A06A",
"0. c #EBA269",
"q. c #EDA56A",
"w. c #EBA96C",
"e. c #ECA96C",
"r. c #F1A267",
"t. c #F4A266",
"y. c #F9A264",
"u. c #FAAA67",
"i. c #F3AB6A",
"p. c #F7A868",
"a. c #F8AB68",
"s. c #F8AF6A",
"d. c #EFB16E",
"f. c #F3B26D",
"g. c #F4B36E",
"h. c #FBB26B",
"j. c #FCB36B",
"k. c #FDB56B",
"l. c #F9B76D",
"z. c #FFB86B",
"x. c #FBB96E",
"c. c #F1B670",
"v. c #F5BA70",
"b. c #F5BD72",
"n. c #F8BE71",
"m. c #F7C072",
"M. c #F8C172",
"N. c #FBC372",
"B. c #FCC271",
"V. c #FFCA73",
"C. c #FECB75",
"Z. c #FFCC75",
"A. c #FFD176",
"S. c #FFD577",
"D. c #FFD778",
"F. c #FFDA79",
/* pixels */
"S.Z.v.1.{ c 9 : @ O .   . X X .   . O # 2 9 w w 8 8 d m S ^ o.7.k.V.S.F.F.S.V.z.y.O.( L N f w 8 8 w c [ 1.N.S.F.D.A.A.A.A.A.A.A.",
"S.Z.v.1.{ c 9 2 # + X . . X X . . X + & 2 9 w w w w f M L / o.5.h.B.Z.A.A.Z.B.h.5.o./ K M f w 8 8 w c R <.v.C.A.A.Z.Z.Z.Z.Z.Z.Z.",
"S.Z.v.1.{ c 9 2 * @ O o X X X X o O @ > 2 9 w d d f m V T  .O.5.p.g.v.b.b.v.f.r.:.` ~ S M f w 8 8 w k J &.w.v.N.B.B.B.B.B.B.B.B.",
"S.Z.v.1.R k 0 3 : > @ + O X X O + @ > : 3 9 w f f M V T | 3.5.6.,.1.1.1.1.<.;.=._ T K N m d w 8 8 w g Z [ &.1.q.i.s.h.j.j.h.h.h.",
"S.Z.v.<.R k 0 7 3 2 , # + o o + # , 2 3 9 0 d f M S T | 4.p.p.,.=.} [ [ [ [ R J D V N m f d w 0 8 w f c Z J { $.-.4.5.7.7.5.5.5.",
"S.Z.v.1.[ c w 8 0 9 5 , @ O O @ , 5 9 0 0 w f M S T ` 3.a.l.g.1.} F c k k c x k g g f d d w w w w w d f g x Z U Q  .o.o.o.o.o.o.",
"S.Z.b.9.#.F k f d d 9 2 > @ @ > 2 9 w w d f m V T ` O.t.s.g.w.&.J x d w w w w 0 0 0 0 0 0 w w w w w w d d f m V L ~ / / / / / / ",
"S.A.N.d.<.} J Z x f 0 3 : > > : 3 0 w f f M V E | 3.t.t.0.1.&.{ Z f w q q w 8 7 3 2 2 3 9 0 w w w w w d f m N V S K K K K K K K ",
"S.A.C.N.f.9.&.{ Z g 0 9 3 2 2 3 7 8 w f M S T | 4.a.s.0.;.} J Z k d w w w w 0 3 : > > : 5 0 w w w 0 d h N S K S V N M M M M M M ",
"Z.Z.C.C.N.b.e.&.J k w 0 0 9 9 9 0 w f M S ~ ` 3.a.l.g.1.} F k f d w w w w w 9 2 > @ @ > 2 9 w w w w f M K T ~ L V m f f f f f f ",
"v.v.b.N.C.C.v.<.[ c w 8 8 w d d g k Z U Q  .O.5.s.g.w.&.J x w 0 0 9 9 9 9 9 5 , @ + O @ , 5 0 0 d f m V L ~ T K M f d d d f f g ",
"<.<.9.f.N.C.m.9.{ c w 8 8 w f x Z J } $.:.4.t.t.0.1.&.{ Z f 8 7 3 2 2 2 2 2 , & + o o + # , 5 i g M V S L L K N h d w d h M N N ",
"J [ #.<.f.N.b.9.{ c w 8 8 w g Z { &.1.i.g.h.s.0.=.} J Z h d 0 3 : > & # # # @ + O X X o + # , t x V L K S V M h d w d h N K L L ",
"g c F #.9.v.v.1.[ c w 8 8 w k J &.w.v.N.N.B.g.1.} F x f d w 9 2 > @ + O O O O o o X X X X O & y b P T L V m f d w w f M K T / / ",
"8 d x R ;.i.f.;.R x w 8 w f C W ;.g.B.N.N.v.e.&.J k w 8 0 9 5 , # O X . . X X X X X X . . X % y b E ^ I N f w w d f m V L ~ / / ",
"8 8 g G $.,.,.=.J k d w f M D ! :.p.h.g.i.1.&.{ Z f 8 7 3 2 , & + o . . . . . . X X X     . $ r b E ^ L N d w d h M V S K L L L ",
"8 8 g A ! -.-.! A g d f M K T ` O.4.4.:.=.} J Z h d 0 3 2 > # + O X . . . . . . . X .     . $ r b E ^ L M d d h N K L K S V N N ",
"8 w g V T ` ` T V g f m S T / ` o.o. .Q U Z k g f d 9 2 > @ O o X X X . . X X X X X . . . X % y n E / I N f f M K T ~ L V m f d ",
"8 w f N L / / I V m m V L / ( ( ( / ~ K M f w 0 0 9 5 , # O X . . X X X X X X X . X X X X O & u H ! ` ) S M m N L ~ T K M f w 8 ",
"8 w f N L ^ / ~ K V V L ^ ( ( ( ^ L S M f w 8 7 3 2 , & + o . . . . X X X X X . . . X o + # 1 z R =.:.| Q K V V K L K V m d w 8 ",
"8 w f N L / ( / ~ I I ^ ( ( ( ^ L V M f f w 0 3 : > @ + O X . . . X X X X X X . . . o + # , a n #.,.t.4.| Q L K S V M m f d w w ",
"8 w f N L / ( ( ( / / ( ( ( / I V m f d d w 9 2 > @ O o X X X X X X X X X X X . . X O @ = 5 j J ;.f.l.s.3.` ~ K N m f d d w w w ",
"0 w f M S T / ( ( ( ( ( ( / ~ K M f w 0 0 9 5 , @ O X . . X X X X X X . X X X X o O @ - 2 9 c { 1.v.N.h.4. .T S M f w 0 9 9 9 9 ",
"0 w d h N K I ^ ( ( ( ( ^ I K N m d 0 9 3 2 , # + o . . . X X X . . . . . . X O + @ > : 3 0 x { 1.b.N.g.:.) K N m d 0 9 3 2 2 2 ",
"w w d f h M V L ^ ( ( ^ L V M m f d 0 3 : > @ + O X . . X X X X . . . . . . o + & , 2 3 7 8 k { 1.b.N.e.=.Y N m f d 0 3 : > & # ",
"w w w d d f m V I / / I V m f d d w 9 2 > @ + o X X X X X X X X X X X X . X O @ , 5 9 0 8 w c { 1.v.v.9.} Z f w w w 9 2 > @ + O ",
"w w w w 0 w f N L / / L N f w 8 9 9 5 : & @ + o o X X X . X X o O O + O O + @ > 2 9 w d f x F } 2.g.f.;.R x w 8 0 9 5 , @ O X . ",
"w w w w 8 w f N L ^ ^ L N f 0 7 3 2 : , > & @ + O X . . . . X O @ @ # # # # * : 3 0 d h Z J } ;.0.p.r.=.J k 0 7 3 2 , # + o .   ",
"w w w w 8 w f N L ^ ^ L N f 9 3 , > & > , : , & @ o .     . o + & , 2 2 2 2 2 3 7 8 f Z { &.1.0.t.5.:.! D g 9 3 : > @ + O X . . ",
"w w w 0 0 w f N L / / I N f 9 2 # @ @ & : 5 5 : # O X . . X O @ , 5 9 0 9 9 9 0 0 w x J &.w.g.s.t.O.` L V f 9 2 - @ O o X X X . ",
"9 9 9 9 0 w g V T ` ` Q V g 9 2 # @ @ & : 5 5 2 > @ + O O O @ > 2 9 d f g k c x k c F } 1.g.l.a.3.` ~ S M f 9 2 # + X . . X X X ",
"2 2 2 3 9 0 g D ! -.-.! A g 0 3 , > & > , : 2 , > # # # @ # > : 3 9 f M F J { { [ { } =.0.s.p.4.| T S N m f 9 2 # O .   . . X X ",
"# & > : 3 0 k J =.8.,.=.J g 0 7 3 2 : > > & & > , : 2 2 : 2 2 3 7 0 g F { &.1.9.9.1.2.0.r.5.3.| T V M m f d 0 2 # O X . . . X X ",
"O + @ - 2 9 x W ;.f.f.;.R x w 8 0 9 5 : & @ @ & : 5 9 0 9 9 9 0 0 w k J &.e.v.b.b.v.g.p.5.O. .T V m f d d w 9 2 # + X . . X X X ",
". X + # : 9 c { 1.v.b.0.#.F k f d w 9 2 - @ @ > 5 p f f f f f d d f C W ;.g.B.N.N.v.g.t.3. ./ L N f w 8 0 9 5 , @ O X . . X X X ",
"  . O @ : 9 c { 9.b.N.c.<.#.J Z h d 0 3 = # > 4 p M N V V V N N M N D ! :.p.h.g.e.9.>.:...` ^ K M f 0 9 3 2 , & @ O X . . X X X ",
"  . o @ , 9 c { 1.b.C.N.c.9.&.{ Z f 8 7 ; 2 5 p c K I ~ I I I L L L T ` ..4.4.:.$.} W ! _ ( ^ L N f 0 3 : > @ + O o X . X X X X ",
". X O # : 9 c W 1.v.C.Z.C.b.e.&.J k w 0 9 9 p x V T / / / / / / / / / `  . . .Q G Z Z D T / / I N f 9 2 > @ O o X X X X X X X X ",
"O + @ # 2 9 x J ;.f.B.Z.A.C.b.9.} F c k k c C A P ^ / / / / / / ( ( ( ( ( / T S M f g N L / / L N p 5 , @ O X . . X X X X X X X ",
"# & > : 3 0 k G *.r.l.N.Z.Z.N.f.<.#.{ [ { { W W T L L L L L I ^ ( ( ( / ^ L S M f w d M L / / Y x e , # + o . . . X X X . . . . ",
"2 2 2 3 9 0 g A ! -.t.k.B.Z.Z.N.f.0.1.1.1.1.;.$.W D N M M V V L ^ ( ( ^ L V m f w w d M L / ) G s 1 @ + o X . . . X X X . . . . ",
"9 9 9 9 0 w g N L ` +.y.k.N.C.C.N.b.v.v.b.v.e.&.R C f d d f m V I / / I V m f w w w f N I / Q F u & O X X X X X X X X X X X X X ",
"w w w 0 8 w f M L / o.4.a.x.B.N.n.v.v.b.b.v.w.&.J k w 8 8 w f N L / / L N f d w d f m V L ~ P v r $ X . . X X X X X X o O O + + ",
"w w w w 8 w f M K / o.+.y.u.s.i.q.9.1.9.9.1.;.} F g w 8 8 0 f N L / / L N f w d h M N S K K B s < + .   . X X X . . X O @ @ # & ",
"w w w 8 8 0 f M L / o.O.@.4.3.:.$.} { { { { J F x f w 8 8 w f N L / / L N f d h N K L K S N k t > O .   . X X . . . o + & , 2 2 ",
"w w w w 8 w f N L / ( o.o.o. .Q G Z c c c c k g f d w 8 8 w f N L / / L N f f M K T ~ L V h p 4 & + X . . X X . . X O # : 5 9 0 ",
"f f f f f f m V L ~ / ( ( / ~ K M f w 0 9 9 9 9 9 9 9 9 0 w f N L / / L N f f N L / / I V f 0 2 > @ O o X X X X o O @ > 2 9 w w ",
"N N N N N N V V K L L L L K S N m w 8 7 3 2 2 : : 2 2 3 9 0 f N L / / L N f f N L / / I N f 9 3 : > # + O o o O + @ > 2 9 0 w w ",
"L L L L L L L K V V N N N M M m f w 0 3 : - # # # # > : 3 0 f N I / / L N f f N L / / I N f 0 9 3 2 , & + O O + & , 2 9 9 0 w w ",
"/ / / / / / ~ K N h f f f f f f d w 9 2 > @ + O O + @ > 2 0 f N L / / L N f f N L / / L N f w 8 0 9 5 , @ O O @ , 5 9 0 0 w w w ",
"( ( ( ( ( / T K M f w w w w w 0 0 9 5 , # O X . . X O # : 9 f V I / / L N f f N L / / L N f w w w w 9 2 # + + # : 9 w d f f f f ",
"X.' ( ( ^ I K N m d w w w w 0 9 5 2 , & + o .     . O # : 9 f V I / / L M f f N L / / I N f w w w w 9 2 # O O @ : 9 w f m M M N ",
"X.' ( ^ L V M m f d w w w w 0 5 2 > @ + O X .     . O # : 9 f V I / / L M f f N L / / I V f w w w w 9 2 # O O @ : 7 w m N S K L ",
"X.( / I V m f d d w w w w w 9 2 > @ O o X X X . . X + # 2 9 f V I / / L N f f N L / / L N f w w w w 9 2 # + + # : 9 f N K ~ / ( ",
"X.( / L N f w 0 9 9 9 9 9 9 5 , @ O X . . X X . . X + # 2 9 f N I / / I V m m N L ~ T K M f w w w w 9 2 - @ @ > t j Z U )  .o.O.",
"' ( ^ L N d 0 7 3 2 2 2 2 2 , & + o . . . X X . . X O # : 9 f N I / / ^ L V V V K K K N f d 8 8 w 8 9 3 = - > r l H { *.-.3.5.7.",
"' ( ^ L N f 9 3 , > # # # # @ @ O X . . . X X . . . O @ : 9 f N L / ( ( ^ I L K V N M f d w 8 8 8 8 8 7 3 2 6 l ] %.1.q.p.s.h.j.",
"X.( / L N f 9 2 > @ + O O O O O o X X X X X X . . X O # 2 9 f N L / ( ( ( / ~ K N h f d d d w d w w w 0 9 0 j H %.w.v.N.B.B.B.B.",
"O.o.` T V g 0 2 > @ + o X X X X X X X X X X X X o O @ > 2 0 f N L / ( ( ( / T S M f d d g k c c c c c k k c F } 1.b.Z.A.A.Z.Z.Z.",
"y.4.-.! D g 0 3 : > @ + O X . . . X X X X X o O @ # > : 3 0 f N L / ( ( ^ I K N f d d k Z J [ { { [ [ R R { #.<.f.N.A.S.A.A.A.A.",
"k.h.r.=.J k 0 7 3 2 , & + o . . . . X . . X o + & : 2 5 9 0 f N L / ( ^ L V M f d d g Z { &.<.1.1.1.1.<.1.1.9.i.b.C.A.A.A.Z.Z.A.",
"V.B.f.;.R x w 8 0 9 5 , @ O X . . X X . . X O @ , 5 9 0 8 w f N L / / T V m f w w w k J &.w.v.b.b.v.v.v.v.v.b.N.N.C.Z.Z.Z.Z.Z.Z.",
"S.Z.v.<.[ c w w w w 9 2 # + X . . X X . . X O # 2 9 w w w w f N L / / L N f w 8 8 w c R <.v.C.A.A.Z.Z.Z.Z.Z.Z.Z.Z.Z.Z.Z.Z.Z.Z.Z.",
"F.A.b.1.[ c w w w w 0 2 & + X . . X X . . X + & 2 0 w w w w f N L / / L N d 8 8 8 w c [ 1.N.S.F.F.S.S.S.S.S.S.A.A.Z.Z.Z.Z.Z.Z.Z."
};
