/* XPM */
static char *pac_man_frames[] = {
/* columns rows colors chars-per-pixel */
"352 160 3 1 ",
"  c #FFF100",
". c white",
"X c None",
/* pixels */
"XXXXXXXXXXXXXXXXXXXXXXXXXXXXXXXXXXXXXXXXXXXXXXXXXXXXXXXXXXXXXXXXXXXXXXXXXXXXXXXXXXXXXXXXXXXXXXXX................................................................................................................................................................................................................................................................",
"XXXXXXXXXXXXXXXXXXXXXXXXXXXXXXXXXXXXXXXXXXXXXXXXXXXXXXXXXXXXXXXXXXXXXXXXXXXXXXXXXXXXXXXXXXXXXXXX................................................................................................................................................................................................................................................................",
"XXXXXXXXXXXXXXXXXXXXXXXXXXXXXXXXXXXXXXXXXXXXXXXXXXXXXXXXXXXXXXXXXXXXXXXXXXXXXXXXXXXXXXXXXXXXXXXX................................................................................................................................................................................................................................................................",
"XXXXXXXXXXXXXXXXXXXXXXXXXXXXXXXXXXXXXXXXXXXXXXXXXXXXXXXXXXXXXXXXXXXXXXXXXXXXXXXXXXXXXXXXXXXXXXXX................................................................................................................................................................................................................................................................",
"XXXXXXXXXXX          XXXXXXXXXXXXXXXXXXXXXXX         XXXXXXXXXXXXXXXXXXXXXXXX         XXXXXXXXXX................................................................................................................................................................................................................................................................",
"XXXXXXXXXXX          XXXXXXXXXXXXXXXXXXXXXXX         XXXXXXXXXXXXXXXXXXXXXXXX         XXXXXXXXXX................................................................................................................................................................................................................................................................",
"XXXXXXXX                XXXXXXXXXXXXXXXXX                XXXXXXXXXXXXXXXX             XXXXXXXXXX................................................................................................................................................................................................................................................................",
"XXXXXXXX                XXXXXXXXXXXXXXXX                 XXXXXXXXXXXXXXXX             XXXXXXXXXX................................................................................................................................................................................................................................................................",
"XXXXXX                    XXXXXXXXXXXXX                   XXXXXXXXXXXXXX            XXXXXXXXXXXX................................................................................................................................................................................................................................................................",
"XXXXXX                    XXXXXXXXXXXXX                   XXXXXXXXXXXXXX            XXXXXXXXXXXX................................................................................................................................................................................................................................................................",
"XXXXXX                    XXXXXXXXXXXXX                   XXXXXXXXXXXXXX          XXXXXXXXXXXXXX................................................................................................................................................................................................................................................................",
"XXXX                        XXXXXXXXX                  XXXXXXXXXXXXXXX          XXXXXXXXXXXXXXXX................................................................................................................................................................................................................................................................",
"XXXX                        XXXXXXXXX                  XXXXXXXXXXXXXX           XXXXXXXXXXXXXXXX................................................................................................................................................................................................................................................................",
"XXXX                        XXXXXXXXX                 XXXXXXXXXXXXXXX           XXXXXXXXXXXXXXXX................................................................................................................................................................................................................................................................",
"XXXX                        XXXXXXXXX             XXXXXXXXXXXXXXXXXXX          XXXXXXXXXXXXXXXXX................................................................................................................................................................................................................................................................",
"XXXX                        XXXXXXXXX             XXXXXXXXXXXXXXXXXXX          XXXXXXXXXXXXXXXXX................................................................................................................................................................................................................................................................",
"XXXX                        XXXXXXXXX       XXXXXXXXXXXXXXXXXXXXXXXXX        XXXXXXXXXXXXXXXXXXX................................................................................................................................................................................................................................................................",
"XXXX                        XXXXXXXXX             XXXXXXXXXXXXXXXXXXX          XXXXXXXXXXXXXXXXX................................................................................................................................................................................................................................................................",
"XXXX                        XXXXXXXXX             XXXXXXXXXXXXXXXXXXX          XXXXXXXXXXXXXXXXX................................................................................................................................................................................................................................................................",
"XXXX                        XXXXXXXXX                  XXXXXXXXXXXXXX           XXXXXXXXXXXXXXXX................................................................................................................................................................................................................................................................",
"XXXX                        XXXXXXXXX                  XXXXXXXXXXXXXXX          XXXXXXXXXXXXXXXX................................................................................................................................................................................................................................................................",
"XXXXXX                    XXXXXXXXXXXXX                   XXXXXXXXXXXXXX          XXXXXXXXXXXXXX................................................................................................................................................................................................................................................................",
"XXXXXX                    XXXXXXXXXXXXX                   XXXXXXXXXXXXXX          XXXXXXXXXXXXXX................................................................................................................................................................................................................................................................",
"XXXXXX                    XXXXXXXXXXXXX                   XXXXXXXXXXXXXX            XXXXXXXXXXXX................................................................................................................................................................................................................................................................",
"XXXXXXXX                XXXXXXXXXXXXXXXX                 XXXXXXXXXXXXXXXX             XXXXXXXXXX................................................................................................................................................................................................................................................................",
"XXXXXXXX                XXXXXXXXXXXXXXXX                 XXXXXXXXXXXXXXXX             XXXXXXXXXX................................................................................................................................................................................................................................................................",
"XXXXXXXXXXX          XXXXXXXXXXXXXXXXXXXXXXX         XXXXXXXXXXXXXXXXXXXXXXX          XXXXXXXXXX................................................................................................................................................................................................................................................................",
"XXXXXXXXXXX          XXXXXXXXXXXXXXXXXXXXXXX         XXXXXXXXXXXXXXXXXXXXXXXX         XXXXXXXXXX................................................................................................................................................................................................................................................................",
"XXXXXXXXXXXXXXXXXXXXXXXXXXXXXXXXXXXXXXXXXXXXXXXXXXXXXXXXXXXXXXXXXXXXXXXXXXXXXXXXXXXXXXXXXXXXXXXX................................................................................................................................................................................................................................................................",
"XXXXXXXXXXXXXXXXXXXXXXXXXXXXXXXXXXXXXXXXXXXXXXXXXXXXXXXXXXXXXXXXXXXXXXXXXXXXXXXXXXXXXXXXXXXXXXXX................................................................................................................................................................................................................................................................",
"XXXXXXXXXXXXXXXXXXXXXXXXXXXXXXXXXXXXXXXXXXXXXXXXXXXXXXXXXXXXXXXXXXXXXXXXXXXXXXXXXXXXXXXXXXXXXXXX................................................................................................................................................................................................................................................................",
"XXXXXXXXXXXXXXXXXXXXXXXXXXXXXXXXXXXXXXXXXXXXXXXXXXXXXXXXXXXXXXXXXXXXXXXXXXXXXXXXXXXXXXXXXXXXXXXX................................................................................................................................................................................................................................................................",
"XXXXXXXXXXXXXXXXXXXXXXXXXXXXXXXXXXXXXXXXXXXXXXXXXXXXXXXXXXXXXXXXXXXXXXXXXXXXXXXXXXXXXXXXXXXXXXXX................................................................................................................................................................................................................................................................",
"XXXXXXXXXXXXXXXXXXXXXXXXXXXXXXXXXXXXXXXXXXXXXXXXXXXXXXXXXXXXXXXXXXXXXXXXXXXXXXXXXXXXXXXXXXXXXXXX................................................................................................................................................................................................................................................................",
"XXXXXXXXXXXXXXXXXXXXXXXXXXXXXXXXXXXXXXXXXXXXXXXXXXXXXXXXXXXXXXXXXXXXXXXXXXXXXXXXXXXXXXXXXXXXXXXX................................................................................................................................................................................................................................................................",
"XXXXXXXXXXXXXXXXXXXXXXXXXXXXXXXXXXXXXXXXXXXXXXXXXXXXXXXXXXXXXXXXXXXXXXXXXXXXXXXXXXXXXXXXXXXXXXXX................................................................................................................................................................................................................................................................",
"XXXXXXXXXXX          XXXXXXXXXXXXXXXXXXXXXXXXXXXXXXXXXXXXXXXXXXXXXXXXXXXXXXXXXXXXXXXXXXXXXXXXXXX................................................................................................................................................................................................................................................................",
"XXXXXXXXXXX          XXXXXXXXXXXXXXXXXXXXXX          XXXXXXXXXXXXXXXXXXXXXXX        XXXXXXXXXXXX................................................................................................................................................................................................................................................................",
"XXXXXXXX                XXXXXXXXXXXXXXXXXXX          XXXXXXXXXXXXXXXXXXXXXX          XXXXXXXXXXX................................................................................................................................................................................................................................................................",
"XXXXXXXX                XXXXXXXXXXXXXXXX                XXXXXXXXXXXXXXXXXXX          XXXXXXXXXXX................................................................................................................................................................................................................................................................",
"XXXXXX                    XXXXXXXXXXXX                   XXXXXXXXXXXXXXX                XXXXXXXX................................................................................................................................................................................................................................................................",
"XXXXXX                    XXXXXXXXXXXX                    XXXXXXXXXXXX                    XXXXXX................................................................................................................................................................................................................................................................",
"XXXXXX                    XXXXXXXXXXXX                    XXXXXXXXXXXX                    XXXXXX................................................................................................................................................................................................................................................................",
"XXXX                        XXXXXXXXXX                    XXXXXXXXXXXX                    XXXXXX................................................................................................................................................................................................................................................................",
"XXXX                        XXXXXXXX           X            XXXXXXXXX                     XXXXXX................................................................................................................................................................................................................................................................",
"XXXX                        XXXXXXXX           X            XXXXXXXX           X            XXXX................................................................................................................................................................................................................................................................",
"XXXX                        XXXXXXXX           X            XXXXXXXX           X            XXXX................................................................................................................................................................................................................................................................",
"XXXX                        XXXXXXXX           X            XXXXXXXX         XXXXX          XXXX................................................................................................................................................................................................................................................................",
"XXXX                        XXXXXXXX           X            XXXXXXXX       XXXXXXXXXX       XXXX................................................................................................................................................................................................................................................................",
"XXXX                        XXXXXXXX           X            XXXXXXXX       XXXXXXXXXX       XXXX................................................................................................................................................................................................................................................................",
"XXXX                        XXXXXXXX         XXXXX          XXXXXXXX     XXXXXXXXXXXXX      XXXX................................................................................................................................................................................................................................................................",
"XXXX                        XXXXXXXX         XXXXX          XXXXXXXX     XXXXXXXXXXXXX      XXXX................................................................................................................................................................................................................................................................",
"XXXX                        XXXXXXXX         XXXXX          XXXXXXXX    XXXXXXXXXXXXXXXX    XXXX................................................................................................................................................................................................................................................................",
"XXXXXX                    XXXXXXXXXXXX       XXXXX        XXXXXXXXXX    XXXXXXXXXXXXXXXX    XXXX................................................................................................................................................................................................................................................................",
"XXXXXX                    XXXXXXXXXXXX       XXXXXX       XXXXXXXXXXXXXXXXXXXXXXXXXXXXXXXXXXXXXX................................................................................................................................................................................................................................................................",
"XXXXXX                    XXXXXXXXXXXX     XXXXXXXXXX     XXXXXXXXXXXXXXXXXXXXXXXXXXXXXXXXXXXXXX................................................................................................................................................................................................................................................................",
"XXXXXXXX                XXXXXXXXXXXXXX     XXXXXXXXXX     XXXXXXXXXXXXXXXXXXXXXXXXXXXXXXXXXXXXXX................................................................................................................................................................................................................................................................",
"XXXXXXXX                XXXXXXXXXXXXXXXX   XXXXXXXXXX   XXXXXXXXXXXXXXXXXXXXXXXXXXXXXXXXXXXXXXXX................................................................................................................................................................................................................................................................",
"XXXXXXXXXXX          XXXXXXXXXXXXXXXXXXXXXXXXXXXXXXXXXXXXXXXXXXXXXXXXXXXXXXXXXXXXXXXXXXXXXXXXXXX................................................................................................................................................................................................................................................................",
"XXXXXXXXXXX          XXXXXXXXXXXXXXXXXXXXXXXXXXXXXXXXXXXXXXXXXXXXXXXXXXXXXXXXXXXXXXXXXXXXXXXXXXX................................................................................................................................................................................................................................................................",
"XXXXXXXXXXXXXXXXXXXXXXXXXXXXXXXXXXXXXXXXXXXXXXXXXXXXXXXXXXXXXXXXXXXXXXXXXXXXXXXXXXXXXXXXXXXXXXXX................................................................................................................................................................................................................................................................",
"XXXXXXXXXXXXXXXXXXXXXXXXXXXXXXXXXXXXXXXXXXXXXXXXXXXXXXXXXXXXXXXXXXXXXXXXXXXXXXXXXXXXXXXXXXXXXXXX................................................................................................................................................................................................................................................................",
"XXXXXXXXXXXXXXXXXXXXXXXXXXXXXXXXXXXXXXXXXXXXXXXXXXXXXXXXXXXXXXXXXXXXXXXXXXXXXXXXXXXXXXXXXXXXXXXX................................................................................................................................................................................................................................................................",
"XXXXXXXXXXXXXXXXXXXXXXXXXXXXXXXXXXXXXXXXXXXXXXXXXXXXXXXXXXXXXXXXXXXXXXXXXXXXXXXXXXXXXXXXXXXXXXXX................................................................................................................................................................................................................................................................",
"XXXXXXXXXXXXXXXXXXXXXXXXXXXXXXXXXXXXXXXXXXXXXXXXXXXXXXXXXXXXXXXXXXXXXXXXXXXXXXXXXXXXXXXXXXXXXXXX................................................................................................................................................................................................................................................................",
"XXXXXXXXXXXXXXXXXXXXXXXXXXXXXXXXXXXXXXXXXXXXXXXXXXXXXXXXXXXXXXXXXXXXXXXXXXXXXXXXXXXXXXXXXXXXXXXX................................................................................................................................................................................................................................................................",
"XXXXXXXXXXXXXXXXXXXXXXXXXXXXXXXXXXXXXXXXXXXXXXXXXXXXXXXXXXXXXXXXXXXXXXXXXXXXXXXXXXXXXXXXXXXXXXXX................................................................................................................................................................................................................................................................",
"XXXXXXXXXXXXXXXXXXXXXXXXXXXXXXXXXXXXXXXXXXXXXXXXXXXXXXXXXXXXXXXXXXXXXXXXXXXXXXXXXXXXXXXXXXXXXXXX................................................................................................................................................................................................................................................................",
"XXXXXXXXXXX          XXXXXXXXXXXXXXXXXXXXXXXXXXXXXXXXXXXXXXXXXXXXXXXXXXXXXXXXXXXXXXXXXXXXXXXXXXX................................................................................................................................................................................................................................................................",
"XXXXXXXXXXX          XXXXXXXXXXXXXXXXXXXXXXXXXXXXXXXXXXXXXXXXXXXXXXXXXXXXXXXXXXXXXXXXXXXXXXXXXXX................................................................................................................................................................................................................................................................",
"XXXXXXXX                XXXXXXXXXXXXXXXX   XXXXXXXXXX   XXXXXXXXXXXXXXXXXXXXXXXXXXXXXXXXXXXXXXXX................................................................................................................................................................................................................................................................",
"XXXXXXXX                XXXXXXXXXXXXXX     XXXXXXXXXX     XXXXXXXXXXXXXXXXXXXXXXXXXXXXXXXXXXXXXX................................................................................................................................................................................................................................................................",
"XXXXXX                    XXXXXXXXXXXX     XXXXXXXXXX     XXXXXXXXXXXXXXXXXXXXXXXXXXXXXXXXXXXXXX................................................................................................................................................................................................................................................................",
"XXXXXX                    XXXXXXXXXXXX       XXXXXX       XXXXXXXXXXXXXXXXXXXXXXXXXXXXXXXXXXXXXX................................................................................................................................................................................................................................................................",
"XXXXXX                    XXXXXXXXXXXX        XXXXX       XXXXXXXXXX    XXXXXXXXXXXXXXXX    XXXX................................................................................................................................................................................................................................................................",
"XXXX                        XXXXXXXX          XXXXX         XXXXXXXX    XXXXXXXXXXXXXXXX    XXXX................................................................................................................................................................................................................................................................",
"XXXX                        XXXXXXXX          XXXXX         XXXXXXXX      XXXXXXXXXXXXX     XXXX................................................................................................................................................................................................................................................................",
"XXXX                        XXXXXXXX          XXXXX         XXXXXXXX      XXXXXXXXXXXXX     XXXX................................................................................................................................................................................................................................................................",
"XXXX                        XXXXXXXX            X           XXXXXXXX       XXXXXXXXXX       XXXX................................................................................................................................................................................................................................................................",
"XXXX                        XXXXXXXX            X           XXXXXXXX       XXXXXXXXXX       XXXX................................................................................................................................................................................................................................................................",
"XXXX                        XXXXXXXX            X           XXXXXXXX          XXXXX         XXXX................................................................................................................................................................................................................................................................",
"XXXX                        XXXXXXXX            X           XXXXXXXX            X           XXXX................................................................................................................................................................................................................................................................",
"XXXX                        XXXXXXXX            X           XXXXXXXX            X           XXXX................................................................................................................................................................................................................................................................",
"XXXX                        XXXXXXXX            X           XXXXXXXXXX                     XXXXX................................................................................................................................................................................................................................................................",
"XXXX                        XXXXXXXXXX                    XXXXXXXXXXXX                    XXXXXX................................................................................................................................................................................................................................................................",
"XXXXXX                    XXXXXXXXXXXX                    XXXXXXXXXXXX                    XXXXXX................................................................................................................................................................................................................................................................",
"XXXXXX                    XXXXXXXXXXXX                    XXXXXXXXXXXX                    XXXXXX................................................................................................................................................................................................................................................................",
"XXXXXX                    XXXXXXXXXXXXX                   XXXXXXXXXXXXXX                XXXXXXXX................................................................................................................................................................................................................................................................",
"XXXXXXXX                XXXXXXXXXXXXXXXX                XXXXXXXXXXXXXXXXXXX          XXXXXXXXXXX................................................................................................................................................................................................................................................................",
"XXXXXXXX                XXXXXXXXXXXXXXXXXXX          XXXXXXXXXXXXXXXXXXXXXX          XXXXXXXXXXX................................................................................................................................................................................................................................................................",
"XXXXXXXXXXX          XXXXXXXXXXXXXXXXXXXXXX          XXXXXXXXXXXXXXXXXXXXXXX        XXXXXXXXXXXX................................................................................................................................................................................................................................................................",
"XXXXXXXXXXX          XXXXXXXXXXXXXXXXXXXXXXXXXXXXXXXXXXXXXXXXXXXXXXXXXXXXXXXXXXXXXXXXXXXXXXXXXXX................................................................................................................................................................................................................................................................",
"XXXXXXXXXXXXXXXXXXXXXXXXXXXXXXXXXXXXXXXXXXXXXXXXXXXXXXXXXXXXXXXXXXXXXXXXXXXXXXXXXXXXXXXXXXXXXXXX................................................................................................................................................................................................................................................................",
"XXXXXXXXXXXXXXXXXXXXXXXXXXXXXXXXXXXXXXXXXXXXXXXXXXXXXXXXXXXXXXXXXXXXXXXXXXXXXXXXXXXXXXXXXXXXXXXX................................................................................................................................................................................................................................................................",
"XXXXXXXXXXXXXXXXXXXXXXXXXXXXXXXXXXXXXXXXXXXXXXXXXXXXXXXXXXXXXXXXXXXXXXXXXXXXXXXXXXXXXXXXXXXXXXXX................................................................................................................................................................................................................................................................",
"XXXXXXXXXXXXXXXXXXXXXXXXXXXXXXXXXXXXXXXXXXXXXXXXXXXXXXXXXXXXXXXXXXXXXXXXXXXXXXXXXXXXXXXXXXXXXXXX................................................................................................................................................................................................................................................................",
"XXXXXXXXXXXXXXXXXXXXXXXXXXXXXXXXXXXXXXXXXXXXXXXXXXXXXXXXXXXXXXXXXXXXXXXXXXXXXXXXXXXXXXXXXXXXXXXX................................................................................................................................................................................................................................................................",
"XXXXXXXXXXXXXXXXXXXXXXXXXXXXXXXXXXXXXXXXXXXXXXXXXXXXXXXXXXXXXXXXXXXXXXXXXXXXXXXXXXXXXXXXXXXXXXXX................................................................................................................................................................................................................................................................",
"XXXXXXXXXXXXXXXXXXXXXXXXXXXXXXXXXXXXXXXXXXXXXXXXXXXXXXXXXXXXXXXXXXXXXXXXXXXXXXXXXXXXXXXXXXXXXXXX................................................................................................................................................................................................................................................................",
"XXXXXXXXXXXXXXXXXXXXXXXXXXXXXXXXXXXXXXXXXXXXXXXXXXXXXXXXXXXXXXXXXXXXXXXXXXXXXXXXXXXXXXXXXXXXXXXX................................................................................................................................................................................................................................................................",
"XXXXXXXXXXX          XXXXXXXXXXXXXXXXXXXXXX         XXXXXXXXXXXXXXXXXXXXXX         XXXXXXXXXXXXX................................................................................................................................................................................................................................................................",
"XXXXXXXXXXX          XXXXXXXXXXXXXXXXXXXXXX         XXXXXXXXXXXXXXXXXXXXXX          XXXXXXXXXXXX................................................................................................................................................................................................................................................................",
"XXXXXXXX                XXXXXXXXXXXXXXX                 XXXXXXXXXXXXXXXXXX             XXXXXXXXX................................................................................................................................................................................................................................................................",
"XXXXXXXX                XXXXXXXXXXXXXXX                 XXXXXXXXXXXXXXXXXX             XXXXXXXXX................................................................................................................................................................................................................................................................",
"XXXXXX                    XXXXXXXXXXXX                   XXXXXXXXXXXXXXXXXXX            XXXXXXXX................................................................................................................................................................................................................................................................",
"XXXXXX                    XXXXXXXXXXXX                   XXXXXXXXXXXXXXXXXXXXX          XXXXXXXX................................................................................................................................................................................................................................................................",
"XXXXXX                    XXXXXXXXXXXX                   XXXXXXXXXXXXXXXXXXXXX          XXXXXXXX................................................................................................................................................................................................................................................................",
"XXXX                        XXXXXXXXXXXXX                  XXXXXXXXXXXXXXXXXXXXX          XXXXXX................................................................................................................................................................................................................................................................",
"XXXX                        XXXXXXXXXXXXX                  XXXXXXXXXXXXXXXXXXXXX           XXXXX................................................................................................................................................................................................................................................................",
"XXXX                        XXXXXXXXXXXXXXXXXX             XXXXXXXXXXXXXXXXXXXXXX          XXXXX................................................................................................................................................................................................................................................................",
"XXXX                        XXXXXXXXXXXXXXXXXX             XXXXXXXXXXXXXXXXXXXXXX          XXXXX................................................................................................................................................................................................................................................................",
"XXXX                        XXXXXXXXXXXXXXXXXXXXXXXX       XXXXXXXXXXXXXXXXXXXXXXXX        XXXXX................................................................................................................................................................................................................................................................",
"XXXX                        XXXXXXXXXXXXXXXXXX             XXXXXXXXXXXXXXXXXXXXXX          XXXXX................................................................................................................................................................................................................................................................",
"XXXX                        XXXXXXXXXXXXXXXXXX             XXXXXXXXXXXXXXXXXXXXXX          XXXXX................................................................................................................................................................................................................................................................",
"XXXX                        XXXXXXXXXXXXXX                 XXXXXXXXXXXXXXXXXXXXX           XXXXX................................................................................................................................................................................................................................................................",
"XXXX                        XXXXXXXXXXXXX                  XXXXXXXXXXXXXXXXXXXXX           XXXXX................................................................................................................................................................................................................................................................",
"XXXX                        XXXXXXXXXXXXX                  XXXXXXXXXXXXXXXXXXXXX          XXXXXX................................................................................................................................................................................................................................................................",
"XXXXXX                    XXXXXXXXXXXX                   XXXXXXXXXXXXXXXXXXXXX          XXXXXXXX................................................................................................................................................................................................................................................................",
"XXXXXX                    XXXXXXXXXXXX                   XXXXXXXXXXXXXXXXXXX            XXXXXXXX................................................................................................................................................................................................................................................................",
"XXXXXX                    XXXXXXXXXXXX                   XXXXXXXXXXXXXXXXXXX            XXXXXXXX................................................................................................................................................................................................................................................................",
"XXXXXXXX                XXXXXXXXXXXXXXX                 XXXXXXXXXXXXXXXXXX             XXXXXXXXX................................................................................................................................................................................................................................................................",
"XXXXXXXX                XXXXXXXXXXXXXXX                XXXXXXXXXXXXXXXXXXX             XXXXXXXXX................................................................................................................................................................................................................................................................",
"XXXXXXXXXXX          XXXXXXXXXXXXXXXXXXXXXX         XXXXXXXXXXXXXXXXXXXXXX         XXXXXXXXXXXXX................................................................................................................................................................................................................................................................",
"XXXXXXXXXXX          XXXXXXXXXXXXXXXXXXXXXX         XXXXXXXXXXXXXXXXXXXXXX         XXXXXXXXXXXXX................................................................................................................................................................................................................................................................",
"XXXXXXXXXXXXXXXXXXXXXXXXXXXXXXXXXXXXXXXXXXXXXXXXXXXXXXXXXXXXXXXXXXXXXXXXXXXXXXXXXXXXXXXXXXXXXXXX................................................................................................................................................................................................................................................................",
"XXXXXXXXXXXXXXXXXXXXXXXXXXXXXXXXXXXXXXXXXXXXXXXXXXXXXXXXXXXXXXXXXXXXXXXXXXXXXXXXXXXXXXXXXXXXXXXX................................................................................................................................................................................................................................................................",
"XXXXXXXXXXXXXXXXXXXXXXXXXXXXXXXXXXXXXXXXXXXXXXXXXXXXXXXXXXXXXXXXXXXXXXXXXXXXXXXXXXXXXXXXXXXXXXXX................................................................................................................................................................................................................................................................",
"XXXXXXXXXXXXXXXXXXXXXXXXXXXXXXXXXXXXXXXXXXXXXXXXXXXXXXXXXXXXXXXXXXXXXXXXXXXXXXXXXXXXXXXXXXXXXXXX................................................................................................................................................................................................................................................................",
"XXXXXXXXXXXXXXXXXXXXXXXXXXXXXXXXXXXXXXXXXXXXXXXXXXXXXXXXXXXXXXXXXXXXXXXXXXXXXXXXXXXXXXXXXXXXXXXXXXXXXXXXXXXXXXXXXXXXXXXXXXXXXXXXXXXXXXXXXXXXXXXXXXXXXXXXXXXXXXXXXXXXXXXXXXXXXXXXXXXXXXXXXXXXXXXXXXXXXXXXXXXXXXXXXXXXXXXXXXXXXXXXXXXXXXXXXXXXXXXXXXXXXXXXXXXXXXXXXXXXXXXXXXXXXXXXXXXXXXXXXXXXXXXXXXXXXXXXXXXXXXXXXXXXXXXXXXXXXXXXXXXXXXXXXXXXXXXXXXXXXXXXXXXXXXXX",
"XXXXXXXXXXXXXXXXXXXXXXXXXXXXXXXXXXXXXXXXXXXXXXXXXXXXXXXXXXXXXXXXXXXXXXXXXXXXXXXXXXXXXXXXXXXXXXXXXXXXXXXXXXXXXXXXXXXXXXXXXXXXXXXXXXXXXXXXXXXXXXXXXXXXXXXXXXXXXXXXXXXXXXXXXXXXXXXXXXXXXXXXXXXXXXXXXXXXXXXXXXXXXXXXXXXXXXXXXXXXXXXXXXXXXXXXXXXXXXXXXXXXXXXXXXXXXXXXXXXXXXXXXXXXXXXXXXXXXXXXXXXXXXXXXXXXXXXXXXXXXXXXXXXXXXXXXXXXXXXXXXXXXXXXXXXXXXXXXXXXXXXXXXXXXXXX",
"XXXXXXXXXXXXXXXXXXXXXXXXXXXXXXXXXXXXXXXXXXXXXXXXXXXXXXXXXXXXXXXXXXXXXXXXXXXXXXXXXXXXXXXXXXXXXXXXXXXXXXXXXXXXXXXXXXXXXXXXXXXXXXXXXXXXXXXXXXXXXXXXXXXXXXXXXXXXXXXXXXXXXXXXXXXXXXXXXXXXXXXXXXXXXXXXXXXXXXXXXXXXXXXXXXXXXXXXXXXXXXXXXXXXXXXXXXXXXXXXXXXXXXXXXXXXXXXXXXXXXXXXXXXXXXXXXXXXXXXXXXXXXXXXXXXXXXXXXXXXXXXXXXXXXXXXXXXXXXXXXXXXXXXXXXXXXXXXXXXXXXXXXXXXXXXX",
"XXXXXXXXXXXXXXXXXXXXXXXXXXXXXXXXXXXXXXXXXXXXXXXXXXXXXXXXXXXXXXXXXXXXXXXXXXXXXXXXXXXXXXXXXXXXXXXXXXXXXXXXXXXXXXXXXXXXXXXXXXXXXXXXXXXXXXXXXXXXXXXXXXXXXXXXXXXXXXXXXXXXXXXXXXXXXXXXXXXXXXXXXXXXXXXXXXXXXXXXXXXXXXXXXXXXXXXXXXXXXXXXXXXXXXXXXXXXXXXXXXXXXXXXXXXXXXXXXXXXXXXXXXXXXXXXXXXXXXXXXXXXXXXXXXXXXXXXXXXXXXXXXXXXXXXXXXXXXXXXXXXXXXXXXXXXXXXXXXXXXXXXXXXXXXXX",
"XXXXXXXXXXXXXXXXXXXXXXXXXXXXXXXXXXXXXXXXXXXXXXXXXXXXXXXXXXXXXXXXXXXXXXXXXXXXXXXXXXXXXXXXXXXXXXXXXXXXXXXXXXXXXXXXXXXXXXXXXXXXXXXXXXXXXXXXXXXXXXXXXXXXXXXXXXXXXXXXXXXXXXXXXXXXXXXXXXXXXXXXXXXXXXXXXXXXXXXXXXXXXXXXXXXXXXXXXXXXXXXXXXXXXXXXXXXXXXXXXXXXXXXXXXXXXXXXXXXXXXXXXXXXXXXXXXXXXXXXXXXXXXXXXXXXXXXXXXXXXXXXXXXXXXXXXXXXXXXXXXXXXXXXXXXXXXXXXXXXXXXXXXXXXXXX",
"XXXXXXXXXXXXXXXXXXXXXXXXXXXXXXXXXXXXXXXXXXXXXXXXXXXXXXXXXXXXXXXXXXXXXXXXXXXXXXXXXXXXXXXXXXXXXXXXXXXXXXXXXXXXXXXXXXXXXXXXXXXXXXXXXXXXXXXXXXXXXXXXXXXXXXXXXXXXXXXXXXXXXXXXXXXXXXXXXXXXXXXXXXXXXXXXXXXXXXXXXXXXXXXXXXXXXXXXXXXXXXXXXXXXXXXXXXXXXXXXXXXXXXXXXXXXXXXXXXXXXXXXXXXXXXXXXXXXXXXXXXXXXXXXXXXXXXXXXXXXXXXXXXXXXXXXXXXXXXXXXXXXXXXXXXXXXXXXXXXXXXXXXXXXXXXX",
"XXXXXXXXXXXXXXXXXXXXXXXXXXXXXXXXXXXXXXXXXXXXXXXXXXXXXXXXXXXXXXXXXXXXXXXXXXXXXXXXXXXXXXXXXXXXXXXXXXXXXXXXXXXXXXXXXXXXXXXXXXXXXXXXXXXXXXXXXXXXXXXXXXXXXXXXXXXXXXXXXXXXXXXXXXXXXXXXXXXXXXXXXXXXXXXXXXXXXXXXXXXXXXXXXXXXXXXXXXXXXXXXXXXXXXXXXXXXXXXXXXXXXXXXXXXXXXXXXXXXXXXXXXXXXXXXXXXXXXXXXXXXXXXXXXXXXXXXXXXXXXXXXXXXXXXXXXXXXXXXXXXXXXXXXXXXXXXXXXXXXXXXXXXXXXXX",
"XXXX   XXXXXXXXXXXXXXXXX   XXXXXXXXXXXXXXXXXXXXXXXXXXXXXXXXXXXXXXXXXXXXXXXXXXXXXXXXXXXXXXXXXXXXXXXXXXXXXXXXXXXXXXXXXXXXXXXXXXXXXXXXXXXXXXXXXXXXXXXXXXXXXXXXXXXXXXXXXXXXXXXXXXXXXXXXXXXXXXXXXXXXXXXXXXXXXXXXXXXXXXXXXXXXXXXXXXXXXXXXXXXXXXXXXXXXXXXXXXXXXXXXXXXXXXXXXXXXXXXXXXXXXXXXXXXXXXXXXXXXXXXXXXXXXXXXXXXXXXXXXXXXXXXXXXXXXXXXXXXXXXXX  XXXXX   XXXXXXXXXXX",
"XXXX    XXXXXXXXXXXXXXXX   XXXXXXXXXXXXXXXXXXXXXXXXXXXXXXXXXXXXXXXXXXXXXXXXXXXXXXXXXXXXXXXXXXXXXXXXXXXXXXXXXXXXXXXXXXXXXXXXXXXXXXXXXXXXXXXXXXXXXXXXXXXXXXXXXXXXXXXXXXXXXXXXXXXXXXXXXXXXXXXXXXXXXXXXXXXXXXXXXXXXXXXXXXXXXXXXXXXXXXXXXXXXXXXXXXXXXXXXXXXXXXXXXXXXXXXXXXXXXXXXXXXXXXXXXXXXXXXXXXXXXXXXXXXXXXXXXXXXXXXXXXXXXXXXXXXXXXXXXXXXXXXX  XXXXX   XXXXXXXXXXX",
"XXXX    XXXXXXXXXXXXXXX    XXXXXXXXX  XXXXXXXXXXXXXXXXXXXX  XXXXXXXXXXXXXXXXXXXXXXXXXXXXXXXXXXXXXXXXXXXXXXXXXXXXXXXXXXXXXXXXXXXXXXXXXXXXXXXXXXXXXXXXXXXXXXXXXXXXXXXXXXXXXXXXXXXXXXXXXXXXXXXXXXXXXXXXXXXXXXXXXXXXXXXXXXXXXXXXXXXXXXXXXXXXXXXXXXXXXXXXXXXXXXXXXXXXXXXXXXXXXXXXXXXXXXXXXXXXXXXXXXXXXXXXXXXXXXXXXXXXXXXXXXXXXXXXXXXXXXXXXXXX  XXX  XX XXXXXXXXXXXXXX",
"XXXX      XXXXXXXXXXXX     XXXXXXXXX   XXXXXXXXXXXXXXXXXX   XXXXXXXXXXXXXXXXXXXXXXXXXXXXXXXXXXXXXXXXXXXXXXXXXXXXXXXXXXXXXXXXXXXXXXXXXXXXXXXXXXXXXXXXXXXXXXXXXXXXXXXXXXXXXXXXXXXXXXXXXXXXXXXXXXXXXXXXXXXXXXXXXXXXXXXXXXXXXXXXXXXXXXXXXXXXXXXXXXXXXXXXXXXXXXXXXXXXXXXXXXXXXXXXXXX  XXXXXXXXXXXXXXXXXXXXXXXXXXXXXXXXXXXXXXXXXXXXXXXXXXXXXXXXX XXXXXXXXXXX  XXXXXXXX",
"XXXX       XXXXXXXXX       XXXXXXXX       XXXXXXXXXXXX       XXXXXXXXXXXXXXXXXXXXXXXXXXXXXXXXXXXXXXXXXXXXXXXXXXXXXXXXXXXXXXXXXXXXXXXXXXXXXXXXXXXXXXXXXXXXXXXXXXXXXXXXXXXXXXXXXXXXXXXXXXXXXXXXXXXXXXXXXXXXXXXXXX  XXXXXXXXXXXXXXXXXXXXXXXXXXXXXX  XXXXXXXXXXXXXXXXXXXXXXXXXXXXXX  XXXXXXXXXXXXXXXXXXXXXXXXXXXXXXXXXXXXXXXXXXXXXXXXXXXXXXXXX XXXXXXXXXXX  XXXXXXXX",
"XXXX       XXXXXXXXX       XXXXXXXX       XXXXXXXXXXXX       XXXXXX     XXXXXXXXXXXXXXXX     XXXXXXXXXXXXXXXXXXXXXXXXXXXXXXXXXXXXXXXXXXXXXXXXXXXXXXXXXXXXXXXXXXXXXXXXXXXXXXXX     XXXXXXXXXXXXXXXXXXXXXXXXXXXXX  XXXXXXXXXXXXXXXXXXXXXXXXXXXXXX  XXXXXXXXXXXXXXXXXXXXXXXXXXXXXX  XXXXXXXXXXXXXXXXXXXXXXXXXXXXXX  XXXXXXXXXXXXXXXXXXXXXXXXXXXXXXXXXXXX XXXXXXXXXX",
"XXXX         XXXXX         XXXXXXXX        XXXXXXXXXX        XXXXXX     XXXXXXXXXXXXXXXX     XXXXXXXXXXXXXXXXXXXXXXXXXXXXXXXXXXXXXXXXXXXXXXXXXXXXXXXXXXXXXXXXXXXXXXXXXXXXXXXX     XXXXXXXXXXXXXXXXXXXXXXXXXXX     XXXXXXXXXXXXXXXXXXXXXXXXXXX     XXXXXXXXXXXXXXXXXXXXXXXXXXXXX  XXXXXXXXXXXXXXXXXXXXXXXXXXXXXX  XXXXXXXXXXXXXXXXXXXXXXXXXXXXXXXXXXXX XXXXXXXXXX",
"XXXX         XXXXX         XXXXXXXX        XXXXXXXXX         XXXXXX          XXXXXX          XXXXXX       XXXXXXXXXXXX       XXXXXXXXXXXXX            XXXXXXXXXXXXXXXXXXXX            XXXXXXXXXXXXXXXXXXXX            XXXXXXXXXXXXXXXXXXXXX         XXXXXXXXXXXXXXXXXXXXXXXXX     XXXXXXXXXXXXXXXXXXXXXXXXXXXXX  XXXXXXXXXXXXXXXXXXXXX    XXXXXXXXXXXXXXXXXXXXXX",
"XXXX           XX          XXXXXXXX            XX            XXXXXX          XXXXX           XXXXXX                          XXXXXXXXXXXXX            XXXXXXXXXXXXXXXXXXXX            XXXXXXXXXXXXXXXXXXXX            XXXXXXXXXXXXXXXXXXXXX          XXXXXXXXXXXXXXXXXXXXXXXX     XXXXXXXXXXXXXXXXXXXXXXXXXXXXX  XXXXXXXXXXXXXXXXXXXXX    XXXXXXXXXXXXXXXXXXXXXX",
"XXXX           XX          XXXXXXXXX                        XXXXXXX                          XXXXXX                          XXXXXX                          XXXXXXX                        XXXXXXXXXXXX                XXXXXXXXXXXXXXXXXXX          XXXXXXXXXXXXXXXXXXXXXXXX     XXXXXXXXXXXXXXXXXXXXXXXXXXXXX  XXXXXXXXXXXXXXXXXXXXXXXXXXXXXXXXXXXXX    XXXXXX",
"XXXXXX                   XXXXXXXXXXX                        XXXXXXX                          XXXXXX                          XXXXXX                          XXXXXXX                        XXXXXXXXXXXX                XXXXXXXXXXXXXXXXXXX          XXXXXXXXXXXXXXXXXXXXXXXX     XXXXXXXXXXXXXXXXXXXXXXXXXXXXX  XXXXXXXXXXXXXXXXXXXXXXXXX XXXXXXXXXXXXXXXXXXXXX",
"XXXXXX                   XXXXXXXXXXX                        XXXXXXXX                        XXXXXXX                          XXXXXX                          XXXXXX                          XXXXXXX                        XXXXXXXXXXXXXX            XXXXXXXXXXXXXXXXXXXXXXX     XXXXXXXXXXXXXXXXXXXXXXXXXXXXX  XXXXXXXXXXXXXXXXXXXXXXXXX XXXXXXXXXXXXXXXXXXXXX",
"XXXXXX                   XXXXXXXXXXX                        XXXXXXXXXX                    XXXXXXXXXX                        XXXXXXXX                        XXXXXXXX           XX           XXXXXXXX                        XXXXXXXXXXXXXX            XXXXXXXXXXXXXXXXXXXXXX        XXXXXXXXXXXXXXXXXXXXXXXXXXX  XXXXXXXXXXXXXXXXXXXXXXXXX XXXXXXXXXXXXXXXXXXXXX",
"XXXXXXXX                XXXXXXXXXXXXXX                    XXXXXXXXXXXX                    XXXXXXXXXX                        XXXXXXXX                        XXXXXXXX           XX           XXXXXXXX           XX           XXXXXXXXXXXX                XXXXXXXXXXXXXXXXXXX          XXXXXXXXXXXXXXXXXXXXXXXXXX  XXXXXXXXXXXXXXXXXXXXXXX  XXXXXXXXXXX XXXXXXXXXX",
"XXXXXXXX                XXXXXXXXXXXXXX                    XXXXXXXXXXXXXXX      XX     XXXXXXXXXXXXXXXXXX       XX       XXXXXXXXXXXXXXXX       XX       XXXXXXXXXXXXXXX       XXXX      XXXXXXXXXXXXXX        XXXX        XXXXXXXXXXXXXXXX     XX     XXXXXXXXXXXXXXXXXXXXXXX  XX XXXXXXXXXXXXXXXXXXXXXXXXXXXXX  XXXXXXXXXXXXXXXXXXXXXXXXXXXX  XX XXXX  XXXXXXXX",
"XXXXXXXXXXX         XXXXXXXXXXXXXXXXXXXXXX     XX     XXXXXXXXXXXXXXXXXXXX     XX     XXXXXXXXXXXXXXXXXXXXXXXXXXXXXXXXXXXXXXXXXXXXXXXXXX       XX       XXXXXXXXXXXXXXXX     XXXXX      XXXXXXXXXXXXXX       XXXXX        XXXXXXXXXXXXXXXX     XX     XXXXXXXXXXXXXXXXXXXXXXX  XX XXXXXXXXXXXXXXXXXXXXXXXXXXXXXXXXXXXXXXXXXXXXXXXXXXXXXXXXXXX  XX XXXX  XXXXXXXX",
"XXXXXXXXXXX         XXXXXXXXXXXXXXXXXXXXXXXXXXXXXXXXXXXXXXXXXXXXXXXXXXXXXXXXXXXXXXXXXXXXXXXXXXXXXXXXXXXXXXXXXXXXXXXXXXXXXXXXXXXXXXXXXXXXXXXXXXXXXXXXXXXXXXXXXXXXXXXXXXXXXXXXXXXXXXXXXXXXXXXXXXXXXXXXXXX      XXXXXX      XXXXXXXXXXXXXXXXXXXXXXXXXXXXXXXXXXXXXXXXXXXXXXXXXXXXXXXXXXXXXXXXXXXXXXXXXXXXXXXXXXXXXXXXXXXXXXXXXXXXXXXXXXXXXXXXXX  XXXXX   XXXXXXXXXXX",
"XXXXXXXXXXXXXXXXXXXXXXXXXXXXXXXXXXXXXXXXXXXXXXXXXXXXXXXXXXXXXXXXXXXXXXXXXXXXXXXXXXXXXXXXXXXXXXXXXXXXXXXXXXXXXXXXXXXXXXXXXXXXXXXXXXXXXXXXXXXXXXXXXXXXXXXXXXXXXXXXXXXXXXXXXXXXXXXXXXXXXXXXXXXXXXXXXXXXXXXXXXXXXXXXXXXXXXXXXXXXXXXXXXXXXXXXXXXXXXXXXXXXXXXXXXXXXXXXXXXXXXXXXXXXXXXXXXXXXXXXXXXXXXXXXXXXXXXXXXXXXXXXXXXXXXXXXXXXXXXXXXXXXXXXXXXX XXXXXX XXXXXXXXXXXX",
"XXXXXXXXXXXXXXXXXXXXXXXXXXXXXXXXXXXXXXXXXXXXXXXXXXXXXXXXXXXXXXXXXXXXXXXXXXXXXXXXXXXXXXXXXXXXXXXXXXXXXXXXXXXXXXXXXXXXXXXXXXXXXXXXXXXXXXXXXXXXXXXXXXXXXXXXXXXXXXXXXXXXXXXXXXXXXXXXXXXXXXXXXXXXXXXXXXXXXXXXXXXXXXXXXXXXXXXXXXXXXXXXXXXXXXXXXXXXXXXXXXXXXXXXXXXXXXXXXXXXXXXXXXXXXXXXXXXXXXXXXXXXXXXXXXXXXXXXXXXXXXXXXXXXXXXXXXXXXXXXXXXXXXXXXXXXXXXXXXXXXXXXXXXXXXXX",
"XXXXXXXXXXXXXXXXXXXXXXXXXXXXXXXXXXXXXXXXXXXXXXXXXXXXXXXXXXXXXXXXXXXXXXXXXXXXXXXXXXXXXXXXXXXXXXXXXXXXXXXXXXXXXXXXXXXXXXXXXXXXXXXXXXXXXXXXXXXXXXXXXXXXXXXXXXXXXXXXXXXXXXXXXXXXXXXXXXXXXXXXXXXXXXXXXXXXXXXXXXXXXXXXXXXXXXXXXXXXXXXXXXXXXXXXXXXXXXXXXXXXXXXXXXXXXXXXXXXXXXXXXXXXXXXXXXXXXXXXXXXXXXXXXXXXXXXXXXXXXXXXXXXXXXXXXXXXXXXXXXXXXXXXXXXXXXXXXXXXXXXXXXXXXXXX",
"XXXXXXXXXXXXXXXXXXXXXXXXXXXXXXXXXXXXXXXXXXXXXXXXXXXXXXXXXXXXXXXXXXXXXXXXXXXXXXXXXXXXXXXXXXXXXXXXXXXXXXXXXXXXXXXXXXXXXXXXXXXXXXXXXXXXXXXXXXXXXXXXXXXXXXXXXXXXXXXXXXXXXXXXXXXXXXXXXXXXXXXXXXXXXXXXXXXXXXXXXXXXXXXXXXXXXXXXXXXXXXXXXXXXXXXXXXXXXXXXXXXXXXXXXXXXXXXXXXXXXXXXXXXXXXXXXXXXXXXXXXXXXXXXXXXXXXXXXXXXXXXXXXXXXXXXXXXXXXXXXXXXXXXXXXXXXXXXXXXXXXXXXXXXXXXX",
"XXXXXXXXXXXXXXXXXXXXXXXXXXXXXXXXXXXXXXXXXXXXXXXXXXXXXXXXXXXXXXXXXXXXXXXXXXXXXXXXXXXXXXXXXXXXXXXXXXXXXXXXXXXXXXXXXXXXXXXXXXXXXXXXXXXXXXXXXXXXXXXXXXXXXXXXXXXXXXXXXXXXXXXXXXXXXXXXXXXXXXXXXXXXXXXXXXXXXXXXXXXXXXXXXXXXXXXXXXXXXXXXXXXXXXXXXXXXXXXXXXXXXXXXXXXXXXXXXXXXXXXXXXXXXXXXXXXXXXXXXXXXXXXXXXXXXXXXXXXXXXXXXXXXXXXXXXXXXXXXXXXXXXXXXXXXXXXXXXXXXXXXXXXXXXXX",
"XXXXXXXXXXXXXXXXXXXXXXXXXXXXXXXXXXXXXXXXXXXXXXXXXXXXXXXXXXXXXXXXXXXXXXXXXXXXXXXXXXXXXXXXXXXXXXXXXXXXXXXXXXXXXXXXXXXXXXXXXXXXXXXXXXXXXXXXXXXXXXXXXXXXXXXXXXXXXXXXXXXXXXXXXXXXXXXXXXXXXXXXXXXXXXXXXXXXXXXXXXXXXXXXXXXXXXXXXXXXXXXXXXXXXXXXXXXXXXXXXXXXXXXXXXXXXXXXXXXXXXXXXXXXXXXXXXXXXXXXXXXXXXXXXXXXXXXXXXXXXXXXXXXXXXXXXXXXXXXXXXXXXXXXXXXXXXXXXXXXXXXXXXXXXXXX",
"XXXXXXXXXXXXXXXXXXXXXXXXXXXXXXXXXXXXXXXXXXXXXXXXXXXXXXXXXXXXXXXXXXXXXXXXXXXXXXXXXXXXXXXXXXXXXXXXXXXXXXXXXXXXXXXXXXXXXXXXXXXXXXXXXXXXXXXXXXXXXXXXXXXXXXXXXXXXXXXXXXXXXXXXXXXXXXXXXXXXXXXXXXXXXXXXXXXXXXXXXXXXXXXXXXXXXXXXXXXXXXXXXXXXXXXXXXXXXXXXXXXXXXXXXXXXXXXXXXXXXXXXXXXXXXXXXXXXXXXXXXXXXXXXXXXXXXXXXXXXXXXXXXXXXXXXXXXXXXXXXXXXXXXXXXXXXXXXXXXXXXXXXXXXXXXX",
"XXXXXXXXXXXXXXXXXXXXXXXXXXXXXXXXXXXXXXXXXXXXXXXXXXXXXXXXXXXXXXXXXXXXXXXXXXXXXXXXXXXXXXXXXXXXXXXXXXXXXXXXXXXXXXXXXXXXXXXXXXXXXXXXXXXXXXXXXXXXXXXXXXXXXXXXXXXXXXXXXXXXXXXXXXXXXXXXXXXXXXXXXXXXXXXXXXXXXXXXXXXXXXXXXXXXXXXXXXXXXXXXXXXXXXXXXXXXXXXXXXXXXXXXXXXXXXXXXXXXXXXXXXXXXXXXXXXXXXXXXXXXXXXXXXXXXXXXXXXXXXXXXXXXXXXXXXXXXXXXXXXXXXXXXXXXXXXXXXXXXXXXXXXXXXXX"
};
