/* XPM */
static char *pac_frames[] = {
/* columns rows colors chars-per-pixel */
"288 32 3 1 ",
"  c black",
". c #FFF100",
"X c None",
/* pixels */
"XXXXXXXXXXXXXXXXXXXXXXXXXXXXXXXXXXXXXXXXXXXXXXXXXXXXXXXXXXXXXXXXXXXXXXXXXXXXXXXXXXXXXXXXXXXXXXXXXXXXXXXXXXXXXXXXXXXXXXXXXXXXXXXXXXXXXXXXXXXXXXXXXXXXXXXXXXXXXXXXXXXXXXXXXXXXXXXXXXXXXXXXXXXXXXXXXXXXXXXXXXXXXXXXXXXXXXXXXXXXXXXXXXXXXXXXXXXXXXXXXXXXXXXXXXXXXXXXXXXXXXXXXXXXXXXXXXXXXXXXXXXXXXXX",
"XXXXXXXXXXXXXXXXXXXXXXXXXXXXXXXXXXXXXXXXXXXXXXXXXXXXXXXXXXXXXXXXXXXXXXXXXXXXXXXXXXXXXXXXXXXXXXXXXXXXXXXXXXXXXXXXXXXXXXXXXXXXXXXXXXXXXXXXXXXXXXXXXXXXXXXXXXXXXXXXXXXXXXXXXXXXXXXXXXXXXXXXXXXXXXXXXXXXXXXXXXXXXXXXXXXXXXXXXXXXXXXXXXXXXXXXXXXXXXXXXXXXXXXXXXXXXXXXXXXXXXXXXXXXXXXXXXXXXXXXXXXXXXXX",
"XXXXXXXXXXXXXXXXXXXXXXXXXXXXXXXXXXXXXXXXXXXXXXXXXXXXXXXXXXXXXXXXXXXXXXXXXXXXXXXXXXXXXXXXXXXXXXXXXXXXXXXXXXXXXXXXXXXXXXXXXXXXXXXXXXXXXXXXXXXXXXXXXXXXXXXXXXXXXXXXXXXXXXXXXXXXXXXXXXXXXXXXXXXXXXXXXXXXXXXXXXXXXXXXXXXXXXXXXXXXXXXXXXXXXXXXXXXXXXXXXXXXXXXXXXXXXXXXXXXXXXXXXXXXXXXXXXXXXXXXXXXXXXXX",
"XXXXXXXXXXXXXXXXXXXXXXXXXXXXXXXXXXXXXXXXXXXXXXXXXXXXXXXXXXXXXXXXXXXXXXXXXXXXXXXXXXXXXXXXXXXXXXXXXXXXXXXXXXXXXXXXXXXXXXXXXXXXXXXXXXXXXXXXXXXXXXXXXXXXXXXXXXXXXXXXXXXXXXXXXXXXXXXXXXXXXXXXXXXXXXXXXXXXXXXXXXXXXXXXXXXXXXXXXXXXXXXXXXXXXXXXXXXXXXXXXXXXXXXXXXXXXXXXXXXXXXXXXXXXXXXXXXXXXXXXXXXXXXXX",
"XXXXXXXXXXX..........XXXXXXXXXXXXXXXXXXXXXXX.........XXXXXXXXXXXXXXXXXXXXXXXX.........XXXXXXXXXXXXXXXXXXXXX.........XXXXXXXXXXXXXXXXXXXXXX.........XXXXXXXXXXXXXXXXXXXXXXXXXXXXXXXXXXXXXXXXXXXXXXXXXXXXXXXXXXXXXXXXXXXXXXXXXXXXXXXXXXXXXXXXXXXXXXXXXXXXXXXXXXXXXXXXXXXXXXXXXXXXXXXXXXXXXXXXXXXXX",
"XXXXXXXXXXX..........XXXXXXXXXXXXXXXXXXXXXXX.........XXXXXXXXXXXXXXXXXXXXXXXX.........XXXXXXXXXXXXXXXXXXXXX.........XXXXXXXXXXXXXXXXXXXXXX..........XXXXXXXXXXXXXXXXXXXXXXXXXXXXXXXXXXXXXXXXXXXXXXXXXXXXXXXXXXXXXXXXXXXXXXXXXXXXXXXXXXXXXXX..........XXXXXXXXXXXXXXXXXXXXXXX........XXXXXXXXXXXX",
"XXXXXXXX................XXXXXXXXXXXXXXXXX................XXXXXXXXXXXXXXXX.............XXXXXXXXXXXXXXXXX.................XXXXXXXXXXXXXXXXXX.............XXXXXXXXXXXXXXXXX...XXXXXXXXXX...XXXXXXXXXXXXXXXXXXXXXXXXXXXXXXXXXXXXXXXXXXXXXXXXXXX..........XXXXXXXXXXXXXXXXXXXXXX..........XXXXXXXXXXX",
"XXXXXXXX................XXXXXXXXXXXXXXXX.................XXXXXXXXXXXXXXXX.............XXXXXXXXXXXXXXXXX.................XXXXXXXXXXXXXXXXXX.............XXXXXXXXXXXXXXX.....XXXXXXXXXX.....XXXXXXXXXXXXXXXXXXXXXXXXXXXXXXXXXXXXXXXXXXXXXX................XXXXXXXXXXXXXXXXXXX..........XXXXXXXXXXX",
"XXXXXX....................XXXXXXXXXXXXX...................XXXXXXXXXXXXXX............XXXXXXXXXXXXXXXXXX...................XXXXXXXXXXXXXXXXXXX............XXXXXXXXXXXXXX.....XXXXXXXXXX.....XXXXXXXXXXXXXXXXXXXXXXXXXXXXXXXXXXXXXXXXXXXX...................XXXXXXXXXXXXXXX................XXXXXXXX",
"XXXXXX....................XXXXXXXXXXXXX...................XXXXXXXXXXXXXX............XXXXXXXXXXXXXXXXXX...................XXXXXXXXXXXXXXXXXXXXX..........XXXXXXXXXXXXXX.......XXXXXX.......XXXXXXXXXXXXXXXXXXXXXXXXXXXXXXXXXXXXXXXXXXXX....................XXXXXXXXXXXX....................XXXXXX",
"XXXXXX....................XXXXXXXXXXXXX...................XXXXXXXXXXXXXX..........XXXXXXXXXXXXXXXXXXXX...................XXXXXXXXXXXXXXXXXXXXX..........XXXXXXXXXXXXXX........XXXXX.......XXXXXXXXXX....XXXXXXXXXXXXXXXX....XXXXXXXXXX....................XXXXXXXXXXXX....................XXXXXX",
"XXXX........................XXXXXXXXX..................XXXXXXXXXXXXXXX..........XXXXXXXXXXXXXXXXXXXXXXXXX..................XXXXXXXXXXXXXXXXXXXXX..........XXXXXXXXXX..........XXXXX.........XXXXXXXX....XXXXXXXXXXXXXXXX....XXXXXXXXXX....................XXXXXXXXXXXX....................XXXXXX",
"XXXX........................XXXXXXXXX..................XXXXXXXXXXXXXX...........XXXXXXXXXXXXXXXXXXXXXXXXX..................XXXXXXXXXXXXXXXXXXXXX...........XXXXXXXXX..........XXXXX.........XXXXXXXX......XXXXXXXXXXXXX.....XXXXXXXX...........X............XXXXXXXXX.....................XXXXXX",
"XXXX........................XXXXXXXXX.................XXXXXXXXXXXXXXX...........XXXXXXXXXXXXXXXXXXXXXXXXXXXXXX.............XXXXXXXXXXXXXXXXXXXXXX..........XXXXXXXXX..........XXXXX.........XXXXXXXX......XXXXXXXXXXXXX.....XXXXXXXX...........X............XXXXXXXX...........X............XXXX",
"XXXX........................XXXXXXXXX.............XXXXXXXXXXXXXXXXXXX..........XXXXXXXXXXXXXXXXXXXXXXXXXXXXXXX.............XXXXXXXXXXXXXXXXXXXXXX..........XXXXXXXXX............X...........XXXXXXXX.......XXXXXXXXXX.......XXXXXXXX...........X............XXXXXXXX...........X............XXXX",
"XXXX........................XXXXXXXXX.............XXXXXXXXXXXXXXXXXXX..........XXXXXXXXXXXXXXXXXXXXXXXXXXXXXXXXXXXXX.......XXXXXXXXXXXXXXXXXXXXXXXX........XXXXXXXXX............X...........XXXXXXXX.......XXXXXXXXXX.......XXXXXXXX...........X............XXXXXXXX.........XXXXX..........XXXX",
"XXXX........................XXXXXXXXX.......XXXXXXXXXXXXXXXXXXXXXXXXX........XXXXXXXXXXXXXXXXXXXXXXXXXXXXXXXXX.............XXXXXXXXXXXXXXXXXXXXXX..........XXXXXXXXX............X...........XXXXXXXX..........XXXXX.........XXXXXXXX...........X............XXXXXXXX.......XXXXXXXXXX.......XXXX",
"XXXX........................XXXXXXXXX.............XXXXXXXXXXXXXXXXXXX..........XXXXXXXXXXXXXXXXXXXXXXXXXXXXXXX.............XXXXXXXXXXXXXXXXXXXXXX..........XXXXXXXXX............X...........XXXXXXXX............X...........XXXXXXXX...........X............XXXXXXXX.......XXXXXXXXXX.......XXXX",
"XXXX........................XXXXXXXXX.............XXXXXXXXXXXXXXXXXXX..........XXXXXXXXXXXXXXXXXXXXXXXXXXX.................XXXXXXXXXXXXXXXXXXXXX...........XXXXXXXXX............X...........XXXXXXXX............X...........XXXXXXXX.........XXXXX..........XXXXXXXX.....XXXXXXXXXXXXX......XXXX",
"XXXX........................XXXXXXXXX..................XXXXXXXXXXXXXX...........XXXXXXXXXXXXXXXXXXXXXXXXX..................XXXXXXXXXXXXXXXXXXXXX...........XXXXXXXXX............X...........XXXXXXXXXX.....................XXXXXXXXX.........XXXXX..........XXXXXXXX.....XXXXXXXXXXXXX......XXXX",
"XXXX........................XXXXXXXXX..................XXXXXXXXXXXXXXX..........XXXXXXXXXXXXXXXXXXXXXXXXX..................XXXXXXXXXXXXXXXXXXXXX..........XXXXXXXXXXXX....................XXXXXXXXXXXX....................XXXXXXXXXX.........XXXXX..........XXXXXXXX....XXXXXXXXXXXXXXXX....XXXX",
"XXXXXX....................XXXXXXXXXXXXX...................XXXXXXXXXXXXXX..........XXXXXXXXXXXXXXXXXXXX...................XXXXXXXXXXXXXXXXXXXXX..........XXXXXXXXXXXXXX....................XXXXXXXXXXXX....................XXXXXXXXXXXX.......XXXXX........XXXXXXXXXX....XXXXXXXXXXXXXXXX....XXXX",
"XXXXXX....................XXXXXXXXXXXXX...................XXXXXXXXXXXXXX..........XXXXXXXXXXXXXXXXXXXX...................XXXXXXXXXXXXXXXXXXX............XXXXXXXXXXXXXX....................XXXXXXXXXXXX....................XXXXXXXXXXXX.......XXXXXX.......XXXXXXXXXXXXXXXXXXXXXXXXXXXXXXXXXXXXXX",
"XXXXXX....................XXXXXXXXXXXXX...................XXXXXXXXXXXXXX............XXXXXXXXXXXXXXXXXX...................XXXXXXXXXXXXXXXXXXX............XXXXXXXXXXXXXXX...................XXXXXXXXXXXXXX................XXXXXXXXXXXXXX.....XXXXXXXXXX.....XXXXXXXXXXXXXXXXXXXXXXXXXXXXXXXXXXXXXX",
"XXXXXXXX................XXXXXXXXXXXXXXXX.................XXXXXXXXXXXXXXXX.............XXXXXXXXXXXXXXXXX.................XXXXXXXXXXXXXXXXXX.............XXXXXXXXXXXXXXXXX................XXXXXXXXXXXXXXXXXXX..........XXXXXXXXXXXXXXXXX.....XXXXXXXXXX.....XXXXXXXXXXXXXXXXXXXXXXXXXXXXXXXXXXXXXX",
"XXXXXXXX................XXXXXXXXXXXXXXXX.................XXXXXXXXXXXXXXXX.............XXXXXXXXXXXXXXXXX................XXXXXXXXXXXXXXXXXXX.............XXXXXXXXXXXXXXXXXXXX..........XXXXXXXXXXXXXXXXXXXXXX..........XXXXXXXXXXXXXXXXXXX...XXXXXXXXXX...XXXXXXXXXXXXXXXXXXXXXXXXXXXXXXXXXXXXXXXX",
"XXXXXXXXXXX..........XXXXXXXXXXXXXXXXXXXXXXX.........XXXXXXXXXXXXXXXXXXXXXXX..........XXXXXXXXXXXXXXXXXXXXX.........XXXXXXXXXXXXXXXXXXXXXX.........XXXXXXXXXXXXXXXXXXXXXXXX..........XXXXXXXXXXXXXXXXXXXXXXX........XXXXXXXXXXXXXXXXXXXXXXXXXXXXXXXXXXXXXXXXXXXXXXXXXXXXXXXXXXXXXXXXXXXXXXXXXXXX",
"XXXXXXXXXXX..........XXXXXXXXXXXXXXXXXXXXXXX.........XXXXXXXXXXXXXXXXXXXXXXXX.........XXXXXXXXXXXXXXXXXXXXX.........XXXXXXXXXXXXXXXXXXXXXX.........XXXXXXXXXXXXXXXXXXXXXXXXXXXXXXXXXXXXXXXXXXXXXXXXXXXXXXXXXXXXXXXXXXXXXXXXXXXXXXXXXXXXXXXXXXXXXXXXXXXXXXXXXXXXXXXXXXXXXXXXXXXXXXXXXXXXXXXXXXXXX",
"XXXXXXXXXXXXXXXXXXXXXXXXXXXXXXXXXXXXXXXXXXXXXXXXXXXXXXXXXXXXXXXXXXXXXXXXXXXXXXXXXXXXXXXXXXXXXXXXXXXXXXXXXXXXXXXXXXXXXXXXXXXXXXXXXXXXXXXXXXXXXXXXXXXXXXXXXXXXXXXXXXXXXXXXXXXXXXXXXXXXXXXXXXXXXXXXXXXXXXXXXXXXXXXXXXXXXXXXXXXXXXXXXXXXXXXXXXXXXXXXXXXXXXXXXXXXXXXXXXXXXXXXXXXXXXXXXXXXXXXXXXXXXXXX",
"XXXXXXXXXXXXXXXXXXXXXXXXXXXXXXXXXXXXXXXXXXXXXXXXXXXXXXXXXXXXXXXXXXXXXXXXXXXXXXXXXXXXXXXXXXXXXXXXXXXXXXXXXXXXXXXXXXXXXXXXXXXXXXXXXXXXXXXXXXXXXXXXXXXXXXXXXXXXXXXXXXXXXXXXXXXXXXXXXXXXXXXXXXXXXXXXXXXXXXXXXXXXXXXXXXXXXXXXXXXXXXXXXXXXXXXXXXXXXXXXXXXXXXXXXXXXXXXXXXXXXXXXXXXXXXXXXXXXXXXXXXXXXXXX",
"XXXXXXXXXXXXXXXXXXXXXXXXXXXXXXXXXXXXXXXXXXXXXXXXXXXXXXXXXXXXXXXXXXXXXXXXXXXXXXXXXXXXXXXXXXXXXXXXXXXXXXXXXXXXXXXXXXXXXXXXXXXXXXXXXXXXXXXXXXXXXXXXXXXXXXXXXXXXXXXXXXXXXXXXXXXXXXXXXXXXXXXXXXXXXXXXXXXXXXXXXXXXXXXXXXXXXXXXXXXXXXXXXXXXXXXXXXXXXXXXXXXXXXXXXXXXXXXXXXXXXXXXXXXXXXXXXXXXXXXXXXXXXXXX",
"XXXXXXXXXXXXXXXXXXXXXXXXXXXXXXXXXXXXXXXXXXXXXXXXXXXXXXXXXXXXXXXXXXXXXXXXXXXXXXXXXXXXXXXXXXXXXXXXXXXXXXXXXXXXXXXXXXXXXXXXXXXXXXXXXXXXXXXXXXXXXXXXXXXXXXXXXXXXXXXXXXXXXXXXXXXXXXXXXXXXXXXXXXXXXXXXXXXXXXXXXXXXXXXXXXXXXXXXXXXXXXXXXXXXXXXXXXXXXXXXXXXXXXXXXXXXXXXXXXXXXXXXXXXXXXXXXXXXXXXXXXXXXXXX"
};
