/* XPM */
static char *ghost_up[] = {
/* columns rows colors chars-per-pixel */
"64 32 92 1 ",
"  c black",
". c gray16",
"X c #544F00",
"o c #555000",
"O c #5D5700",
"+ c #544F15",
"@ c #4D4B3A",
"# c #404142",
"$ c #484848",
"% c gray32",
"& c #5F5F5F",
"* c #6A6A6A",
"= c #6D6D6D",
"- c #FCEE00",
"; c #FDEF00",
": c #FEF000",
"> c #FFF100",
", c #FFF101",
"< c #FFF200",
"1 c #FFF300",
"2 c #FFF10A",
"3 c #FFF117",
"4 c #FFF118",
"5 c #FEF122",
"6 c #FEF124",
"7 c #FEF02C",
"8 c #FDF03D",
"9 c #FDF03F",
"0 c #FCEF49",
"q c #F9EC4F",
"w c #FCEF4E",
"e c #FCEF4F",
"r c #FCEF51",
"t c #FBEF57",
"y c #FEF152",
"u c #FAEE64",
"i c #F9ED6A",
"p c #F9ED6B",
"a c #F7EC7A",
"s c #838383",
"d c #8E8E8E",
"f c gray62",
"g c gray66",
"h c #F5EB83",
"j c #F6EC80",
"k c #F5EB84",
"l c #F5EB86",
"z c #F4EB88",
"x c #F3EA92",
"c c #F1E89D",
"v c #EFE7A5",
"b c #EEE7A7",
"n c #EFE8A4",
"m c #E8E2B5",
"M c #EAE5B9",
"N c #E9E4BB",
"B c #ECE7BA",
"V c gray80",
"C c #CECECE",
"Z c #D0D0D0",
"A c #D5D5D5",
"S c #DFDFDA",
"D c #DFDFDB",
"F c #DBDBDD",
"G c gainsboro",
"H c #DFDEDC",
"J c #DEDEDD",
"K c gray87",
"L c #DEDEDF",
"P c #DFDFDF",
"I c #E0DFD8",
"U c #E7E3C3",
"Y c #E6E2C6",
"T c #E6E2C7",
"R c #E5E2C8",
"E c #E3E1CF",
"W c #E4E1CE",
"Q c #E2E0D1",
"! c #E3E1D1",
"~ c #E2E0D2",
"^ c #E2E0D3",
"/ c #E1E0D5",
"( c #E1E0D6",
") c #DDDDE1",
"_ c #DDDEE0",
"` c #DEDEE0",
"' c #DDDDE2",
"] c #DFDFE2",
"[ c #DEDFE4",
"{ c gray88",
"} c #E1E1E1",
"| c None",
/* pixels */
"||||||||||||||||||||||||||||||||||||||||||||||||||||||||||||||||",
"||||||||||||||||||||||||||||||||||||||||||||||||||||||||||||||||",
"||||||||||||||||||||||||||||||||||||||||||||||||||||||||||||||||",
"|||||||||||||||||||||||||||||||||||||||||||||>>>>>>>||||||||||||",
"|||||||||||||>>>>>>>|||||||||||||||||||||||||>>>>>>:||||||||||||",
"|||||||||   O1>>>>>;   ||||||||||||||||||   X1>>>>>-    ||||||||",
"|||||||||   o1>>>>>;    |||||||||||||||||.  +y5>>3rq   $||||||||",
"|||||||K}&  @Bt>>9Mm   dK||||||||||||||K{=  #[p>>e'F   fK|||||||",
"|||||||J{s%%*]i>>w_G%%%gK|||||||||||||>(KZVVC`i>>w_KVVVAD>>|||||",
"||||||>/K{{{{_i>>w_K{{{PD>>|||||||||||>/KKKKK_i>>w_KKKKKD>>|||||",
"||||||>/KKKKK_i>>w_KKKKKD>>|||||||||||>/KKKKK_i>>w_KKKKKD>>|||||",
"||||||>(LKKKK)p>>e)LKKKLH>>|||||||||||>R!DKKJ~u>>0^QKKKIW>>|||||",
"||||||>jhEKKIk8>>7lzKKKNh>>|||||||||||,><YKK/<>>>>>2KKKv>>>|||||",
"||||||>>>TKK/>>>>>>6KKKb>>>|||||||||||>>>USSQ>>>>>>6SSSn>>>|||||",
"||||>>>>>xnnc>>>>>>4nnna>>>>||||||||>>>>>>>>>>>>>>>>>>>>>>>>>|||",
"||||>>>>>>>>>>>>>>>>>>>>>>>>>|||||||>>>>>>>>>>>>>>>>>>>>>>>>>|||",
"||||>>>>>>>>>>>>>>>>>>>>>>>>>|||||||>>>>>>>>>>>>>>>>>>>>>>>>>|||",
"||||>>>>>>>>>>>>>>>>>>>>>>>>>|||||||>>>>>>>>>>>>>>>>>>>>>>>>>|||",
"||||>>>>>>>>>>>>>>>>>>>>>>>>>|||||||>>>>>>>>>>>>>>>>>>>>>>>>>|||",
"||||>>>>>>>>>>>>>>>>>>>>>>>>>|||||||>>>>>>>>>>>>>>>>>>>>>>>>>|||",
"||||>>>>>>>>>>>>>>>>>>>>>>>>>|||||||>>>>>>>>>>>>>>>>>>>>>>>>>|||",
"||||>>>>>>>>>>>>>>>>>>>>>>>>>|||||||>>>>>>>>>>>>>>>>>>>>>>>>>|||",
"||||>>>>>>>>>>>>>>>>>>>>>>>>>|||||||>>>>>>>>>>>>>>>>>>>>>>>>>|||",
"||||>>>>>>>>>>>>>>>>>>>>>>>>>|||||||>>>>>>>>>>>>>>>>>>>>>>>>>|||",
"||||>>>>>>>>>>>>>>>>>>>>>>>>>|||||||>>>>>>>>>>>>>>>>>>>>>>>>>|||",
"||||>>>>>>>|>>>>>>>>|>>>>>>>>|||||||>>|||>>>>>||||>>>>>>||>>>|||",
"||||>>>>>>>|>>>>>>>>||>>>>>>||||||||>||||||>>>||||>>>||||||>>|||",
"||||||>>>|||||>>>>||||||>>||||||||||>||||||>>>||||>>>||||||>>|||",
"||||||>>||||||>>>>||||||>>||||||||||||||||||||||||||||||||||||||",
"||||||||||||||||||||||||||||||||||||||||||||||||||||||||||||||||",
"||||||||||||||||||||||||||||||||||||||||||||||||||||||||||||||||",
"||||||||||||||||||||||||||||||||||||||||||||||||||||||||||||||||"
};
