/* XPM */
static char *ghost_left[] = {
/* columns rows colors chars-per-pixel */
"64 32 110 2 ",
"   c black",
".  c #010100",
"X  c #000001",
"o  c gray4",
"O  c #151515",
"+  c gray14",
"@  c #625D00",
"#  c #67611B",
"$  c #555555",
"%  c #5B5B56",
"&  c #595A5B",
"*  c #5B5B5B",
"=  c #5F5F5F",
"-  c #606060",
";  c #656565",
":  c #A09700",
">  c #A29800",
",  c #A39A00",
"<  c #B4AA00",
"1  c #DFD200",
"2  c #E7DA00",
"3  c #EBDE00",
"4  c #EEE100",
"5  c #F4E700",
"6  c #FCEE00",
"7  c #FFF100",
"8  c #FFF101",
"9  c #FFF200",
"0  c #FFF400",
"q  c #FEF027",
"w  c #FEF02A",
"e  c #FDF03D",
"r  c #B1A94C",
"t  c #EBDF48",
"y  c #FCEF47",
"u  c #FCEF49",
"i  c #FCEF4C",
"p  c #FCEF4D",
"a  c #FCEF4E",
"s  c #FCEF4F",
"d  c #FDF043",
"f  c #FEF14F",
"g  c #FCEF50",
"h  c #FBEF54",
"j  c #FBEF57",
"k  c #FBEF58",
"l  c #FBEE5C",
"z  c #F9ED6C",
"x  c #F8ED6E",
"c  c #F8ED73",
"v  c #F7EC78",
"b  c #F7EC7A",
"n  c #F7EC7B",
"m  c gray75",
"M  c #DAD49C",
"N  c #F6EB81",
"B  c #F6EB82",
"V  c #F6EC81",
"C  c #F5EB85",
"Z  c #F5EB86",
"A  c #F4EB8A",
"S  c #F2E996",
"D  c #F1E999",
"F  c #F1E99A",
"G  c #F1E99C",
"H  c #EEE7A7",
"J  c #EEE7A8",
"K  c #ECE6B8",
"L  c #C0C0C0",
"P  c #C1C1C1",
"I  c #C6C6C6",
"U  c gray78",
"Y  c #CACACA",
"T  c #CBCBCB",
"R  c gray81",
"E  c #D2D1C6",
"W  c #CECFD1",
"Q  c #D8D8D8",
"!  c gray86",
"~  c #DFDFDA",
"^  c #DFDFDB",
"/  c #DFDEDC",
"(  c #DFDEDD",
")  c gray87",
"_  c #DEDEDF",
"`  c #E1DFD7",
"'  c #E0DFD8",
"]  c #E0DFD9",
"[  c #E0DFDA",
"{  c #E7E3C2",
"}  c #E7E3C3",
"|  c #E7E3C4",
" . c #E6E2C6",
".. c #E6E2C7",
"X. c #E5E2C8",
"o. c #E5E2CA",
"O. c #E3E1CF",
"+. c #E4E1CD",
"@. c #E3E1D0",
"#. c #E3E1D1",
"$. c #E2E0D3",
"%. c #E1E0D5",
"&. c #E1E0D6",
"*. c #E3E2D7",
"=. c #DDDDE1",
"-. c #DDDEE0",
";. c #DDDDE2",
":. c #DFE0E2",
">. c gray88",
",. c None",
/* pixels */
",.,.,.,.,.,.,.,.,.,.,.,.,.,.,.,.,.,.,.,.,.,.,.,.,.,.,.,.,.,.,.,.,.,.,.,.,.,.,.,.,.,.,.,.,.,.,.,.,.,.,.,.,.,.,.,.,.,.,.,.,.,.,.,.",
",.,.,.,.,.,.,.,.,.,.,.,.,.,.,.,.,.,.,.,.,.,.,.,.,.,.,.,.,.,.,.,.,.,.,.,.,.,.,.,.,.,.,.,.,.,.,.,.,.,.,.,.,.,.,.,.,.,.,.,.,.,.,.,.",
",.,.,.,.,.,.,.,.,.,.,.,.,.,.,.,.,.,.,.,.,.,.,.,.,.,.,.,.,.,.,.,.,.,.,.,.,.,.,.,.,.,.,.,.,.,.,.,.,.,.,.,.,.,.,.,.,.,.,.,.,.,.,.,.",
",.,.,.,.,.,.,.,.,.,.,.,.,.,.,.,.,.,.,.,.,.,.,.,.,.,.,.,.,.,.,.,.,.,.,.,.,.,.,.,.,.,.,.,.,.7 7 7 7 7 7 7 ,.,.,.,.,.,.,.,.,.,.,.,.",
",.,.,.,.,.,.,.,.,.,.,.,.,.7 7 7 7 7 7 7 ,.,.,.,.,.,.,.,.,.,.,.,.,.,.,.,.,.,.,.,.,.,.,.,.,.7 7 7 7 7 7 7 ,.,.,.,.,.,.,.,.,.,.,.,.",
",.,.,.,.,.,.,.,.,.7 7 7 7 7 7 7 7 7 7 7 7 7 7 ,.,.,.,.,.,.,.,.,.,.,.,.,.,.,.,.,.,.7 7 7 7 7 7 7 7 7 7 7 7 7 7 7 ,.,.,.,.,.,.,.,.",
",.,.,.,.,.,.,.,.,.7 7 7 7 7 7 7 7 7 7 7 7 7 7 7 ,.,.,.,.,.,.,.,.,.,.,.,.,.,.,.,.,.7 7 7 7 7 7 7 7 7 7 7 7 7 7 7 ,.,.,.,.,.,.,.,.",
",.,.,.,.,.,.,.7 7 7 7 7 7 7 7 7 7 7 7 7 7 7 7 7 7 ,.,.,.,.,.,.,.,.,.,.,.,.,.,.7 7 7 7 8 7 7 7 7 7 7 7 7 7 7 7 7 7 ,.,.,.,.,.,.,.",
",.,.,.,.,.,.,.v b b z 7 7 7 7 7 7 q n b b u 7 7 7 ,.,.,.,.,.,.,.,.,.,.,.,.,.7 @.' ' { 7 7 7 7 7 7 i ~ ' ] C 7 7 7 7 7 ,.,.,.,.,.",
",.,.,.,.,.,.7 &.-.-.X.7 7 7 7 7 7 s ;.-.=.A 7 7 7 7 7 ,.,.,.,.,.,.,.,.,.,.,.9 %.) )  .9 7 8 7 7 7 y -.) _ Z 7 7 7 7 7 ,.,.,.,.,.",
",.,.,.,.,.,.a &.) ) o.a g 7 7 7 d x -.) _ S h e 7 7 7 ,.,.,.,.,.,.,.,.,.,.,.+.( ) ) ~ +.| 7 7 7 H O.) ) ) $.+.F 7 7 7 ,.,.,.,.,.",
",.,.,.,.,.,.:.>.>.) ) -.` 7 7 7 K :.>.>.) _ -.J 7 7 7 ,.,.,.,.,.,.,.,.,.,.,.L L m Q ) ) %.7 7 7 M L L P ) ) ) H 7 7 7 ,.,.,.,.,.",
",.,.,.,.,.,.= = * T ) ) %.7 7 9 r = = ; ) ) ) H 7 7 7 ,.,.,.,.,.,.,.,.,.,.,.      I ) ) %.7 7 9 >     O ) ) ) H 7 7 7 ,.,.,.,.,.",
",.,.,.,.,.,..     U ) ) %.7 7 9 ,     + ) ) ) H 7 7 7 ,.,.,.,.,.,.,.,.,.,.,.      U ) ) %.7 7 9 ,     + ) ) ) H 7 7 7 ,.,.,.,.,.",
",.,.,.,.7 1       U ) ) %.7 7 9 ,     + ) ) ) H 7 7 7 7 ,.,.,.,.,.,.,.,.7 2 X     I ) -.` 7 7 9 :     o ) _ -.J 7 7 7 7 7 ,.,.,.",
",.,.,.,.7 3 @ % $ Y ^ O...7 7 9 < # & - ) %.@.G 7 7 7 7 7 ,.,.,.,.,.,.,.7 6 4 E R ! o.j k 7 7 7 5 t W R _ D l d 7 7 7 7 7 ,.,.,.",
",.,.,.,.7 7 0 *.>.)  .9 7 8 7 7 9 f :.>._ Z 7 7 7 7 7 7 7 ,.,.,.,.,.,.,.7 7 7 &._ _ X.7 7 7 7 7 7 s =._ -.A 7 7 7 7 7 7 7 ,.,.,.",
",.,.,.,.7 7 7 #.[ [ } 7 7 7 7 7 7 p / [ ^ Z 7 7 7 7 7 7 7 ,.,.,.,.,.,.,.7 7 7 n V V c 7 7 7 7 7 7 w B V N p 7 7 7 7 7 7 7 ,.,.,.",
",.,.,.,.7 7 7 7 7 7 7 7 7 7 7 7 7 7 7 7 7 7 7 7 7 7 7 7 7 ,.,.,.,.,.,.,.7 7 7 7 7 7 7 7 7 7 7 7 7 7 7 7 7 7 7 7 7 7 7 7 7 ,.,.,.",
",.,.,.,.7 7 7 7 7 7 7 7 7 7 7 7 7 7 7 7 7 7 7 7 7 7 7 7 7 ,.,.,.,.,.,.,.7 7 7 7 7 7 7 7 7 7 7 7 7 7 7 7 7 7 7 7 7 7 7 7 7 ,.,.,.",
",.,.,.,.7 7 7 7 7 7 7 7 7 7 7 7 7 7 7 7 7 7 7 7 7 7 7 7 7 ,.,.,.,.,.,.,.7 7 7 7 7 7 7 7 7 7 7 7 7 7 7 7 7 7 7 7 7 7 7 7 7 ,.,.,.",
",.,.,.,.7 7 7 7 7 7 7 7 7 7 7 7 7 7 7 7 7 7 7 7 7 7 7 7 7 ,.,.,.,.,.,.,.7 7 7 7 7 7 7 7 7 7 7 7 7 7 7 7 7 7 7 7 7 7 7 7 7 ,.,.,.",
",.,.,.,.7 7 7 7 7 7 7 7 7 7 7 7 7 7 7 7 7 7 7 7 7 7 7 7 7 ,.,.,.,.,.,.,.7 7 7 7 7 7 7 7 7 7 7 7 7 7 7 7 7 7 7 7 7 7 7 7 7 ,.,.,.",
",.,.,.,.7 7 7 7 7 7 7 7 7 7 7 7 7 7 7 7 7 7 7 7 7 7 7 7 7 ,.,.,.,.,.,.,.7 7 7 7 7 7 7 7 7 7 7 7 7 7 7 7 7 7 7 7 7 7 7 7 7 ,.,.,.",
",.,.,.,.7 7 7 7 7 7 7 7 7 7 7 7 7 7 7 7 7 7 7 7 7 7 7 7 7 ,.,.,.,.,.,.,.7 7 7 ,.7 7 7 7 7 7 7 ,.,.7 7 7 7 7 7 7 ,.7 7 7 7 ,.,.,.",
",.,.,.,.7 7 7 7 7 7 7 ,.7 7 7 7 7 7 7 7 ,.7 7 7 7 7 7 7 7 ,.,.,.,.,.,.,.7 7 ,.,.,.7 7 7 7 7 ,.,.,.,.7 7 7 7 7 ,.,.,.7 7 7 ,.,.,.",
",.,.,.,.,.7 7 7 7 ,.,.,.,.,.7 7 7 7 ,.,.,.,.,.7 7 7 7 ,.,.,.,.,.,.,.,.,.7 ,.,.,.,.,.,.7 7 7 ,.,.,.,.7 7 7 ,.,.,.,.,.,.7 7 ,.,.,.",
",.,.,.,.,.,.7 7 7 ,.,.,.,.,.7 7 7 7 ,.,.,.,.,.,.7 7 ,.,.,.,.,.,.,.,.,.,.7 ,.,.,.,.,.,.7 7 7 ,.,.,.,.7 7 7 ,.,.,.,.,.,.7 7 ,.,.,.",
",.,.,.,.,.,.7 7 ,.,.,.,.,.,.7 7 7 7 ,.,.,.,.,.,.7 7 ,.,.,.,.,.,.,.,.,.,.,.,.,.,.,.,.,.,.,.,.,.,.,.,.,.,.,.,.,.,.,.,.,.,.,.,.,.,.",
",.,.,.,.,.,.,.,.,.,.,.,.,.,.,.,.,.,.,.,.,.,.,.,.,.,.,.,.,.,.,.,.,.,.,.,.,.,.,.,.,.,.,.,.,.,.,.,.,.,.,.,.,.,.,.,.,.,.,.,.,.,.,.,.",
",.,.,.,.,.,.,.,.,.,.,.,.,.,.,.,.,.,.,.,.,.,.,.,.,.,.,.,.,.,.,.,.,.,.,.,.,.,.,.,.,.,.,.,.,.,.,.,.,.,.,.,.,.,.,.,.,.,.,.,.,.,.,.,.",
",.,.,.,.,.,.,.,.,.,.,.,.,.,.,.,.,.,.,.,.,.,.,.,.,.,.,.,.,.,.,.,.,.,.,.,.,.,.,.,.,.,.,.,.,.,.,.,.,.,.,.,.,.,.,.,.,.,.,.,.,.,.,.,."
};
