/* XPM */
static char *ghost_down[] = {
/* columns rows colors chars-per-pixel */
"64 32 102 2 ",
"   c black",
".  c #4C4700",
"X  c #534F0A",
"o  c #7D7600",
"O  c #434343",
"+  c gray28",
"@  c #4B4A43",
"#  c #484949",
"$  c #6D6D6D",
"%  c #6F6F6F",
"&  c #727168",
"*  c #6F7070",
"=  c #807914",
"-  c #B5AB00",
";  c #BBB100",
":  c #B6AC21",
">  c #C3B800",
",  c #CDC100",
"<  c #DFD200",
"1  c #EFE200",
"2  c #F1E400",
"3  c #F3E600",
"4  c #F7E900",
"5  c #FDEF00",
"6  c #FEF000",
"7  c #FFF100",
"8  c #FFF101",
"9  c #FFF200",
"0  c #FFF300",
"q  c #FFF10B",
"w  c #FFF10F",
"e  c #FFF113",
"r  c #FFF114",
"t  c #FFF119",
"y  c #FFF11A",
"u  c #FFF11B",
"i  c #FFF11C",
"p  c #FEF11E",
"a  c #FBEE32",
"s  c #FEF030",
"d  c #FEF132",
"f  c #FEF033",
"g  c #FFF233",
"h  c #FDF03F",
"j  c #FCEF49",
"k  c #FCEF4C",
"l  c #FCEF4E",
"z  c #FCEF4F",
"x  c #FBEF56",
"c  c #FBEE5B",
"v  c #FAEE63",
"b  c #F9EE68",
"n  c #F9ED6A",
"m  c #F9ED6B",
"M  c #F8ED6E",
"N  c #F7EC76",
"B  c #F7EC7B",
"V  c gray62",
"C  c #A3A194",
"Z  c #9E9FA0",
"A  c gray",
"S  c #EFE7A6",
"D  c #EEE7A7",
"F  c #ECE6AF",
"G  c #EBE5B3",
"H  c #EBE5B5",
"J  c #EAE5B7",
"K  c #EAE5B8",
"L  c #C1C1C1",
"P  c #C5C5C5",
"I  c #CECECE",
"U  c gray86",
"Y  c #DFDFDB",
"T  c #DBDBDD",
"R  c gainsboro",
"E  c #DDDDDD",
"W  c #DFDEDC",
"Q  c #DFDFDC",
"!  c #DEDEDD",
"~  c gray87",
"^  c #DFDFDF",
"/  c #E1DECD",
"(  c #E0DFD9",
")  c #E6E2C6",
"_  c #E6E2C7",
"`  c #E5E2C8",
"'  c #E4E1CC",
"]  c #E4E2CC",
"[  c #E3E1D0",
"{  c #E3E1D1",
"}  c #E5E3D1",
"|  c #E4E2D3",
" . c #E1E0D5",
".. c #E1E0D6",
"X. c #DDDDE1",
"o. c #DDDEE0",
"O. c #DEDEE0",
"+. c #DFDFE2",
"@. c #DFDFE3",
"#. c #DFE0E1",
"$. c gray88",
"%. c None",
/* pixels */
"%.%.%.%.%.%.%.%.%.%.%.%.%.%.%.%.%.%.%.%.%.%.%.%.%.%.%.%.%.%.%.%.%.%.%.%.%.%.%.%.%.%.%.%.%.%.%.%.%.%.%.%.%.%.%.%.%.%.%.%.%.%.%.%.",
"%.%.%.%.%.%.%.%.%.%.%.%.%.%.%.%.%.%.%.%.%.%.%.%.%.%.%.%.%.%.%.%.%.%.%.%.%.%.%.%.%.%.%.%.%.%.%.%.%.%.%.%.%.%.%.%.%.%.%.%.%.%.%.%.",
"%.%.%.%.%.%.%.%.%.%.%.%.%.%.%.%.%.%.%.%.%.%.%.%.%.%.%.%.%.%.%.%.%.%.%.%.%.%.%.%.%.%.%.%.%.%.%.%.%.%.%.%.%.%.%.%.%.%.%.%.%.%.%.%.",
"%.%.%.%.%.%.%.%.%.%.%.%.%.%.%.%.%.%.%.%.%.%.%.%.%.%.%.%.%.%.%.%.%.%.%.%.%.%.%.%.%.%.%.%.%.%.%.%.%.%.%.%.%.%.%.%.%.%.%.%.%.%.%.%.",
"%.%.%.%.%.%.%.%.%.%.%.%.%.7 7 7 7 7 7 7 %.%.%.%.%.%.%.%.%.%.%.%.%.%.%.%.%.%.%.%.%.%.%.%.%.7 7 7 7 7 7 7 %.%.%.%.%.%.%.%.%.%.%.%.",
"%.%.%.%.%.%.%.%.%.7 7 7 7 7 7 7 7 7 7 7 7 7 7 7 %.%.%.%.%.%.%.%.%.%.%.%.%.%.%.%.%.7 7 7 7 7 7 7 7 7 7 7 7 7 7 %.%.%.%.%.%.%.%.%.",
"%.%.%.%.%.%.%.%.%.7 7 7 7 7 7 7 7 7 7 7 7 7 7 7 %.%.%.%.%.%.%.%.%.%.%.%.%.%.%.%.%.7 7 7 7 7 7 7 7 7 7 7 7 7 7 7 %.%.%.%.%.%.%.%.",
"%.%.%.%.%.%.%.7 7 7 7 7 7 7 7 7 7 7 7 7 7 7 7 7 7 %.%.%.%.%.%.%.%.%.%.%.%.%.%.7 7 7 7 7 7 7 7 7 7 7 7 7 7 7 7 7 7 %.%.%.%.%.%.%.",
"%.%.%.%.%.%.%.7 7 7 7 7 7 7 7 7 7 7 7 7 7 7 7 7 7 %.%.%.%.%.%.%.%.%.%.%.%.%.%.7 7 7 7 7 7 7 7 7 7 7 7 7 7 7 7 7 7 %.%.%.%.%.%.%.",
"%.%.%.%.%.%.7 7 7 7 7 7 7 7 7 7 7 7 7 7 7 7 7 7 7 7 7 %.%.%.%.%.%.%.%.%.%.%.7 7 7 7 7 7 7 7 7 7 7 7 7 7 7 7 7 7 7 7 7 %.%.%.%.%.",
"%.%.%.%.%.%.7 7 7 M B B N 7 7 7 7 7 7 w B B B c 7 7 7 %.%.%.%.%.%.%.%.%.%.%.7 7 7 y p p i 7 7 7 7 7 7 8 p p p r 7 7 7 %.%.%.%.%.",
"%.%.%.%.%.%.8 7 9 ` o.o...9 7 7 7 7 7 t o.o.o.D 7 7 7 %.%.%.%.%.%.%.%.%.%.%.7 7 9 ) ~ ~  .9 7 7 7 7 7 u ~ ~ ~ S 7 7 7 %.%.%.%.%.",
"%.%.%.%.%.%.7 [ ( ! ~ ~ ~ Y b 7 7 k Y ( ~ ~ ~ W ..7 7 %.%.%.%.%.%.%.%.%.%.%.7 F H ..~ ~ Y J x 7 7 h K J ~ ~ ~ ' G 7 7 %.%.%.%.%.",
"%.%.%.%.%.%.7  .~ ~ ~ ~ ~ o.n 7 7 l o.~ ~ ~ ~ ~ Y 7 7 %.%.%.%.%.%.%.%.%.%.%.7  .~ ~ ~ ~ ~ o.n 7 7 l o.~ ~ ~ ~ ~ Y 7 7 %.%.%.%.%.",
"%.%.%.%.7 7 7  .~ ~ ~ ~ ~ o.n 7 7 l o.~ ~ ~ ~ ~ Y 7 7 7 %.%.%.%.%.%.%.%.%.7 7  .~ ~ ~ ~ ~ o.n 7 7 l o.~ ~ ~ ~ ~ Y 7 7 %.%.%.%.%.",
"%.%.%.%.7 7 7  .^ P A A L O.n 7 7 l o.E A A A I Y 7 7 7 7 %.%.%.%.%.%.%.7 7 7  .~ R U U U o.n 7 7 l o.~ U U U R Y 7 7 7 7 %.%.%.",
"%.%.%.%.7 7 7  .$.$     O +.n 7 7 l o.R       V Y 7 7 7 7 %.%.%.%.%.%.%.7 7 7  .$.%     + +.n 7 7 l o.R       V Y 7 7 7 7 %.%.%.",
"%.%.%.%.7 7 7 _ } &     @ | v 7 7 j { /       C ] 7 7 7 7 %.%.%.%.%.%.%.7 7 7 ..#.*     # @.m 7 7 z X.T       Z Q 7 7 7 7 %.%.%.",
"%.%.%.%.7 7 8 7 0 o     . 0 7 7 7 7 7 5       - 9 7 7 7 7 %.%.%.%.%.%.%.7 7 7 s g =     X g e 7 7 q f a       : d 7 7 7 7 %.%.%.",
"%.%.%.%.7 7 7 7 7 3 1 1 2 7 7 7 7 7 7 7 1 1 1 4 7 7 7 7 7 %.%.%.%.%.%.%.7 7 7 7 9 , ; ; > 9 7 7 7 7 7 6 ; ; ; < 7 7 7 7 7 %.%.%.",
"%.%.%.%.7 7 7 7 7 7 7 7 7 7 7 7 7 7 7 7 7 7 7 7 7 7 7 7 7 %.%.%.%.%.%.%.7 7 7 7 7 7 7 7 7 7 7 7 7 7 7 7 7 7 7 7 7 7 7 7 7 %.%.%.",
"%.%.%.%.7 7 7 7 7 7 7 7 7 7 7 7 7 7 7 7 7 7 7 7 7 7 7 7 7 %.%.%.%.%.%.%.7 7 7 7 7 7 7 7 7 7 7 7 7 7 7 7 7 7 7 7 7 7 7 7 7 %.%.%.",
"%.%.%.%.7 7 7 7 7 7 7 7 7 7 7 7 7 7 7 7 7 7 7 7 7 7 7 7 7 %.%.%.%.%.%.%.7 7 7 7 7 7 7 7 7 7 7 7 7 7 7 7 7 7 7 7 7 7 7 7 7 %.%.%.",
"%.%.%.%.7 7 7 7 7 7 7 7 7 7 7 7 7 7 7 7 7 7 7 7 7 7 7 7 7 %.%.%.%.%.%.%.7 7 7 7 7 7 7 7 7 7 7 7 7 7 7 7 7 7 7 7 7 7 7 7 7 %.%.%.",
"%.%.%.%.7 7 7 7 7 7 7 7 7 7 7 7 7 7 7 7 7 7 7 7 7 7 7 7 7 %.%.%.%.%.%.%.7 7 7 7 7 7 7 7 7 7 7 7 7 7 7 7 7 7 7 7 7 7 7 7 7 %.%.%.",
"%.%.%.%.7 7 7 7 7 7 7 %.7 7 7 7 7 7 7 7 %.7 7 7 7 7 7 7 7 %.%.%.%.%.%.%.7 7 %.%.%.7 7 7 7 7 %.%.%.%.7 7 7 7 7 7 %.%.7 7 7 %.%.%.",
"%.%.%.%.%.%.7 7 7 %.%.%.%.%.7 7 7 7 %.%.%.%.%.7 7 7 %.%.%.%.%.%.%.%.%.%.7 7 %.%.%.7 7 7 7 7 %.%.%.%.7 7 7 7 7 %.%.%.7 7 7 %.%.%.",
"%.%.%.%.%.%.7 7 7 %.%.%.%.%.7 7 7 7 %.%.%.%.%.%.7 7 %.%.%.%.%.%.%.%.%.%.7 %.%.%.%.%.%.7 7 7 %.%.%.%.7 7 7 %.%.%.%.%.%.7 7 %.%.%.",
"%.%.%.%.%.%.%.%.%.%.%.%.%.%.%.%.%.%.%.%.%.%.%.%.%.%.%.%.%.%.%.%.%.%.%.%.7 %.%.%.%.%.%.7 7 7 %.%.%.%.7 7 7 %.%.%.%.%.%.7 %.%.%.%.",
"%.%.%.%.%.%.%.%.%.%.%.%.%.%.%.%.%.%.%.%.%.%.%.%.%.%.%.%.%.%.%.%.%.%.%.%.%.%.%.%.%.%.%.%.%.%.%.%.%.%.%.%.%.%.%.%.%.%.%.%.%.%.%.%.",
"%.%.%.%.%.%.%.%.%.%.%.%.%.%.%.%.%.%.%.%.%.%.%.%.%.%.%.%.%.%.%.%.%.%.%.%.%.%.%.%.%.%.%.%.%.%.%.%.%.%.%.%.%.%.%.%.%.%.%.%.%.%.%.%.",
"%.%.%.%.%.%.%.%.%.%.%.%.%.%.%.%.%.%.%.%.%.%.%.%.%.%.%.%.%.%.%.%.%.%.%.%.%.%.%.%.%.%.%.%.%.%.%.%.%.%.%.%.%.%.%.%.%.%.%.%.%.%.%.%."
};
