/* XPM */
static char *ghost_right[] = {
/* columns rows colors chars-per-pixel */
"64 32 103 2 ",
"   c black",
".  c #272400",
"X  c #B9AE00",
"o  c #B9AF00",
"O  c #BFB500",
"+  c #BFB535",
"@  c #C1B600",
"#  c #C3B800",
"$  c #D0C500",
"%  c #E4D800",
"&  c #E5D800",
"*  c #E9DC00",
"=  c #F3E600",
"-  c #FAEC00",
";  c #FDEF00",
":  c #FFF100",
">  c #FFF101",
",  c #FFF116",
"<  c #FFF118",
"1  c #FEF124",
"2  c #FEF031",
"3  c #FEF033",
"4  c #FDF03B",
"5  c #FDF03C",
"6  c #B5AC4B",
"7  c #FCEF48",
"8  c #FCEF49",
"9  c #FCEF50",
"0  c #FBEF56",
"q  c #FBEE59",
"w  c #FBEE5B",
"e  c #FAEE5E",
"r  c #FAEE62",
"t  c #F7EC6D",
"y  c #F9ED6A",
"u  c #F9EE6A",
"i  c #F8ED6F",
"p  c #F7EC77",
"a  c #F8ED70",
"s  c #F8ED74",
"d  c gray55",
"f  c #8D8D8D",
"g  c #A2A19E",
"h  c #AAA99F",
"j  c #9F9FA1",
"k  c gray65",
"l  c #A7A7A7",
"z  c #A6A6A8",
"x  c gray",
"c  c #F3E98C",
"v  c #F4EA8C",
"b  c #F4EA8D",
"n  c #F3EA93",
"m  c #F2E996",
"M  c #F2E997",
"N  c #F1E99B",
"B  c #F1E99C",
"V  c #F0E89D",
"C  c #F1E99D",
"Z  c #F0E89E",
"A  c #EEE7A6",
"S  c #EFE8A2",
"D  c #EFE8A3",
"F  c #EFE8A4",
"G  c #EFE8A5",
"H  c #EEE7AA",
"J  c #EDE6AC",
"K  c #EDE6AE",
"L  c #ECE6AF",
"P  c #EBE5B3",
"I  c #EBE5B5",
"U  c #EAE5B7",
"Y  c #EAE5B8",
"T  c #EAE5B9",
"R  c #E9E4BA",
"E  c #E9E4BC",
"W  c #E9E4BD",
"Q  c #E8E4BE",
"!  c #E8E4BF",
"~  c gray77",
"^  c gray79",
"/  c #D5D5D5",
"(  c gray85",
")  c #DADADA",
"_  c gray86",
"`  c #DFDFDB",
"'  c #D9D9DC",
"]  c #DBDBDC",
"[  c #DDDDDD",
"{  c #DFDEDC",
"}  c gray87",
"|  c #DEDEDF",
" . c #DFDFDF",
".. c #E0DFD9",
"X. c #E6E2C7",
"o. c #E5E2C9",
"O. c #E5E2CB",
"+. c #E4E1CD",
"@. c #E2E0D3",
"#. c #E2E0D4",
"$. c #DDDEE0",
"%. c #DEDEE0",
"&. c None",
/* pixels */
"&.&.&.&.&.&.&.&.&.&.&.&.&.&.&.&.&.&.&.&.&.&.&.&.&.&.&.&.&.&.&.&.&.&.&.&.&.&.&.&.&.&.&.&.&.&.&.&.&.&.&.&.&.&.&.&.&.&.&.&.&.&.&.&.",
"&.&.&.&.&.&.&.&.&.&.&.&.&.&.&.&.&.&.&.&.&.&.&.&.&.&.&.&.&.&.&.&.&.&.&.&.&.&.&.&.&.&.&.&.&.&.&.&.&.&.&.&.&.&.&.&.&.&.&.&.&.&.&.&.",
"&.&.&.&.&.&.&.&.&.&.&.&.&.&.&.&.&.&.&.&.&.&.&.&.&.&.&.&.&.&.&.&.&.&.&.&.&.&.&.&.&.&.&.&.&.&.&.&.&.&.&.&.&.&.&.&.&.&.&.&.&.&.&.&.",
"&.&.&.&.&.&.&.&.&.&.&.&.&.: : : : : : : &.&.&.&.&.&.&.&.&.&.&.&.&.&.&.&.&.&.&.&.&.&.&.&.&.: : : : : : : &.&.&.&.&.&.&.&.&.&.&.&.",
"&.&.&.&.&.&.&.&.&.&.&.&.&.: : : : : : : &.&.&.&.&.&.&.&.&.&.&.&.&.&.&.&.&.&.&.&.&.&.&.&.&.: : : : : : : &.&.&.&.&.&.&.&.&.&.&.&.",
"&.&.&.&.&.&.&.&.&.: : : : : : : : : : : : : : : &.&.&.&.&.&.&.&.&.&.&.&.&.&.&.&.&.: : : : : : : : : : : : : : &.&.&.&.&.&.&.&.&.",
"&.&.&.&.&.&.&.&.&.: : : : : : : : : : : : : : : &.&.&.&.&.&.&.&.&.&.&.&.&.&.&.&.&.: : : : : : : : : : : : : : &.&.&.&.&.&.&.&.&.",
"&.&.&.&.&.&.&.: : : : : : : : : : : : : : : : : : &.&.&.&.&.&.&.&.&.&.&.&.&.&.: : : : : : : : : : : : : > : : : : &.&.&.&.&.&.&.",
"&.&.&.&.&.&.: : : : w Y U Y 0 : : : : : : M U U I : : &.&.&.&.&.&.&.&.&.&.&.: : : : p W E W 5 : : : : : : H E E I : : &.&.&.&.&.",
"&.&.&.&.&.&.: : : : a $.} $.y : : : : : : Y } } ` : : &.&.&.&.&.&.&.&.&.&.&.: : : : b | } $.7 : : : : : : o.} } @.: : &.&.&.&.&.",
"&.&.&.&.&.&.: : : v K | } | J V r : : , B O.} } { B C &.&.&.&.&.&.&.&.&.&.&.: : : N E } } | H G 9 : : 3 D #.} } ..S D &.&.&.&.&.",
"&.&.&.&.&.&.: : : X.} } } _ _ ] c : : 1 } } } [ _ ] ] &.&.&.&.&.&.&.&.&.&.&.: : : @.} } [ ) ) ' t : : 8 $.} } _ ) ) ) &.&.&.&.&.",
"&.&.&.&.&.&.: : : X.} } /       $ : : 1 } } } k       &.&.&.&.&.&.&.&.&.&.&.: : : @.} } ^       % : : 8 $.}  .d       &.&.&.&.&.",
"&.&.&.&.&.&.: : : X.} } /       $ : : 1 } } } l       &.&.&.&.&.&.&.&.&.&.&.: : : @.} } ^       & : : 8 $.}  .f       &.&.&.&.&.",
"&.&.&.&.: : : : : X.} } /       $ : : 1 } } } l       - &.&.&.&.&.&.&.: : : : : : #.} } ^       % : : 8 $.}  .f     . : &.&.&.&.",
"&.&.&.&.: : : : : n P | ( j 6 X * : : < F +.} ~ g o X ; : &.&.&.&.&.&.: : : : : : m T } / z + O = : : 2 Z @.} x h @ # : &.&.&.&.",
"&.&.&.&.: : : : : : i $.} %.u : : : : : : Y } } ` : : : : &.&.&.&.&.&.: : : : : : : b | } $.8 : : : : : : o.} } @.: : : &.&.&.&.",
"&.&.&.&.: : : : : : e Q W ! q : : : : : : C W W R : : : : &.&.&.&.&.&.: : : : : : : s Y Y T 4 : : : : : : A Y Y L : : : &.&.&.&.",
"&.&.&.&.: : : : : : : : : : : : : : : : : : : : : : : : : &.&.&.&.&.&.: : : : : : : : : : : : : : : : : > : : : : > : : &.&.&.&.",
"&.&.&.&.: : : : : : : : : : : : : : : : : : : : : : : : : &.&.&.&.&.&.: : : : : : : : : : : : : : : : : : : : : : : : : &.&.&.&.",
"&.&.&.&.: : : : : : : : : : : : : : : : : : : : : : : : : &.&.&.&.&.&.: : : : : : : : : : : : : : : : : : : : : : : : : &.&.&.&.",
"&.&.&.&.: : : : : : : : : : : : : : : : : : : : : : : : : &.&.&.&.&.&.: : : : : : : : : : : : : : : : : : : : : : : : : &.&.&.&.",
"&.&.&.&.: : : : : : : : : : : : : : : : : : : : : : : : : &.&.&.&.&.&.: : : : : : : : : : : : : : : : : : : : : : : : : &.&.&.&.",
"&.&.&.&.: : : : : : : : : : : : : : : : : : : : : : : : : &.&.&.&.&.&.: : : : : : : : : : : : : : : : : : : : : : : : : &.&.&.&.",
"&.&.&.&.: : : : : : : : : : : : : : : : : : : : : : : : : &.&.&.&.&.&.: : : : : : : : : : : : : : : : : : : : : : : : : &.&.&.&.",
"&.&.&.&.: : : : : : : &.: : : : : : : : &.: : : : : : : : &.&.&.&.&.&.: : : &.&.: : : : : : &.&.&.&.: : : : : &.&.&.: : &.&.&.&.",
"&.&.&.&.&.&.: : : &.&.&.&.&.: : : : &.&.&.&.&.: : : &.&.&.&.&.&.&.&.&.: : &.&.&.&.&.&.: : : &.&.&.&.: : : &.&.&.&.&.&.: &.&.&.&.",
"&.&.&.&.&.&.: : : &.&.&.&.&.: : : : &.&.&.&.&.&.: : &.&.&.&.&.&.&.&.&.: : &.&.&.&.&.&.: : : &.&.&.&.: : : &.&.&.&.&.&.: &.&.&.&.",
"&.&.&.&.&.&.&.&.&.&.&.&.&.&.&.&.&.&.&.&.&.&.&.&.&.&.&.&.&.&.&.&.&.&.&.&.&.&.&.&.&.&.&.&.&.&.&.&.&.&.&.&.&.&.&.&.&.&.&.&.&.&.&.&.",
"&.&.&.&.&.&.&.&.&.&.&.&.&.&.&.&.&.&.&.&.&.&.&.&.&.&.&.&.&.&.&.&.&.&.&.&.&.&.&.&.&.&.&.&.&.&.&.&.&.&.&.&.&.&.&.&.&.&.&.&.&.&.&.&.",
"&.&.&.&.&.&.&.&.&.&.&.&.&.&.&.&.&.&.&.&.&.&.&.&.&.&.&.&.&.&.&.&.&.&.&.&.&.&.&.&.&.&.&.&.&.&.&.&.&.&.&.&.&.&.&.&.&.&.&.&.&.&.&.&.",
"&.&.&.&.&.&.&.&.&.&.&.&.&.&.&.&.&.&.&.&.&.&.&.&.&.&.&.&.&.&.&.&.&.&.&.&.&.&.&.&.&.&.&.&.&.&.&.&.&.&.&.&.&.&.&.&.&.&.&.&.&.&.&.&."
};
