/* XPM */
static char *red_yellow_frames[] = {
/* columns rows colors chars-per-pixel */
"64 128 106 2 ",
"   c #000000",
".  c gray4",
"X  c #151515",
"o  c #272400",
"O  c gray14",
"+  c gray16",
"@  c #4C4700",
"#  c #544F00",
"$  c #534F0A",
"%  c #555000",
"&  c #5D5700",
"*  c #544F15",
"=  c #625D00",
"-  c #7D7600",
";  c #67611B",
":  c #4D4B3A",
">  c #434444",
",  c #4B4A43",
"<  c #484949",
"1  c #535353",
"2  c #5B5B56",
"3  c #5E5E5E",
"4  c #626262",
"5  c #6D6D6D",
"6  c #727168",
"7  c #6F7070",
"8  c #807914",
"9  c #A09700",
"0  c #A39A00",
"q  c #B5AB00",
"w  c #B9AE00",
"e  c #BCB200",
"r  c #B6AC21",
"t  c #BFB535",
"y  c #C1B600",
"u  c #C3B800",
"i  c #CDC100",
"p  c #D0C500",
"a  c #DFD200",
"s  c #E5D900",
"d  c #EADD00",
"f  c #EFE200",
"g  c #F3E600",
"h  c #F7E900",
"j  c #FCEE00",
"k  c #FFF100",
"l  c #FFF10C",
"z  c #FFF115",
"x  c #FFF11C",
"c  c #FEF124",
"v  c #FEF02B",
"b  c #FBEE32",
"n  c #FEF132",
"m  c #FDF03D",
"M  c #B3AB4C",
"N  c #EBDF48",
"B  c #FCEF47",
"V  c #FCEF4D",
"C  c #FDF043",
"Z  c #FEF14F",
"A  c #FBEF54",
"S  c #FBEE5B",
"D  c #FEF152",
"F  c #FAEE63",
"G  c #F7EC6D",
"H  c #F9ED6B",
"J  c #F7EC77",
"K  c #F8ED72",
"L  c #F7EC7A",
"P  c #838383",
"I  c #8D8D8D",
"U  c gray62",
"Y  c #A3A194",
"T  c #A2A19E",
"R  c #AAA99F",
"E  c #9F9FA1",
"W  c #A7A7A7",
"Q  c #A6A6A8",
"!  c gray66",
"~  c #BEBEBE",
"^  c #DAD49C",
"/  c #F5EB83",
"(  c #F4EA8B",
")  c #F2E995",
"_  c #F1E99C",
"`  c #EEE7A7",
"'  c #EFE8A4",
"]  c #EDE7AC",
"[  c #EAE5B6",
"{  c #EAE5BA",
"}  c #C3C3C3",
"|  c #CCCCCC",
" . c #D2D1C6",
".. c #CECFD1",
"X. c #D4D4D4",
"o. c #DEDEDD",
"O. c #E1DECD",
"+. c #E1DFD7",
"@. c #E0DFD9",
"#. c #E6E2C6",
"$. c #E4E2CB",
"%. c #E2E0D4",
"&. c #DDDEE0",
"*. c #DFE0E2",
"=. c #E0E0E0",
"-. c None",
/* pixels */
"-.-.-.-.-.-.-.-.-.-.-.-.-.-.-.-.-.-.-.-.-.-.-.-.-.-.-.-.-.-.-.-.-.-.-.-.-.-.-.-.-.-.-.-.-.-.-.-.-.-.-.-.-.-.-.-.-.-.-.-.-.-.-.-.",
"-.-.-.-.-.-.-.-.-.-.-.-.-.-.-.-.-.-.-.-.-.-.-.-.-.-.-.-.-.-.-.-.-.-.-.-.-.-.-.-.-.-.-.-.-.-.-.-.-.-.-.-.-.-.-.-.-.-.-.-.-.-.-.-.",
"-.-.-.-.-.-.-.-.-.-.-.-.-.-.-.-.-.-.-.-.-.-.-.-.-.-.-.-.-.-.-.-.-.-.-.-.-.-.-.-.-.-.-.-.-.-.-.-.-.-.-.-.-.-.-.-.-.-.-.-.-.-.-.-.",
"-.-.-.-.-.-.-.-.-.-.-.-.-.k k k k k k k -.-.-.-.-.-.-.-.-.-.-.-.-.-.-.-.-.-.-.-.-.-.-.-.-.k k k k k k k -.-.-.-.-.-.-.-.-.-.-.-.",
"-.-.-.-.-.-.-.-.-.-.-.-.-.k k k k k k k -.-.-.-.-.-.-.-.-.-.-.-.-.-.-.-.-.-.-.-.-.-.-.-.-.k k k k k k k -.-.-.-.-.-.-.-.-.-.-.-.",
"-.-.-.-.-.-.-.-.-.k k k k k k k k k k k k k k k -.-.-.-.-.-.-.-.-.-.-.-.-.-.-.-.-.k k k k k k k k k k k k k k -.-.-.-.-.-.-.-.-.",
"-.-.-.-.-.-.-.-.-.k k k k k k k k k k k k k k k -.-.-.-.-.-.-.-.-.-.-.-.-.-.-.-.-.k k k k k k k k k k k k k k -.-.-.-.-.-.-.-.-.",
"-.-.-.-.-.-.-.k k k k k k k k k k k k k k k k k k -.-.-.-.-.-.-.-.-.-.-.-.-.-.k k k k k k k k k k k k k k k k k k -.-.-.-.-.-.-.",
"-.-.-.-.-.-.k k k k S { [ { A j k k k k k ) [ { [ k k -.-.-.-.-.-.-.-.-.-.-.k k j j L { { { m k k k k k k ] { { [ k k -.-.-.-.-.",
"-.-.-.-.-.-.k k k k K o.o.o.G j k k k k k { o.o.o.k k -.-.-.-.-.-.-.-.-.-.-.k k k j ( o.&.&.B j k k k k j #.o.o.%.k k -.-.-.-.-.",
"-.-.-.-.-.-.k k k ( ] o.o.o.] _ F k k z _ #.o.o.@._ _ -.-.-.-.-.-.-.-.-.-.-.k k k _ { o.o.&.] ' A k k n ' +.o.o.o.' ' -.-.-.-.-.",
"-.-.-.-.-.-.k k k #.o.o.o.o.o.o.( k k c o.&.o.o.o.o.o.-.-.-.-.-.-.-.-.-.-.-.k k k %.o.o.o.o.o.o.G k k B &.o.o.o.X.o.o.-.-.-.-.-.",
"-.-.-.-.-.-.k k k #.o.&.X.      p k k c o.o.o.W       -.-.-.-.-.-.-.-.-.-.-.k k k %.o.o.}       s k k B &.&.=.I       -.-.-.-.-.",
"-.-.-.-.-.-.k k k #.o.o.X.      p k k c o.o.&.!       -.-.-.-.-.-.-.-.-.-.-.k k k +.o.o.|       s k k B &.o.&.I       -.-.-.-.-.",
"-.-.-.-.k k k k k #.&.o.X.      p k k c o.&.o.!       j -.-.-.-.-.-.-.k k k k k k %.o.o.|       s k k B &.&.@.I     o k -.-.-.-.",
"-.-.-.-.k k k k k ) [ &.o.E M w d k k z ' $.o.} T w w j k -.-.-.-.-.-.k k k k k k ) { o.X.! t e g k k b _ %.&.~ R y u k -.-.-.-.",
"-.-.-.-.k k k k k k G o.o.&.H k k k k k k { o.&.o.k k k k -.-.-.-.-.-.k k k k k k k ( &.o.&.B k k k k k k #.o.o.%.k k k -.-.-.-.",
"-.-.-.-.k k k k k k S #.{ { S k k k k k k ' { { { k k k k -.-.-.-.-.-.k k k k k k k K { { { m k k k k k k ` { { ] k k k -.-.-.-.",
"-.-.-.-.k k k k k k k k k k k k k k k k k k k k k k k k k -.-.-.-.-.-.k k k k k k k k k k k k k k k k k k k k k k k k k -.-.-.-.",
"-.-.-.-.k k k k k k k k k k k k k k k k k k k k k k k k k -.-.-.-.-.-.k k k k k k k k k k k k k k k k k k k k k k k k k -.-.-.-.",
"-.-.-.-.k k k k k k k k k k k k k k k k k k k k k k k k k -.-.-.-.-.-.k k k k k k k k k k k k k k k k k k k k k k k k k -.-.-.-.",
"-.-.-.-.k k k k k k k k k k k k k k k k k k k k k k k k k -.-.-.-.-.-.k k k k k k k k k k k k k k k k k k k k k k k k k -.-.-.-.",
"-.-.-.-.k k k k k k k k k k k k k k k k k k k k k k k k k -.-.-.-.-.-.k k k k k k k k k k k k k k k k k k k k k k k k k -.-.-.-.",
"-.-.-.-.k k k k k k k k k k k k k k k k k k k k k k k k k -.-.-.-.-.-.k k k k k k k k k k k k k k k k k k k k k k k k k -.-.-.-.",
"-.-.-.-.k k k k k k k k k k k k k k k k k k k k k k k k k -.-.-.-.-.-.k k k k k k k k k k k k k k k k k k k k k k k k k -.-.-.-.",
"-.-.-.-.k k k k k k k -.k k k k k k k k -.k k k k k k k k -.-.-.-.-.-.k k k -.-.k k k k k k -.-.-.-.k k k k k -.-.-.k k -.-.-.-.",
"-.-.-.-.-.-.k k k -.-.-.-.-.k k k k -.-.-.-.-.k k k -.-.-.-.-.-.-.-.-.k k -.-.-.-.-.-.k k k -.-.-.-.k k k -.-.-.-.-.-.k -.-.-.-.",
"-.-.-.-.-.-.k k k -.-.-.-.-.k k k k -.-.-.-.-.-.k k -.-.-.-.-.-.-.-.-.k k -.-.-.-.-.-.k k k -.-.-.-.k k k -.-.-.-.-.-.k -.-.-.-.",
"-.-.-.-.-.-.-.-.-.-.-.-.-.-.-.-.-.-.-.-.-.-.-.-.-.-.-.-.-.-.-.-.-.-.-.-.-.-.-.-.-.-.-.-.-.-.-.-.-.-.-.-.-.-.-.-.-.-.-.-.-.-.-.-.",
"-.-.-.-.-.-.-.-.-.-.-.-.-.-.-.-.-.-.-.-.-.-.-.-.-.-.-.-.-.-.-.-.-.-.-.-.-.-.-.-.-.-.-.-.-.-.-.-.-.-.-.-.-.-.-.-.-.-.-.-.-.-.-.-.",
"-.-.-.-.-.-.-.-.-.-.-.-.-.-.-.-.-.-.-.-.-.-.-.-.-.-.-.-.-.-.-.-.-.-.-.-.-.-.-.-.-.-.-.-.-.-.-.-.-.-.-.-.-.-.-.-.-.-.-.-.-.-.-.-.",
"-.-.-.-.-.-.-.-.-.-.-.-.-.-.-.-.-.-.-.-.-.-.-.-.-.-.-.-.-.-.-.-.-.-.-.-.-.-.-.-.-.-.-.-.-.-.-.-.-.-.-.-.-.-.-.-.-.-.-.-.-.-.-.-.",
"-.-.-.-.-.-.-.-.-.-.-.-.-.-.-.-.-.-.-.-.-.-.-.-.-.-.-.-.-.-.-.-.-.-.-.-.-.-.-.-.-.-.-.-.-.-.-.-.-.-.-.-.-.-.-.-.-.-.-.-.-.-.-.-.",
"-.-.-.-.-.-.-.-.-.-.-.-.-.-.-.-.-.-.-.-.-.-.-.-.-.-.-.-.-.-.-.-.-.-.-.-.-.-.-.-.-.-.-.-.-.-.-.-.-.-.-.-.-.-.-.-.-.-.-.-.-.-.-.-.",
"-.-.-.-.-.-.-.-.-.-.-.-.-.-.-.-.-.-.-.-.-.-.-.-.-.-.-.-.-.-.-.-.-.-.-.-.-.-.-.-.-.-.-.-.-.-.-.-.-.-.-.-.-.-.-.-.-.-.-.-.-.-.-.-.",
"-.-.-.-.-.-.-.-.-.-.-.-.-.-.-.-.-.-.-.-.-.-.-.-.-.-.-.-.-.-.-.-.-.-.-.-.-.-.-.-.-.-.-.-.-.k k k k k k k -.-.-.-.-.-.-.-.-.-.-.-.",
"-.-.-.-.-.-.-.-.-.-.-.-.-.k k k k k k k -.-.-.-.-.-.-.-.-.-.-.-.-.-.-.-.-.-.-.-.-.-.-.-.-.k k k k k k k -.-.-.-.-.-.-.-.-.-.-.-.",
"-.-.-.-.-.-.-.-.-.k k k k k k k k k k k k k k -.-.-.-.-.-.-.-.-.-.-.-.-.-.-.-.-.-.k k k k k k k k k k k k k k k -.-.-.-.-.-.-.-.",
"-.-.-.-.-.-.-.-.-.k k k k k k k k k k k k k k k -.-.-.-.-.-.-.-.-.-.-.-.-.-.-.-.-.k k k k k k k k k k k k k k k -.-.-.-.-.-.-.-.",
"-.-.-.-.-.-.-.k k k k k k k k k k k k k k k k k k -.-.-.-.-.-.-.-.-.-.-.-.-.-.k k k k k k k k k k k k k k k k k k -.-.-.-.-.-.-.",
"-.-.-.-.-.-.-.L L L G k k k k k k c L L L V k k k -.-.-.-.-.-.-.-.-.-.-.-.-.k $.@.@.#.k k k k k k V o.+.@./ k k k k k -.-.-.-.-.",
"-.-.-.-.-.-.k %.&.&.#.k k k k k k Z &.&.&.( k k k k k -.-.-.-.-.-.-.-.-.-.-.k +.o.o.#.k k k k k k B o.o.&./ k k k k k -.-.-.-.-.",
"-.-.-.-.-.-.A %.&.o.#.D A k k k C K &.*.o.) A m k k k -.-.-.-.-.-.-.-.-.-.-.$.o.o.o.o.$.#.k k k ` O.o.o.&.%.$._ k k k -.-.-.-.-.",
"-.-.-.-.-.-.=.&.=.o.&.&.+.k k k { =.=.=.o.&.&.] k k k -.-.-.-.-.-.-.-.-.-.-.~ } ~ o.o.o.+.k k k ^ } ~ } o.o.o.] k k k -.-.-.-.-.",
"-.-.-.-.-.-.3 4 2 | o.o.%.k k k M 3 3 4 o.o.*.` k k k -.-.-.-.-.-.-.-.-.-.-.      } o.o.%.k k k 0     X o.o.o.` k k k -.-.-.-.-.",
"-.-.-.-.-.-.      | o.o.%.k k k 0     O o.o.o.` k k k -.-.-.-.-.-.-.-.-.-.-.      | o.o.%.k k k 0     O o.o.o.` k k k -.-.-.-.-.",
"-.-.-.-.k a       } o.o.%.k k k 0     O *.o.o.' k k k k -.-.-.-.-.-.-.-.k s       } o.&.+.k k k 9     . o.&.&.] k k k k k -.-.-.",
"-.-.-.-.k f = 2 1 | @.%.#.k k k q ; 2 4 o.%.%._ k k k k k -.-.-.-.-.-.-.k j f  ...o.$.D S k k k g N X...o._ S C k k k k k -.-.-.",
"-.-.-.-.k k k %.=.o.#.k k k k k k D *.=.o./ k k k k k k k -.-.-.-.-.-.-.k k k %.o.&.#.k k k k k k A o.o.&.( k k k k k k k -.-.-.",
"-.-.-.-.k k k %.o.%.#.k k k k k k Z o.@.o./ k k k k k k k -.-.-.-.-.-.-.k k k L / / K k k k k k k v / / / V k k k k k k k -.-.-.",
"-.-.-.-.k k k k k k k k k k k k k k k k k k k k k k k k k -.-.-.-.-.-.-.k k k k k k k k k k k k k k k k k k k k k k k k k -.-.-.",
"-.-.-.-.k k k k k k k k k k k k k k k k k k k k k k k k k -.-.-.-.-.-.-.k k k k k k k k k k k k k k k k k k k k k k k k k -.-.-.",
"-.-.-.-.k k k k k k k k k k k k k k k k k k k k k k k k k -.-.-.-.-.-.-.k k k k k k k k k k k k k k k k k k k k k k k k k -.-.-.",
"-.-.-.-.k k k k k k k k k k k k k k k k k k k k k k k k k -.-.-.-.-.-.-.k k k k k k k k k k k k k k k k k k k k k k k k k -.-.-.",
"-.-.-.-.k k k k k k k k k k k k k k k k k k k k k k k k k -.-.-.-.-.-.-.k k k k k k k k k k k k k k k k k k k k k k k k k -.-.-.",
"-.-.-.-.k k k k k k k k k k k k k k k k k k k k k k k k k -.-.-.-.-.-.-.k k k k k k k k k k k k k k k k k k k k k k k k k -.-.-.",
"-.-.-.-.k k k k k k k k k k k k k k k k k k k k k k k k k -.-.-.-.-.-.-.k k k -.k k k k k k k -.-.k k k k k k k -.k k k k -.-.-.",
"-.-.-.-.k k k k k k k -.k k k k k k k k -.k k k k k k k k -.-.-.-.-.-.-.k k -.-.-.k k k k k -.-.-.-.k k k k k -.-.-.k k k -.-.-.",
"-.-.-.-.-.k k k k -.-.-.-.-.k k k k -.-.-.-.-.k k k k -.-.-.-.-.-.-.-.-.k -.-.-.-.-.-.k k k -.-.-.-.k k k -.-.-.-.-.-.k k -.-.-.",
"-.-.-.-.-.-.k k k -.-.-.-.-.k k k k -.-.-.-.-.-.k k -.-.-.-.-.-.-.-.-.-.k -.-.-.-.-.-.k k k -.-.-.-.k k k -.-.-.-.-.-.k k -.-.-.",
"-.-.-.-.-.-.k k -.-.-.-.-.-.k k k k -.-.-.-.-.-.k k -.-.-.-.-.-.-.-.-.-.-.-.-.-.-.-.-.-.-.-.-.-.-.-.-.-.-.-.-.-.-.-.-.-.-.-.-.-.",
"-.-.-.-.-.-.-.-.-.-.-.-.-.-.-.-.-.-.-.-.-.-.-.-.-.-.-.-.-.-.-.-.-.-.-.-.-.-.-.-.-.-.-.-.-.-.-.-.-.-.-.-.-.-.-.-.-.-.-.-.-.-.-.-.",
"-.-.-.-.-.-.-.-.-.-.-.-.-.-.-.-.-.-.-.-.-.-.-.-.-.-.-.-.-.-.-.-.-.-.-.-.-.-.-.-.-.-.-.-.-.-.-.-.-.-.-.-.-.-.-.-.-.-.-.-.-.-.-.-.",
"-.-.-.-.-.-.-.-.-.-.-.-.-.-.-.-.-.-.-.-.-.-.-.-.-.-.-.-.-.-.-.-.-.-.-.-.-.-.-.-.-.-.-.-.-.-.-.-.-.-.-.-.-.-.-.-.-.-.-.-.-.-.-.-.",
"-.-.-.-.-.-.-.-.-.-.-.-.-.-.-.-.-.-.-.-.-.-.-.-.-.-.-.-.-.-.-.-.-.-.-.-.-.-.-.-.-.-.-.-.-.-.-.-.-.-.-.-.-.-.-.-.-.-.-.-.-.-.-.-.",
"-.-.-.-.-.-.-.-.-.-.-.-.-.-.-.-.-.-.-.-.-.-.-.-.-.-.-.-.-.-.-.-.-.-.-.-.-.-.-.-.-.-.-.-.-.-.-.-.-.-.-.-.-.-.-.-.-.-.-.-.-.-.-.-.",
"-.-.-.-.-.-.-.-.-.-.-.-.-.-.-.-.-.-.-.-.-.-.-.-.-.-.-.-.-.-.-.-.-.-.-.-.-.-.-.-.-.-.-.-.-.-.-.-.-.-.-.-.-.-.-.-.-.-.-.-.-.-.-.-.",
"-.-.-.-.-.-.-.-.-.-.-.-.-.-.-.-.-.-.-.-.-.-.-.-.-.-.-.-.-.-.-.-.-.-.-.-.-.-.-.-.-.-.-.-.-.-.-.-.-.-.-.-.-.-.-.-.-.-.-.-.-.-.-.-.",
"-.-.-.-.-.-.-.-.-.-.-.-.-.k k k k k k k -.-.-.-.-.-.-.-.-.-.-.-.-.-.-.-.-.-.-.-.-.-.-.-.-.k k k k k k k -.-.-.-.-.-.-.-.-.-.-.-.",
"-.-.-.-.-.-.-.-.-.k k k k k k k k k k k k k k k -.-.-.-.-.-.-.-.-.-.-.-.-.-.-.-.-.k k k k k k k k k k k k k k -.-.-.-.-.-.-.-.-.",
"-.-.-.-.-.-.-.-.-.k k k k k k k k k k k k k k k -.-.-.-.-.-.-.-.-.-.-.-.-.-.-.-.-.k k k k k k k k k k k k k k k -.-.-.-.-.-.-.-.",
"-.-.-.-.-.-.-.k k k k k k k k k k k k k k k k k k -.-.-.-.-.-.-.-.-.-.-.-.-.-.k k k k k k k k k k k k k k k k k k -.-.-.-.-.-.-.",
"-.-.-.-.-.-.-.k k k k k k k k k k k k k k k k k k -.-.-.-.-.-.-.-.-.-.-.-.-.-.k k k k k k k k k k k k k k k k k k -.-.-.-.-.-.-.",
"-.-.-.-.-.-.k k k k k k k k k k k k k k k k k k k k k -.-.-.-.-.-.-.-.-.-.-.k k k k k k k k k k k k k k k k k k k k k -.-.-.-.-.",
"-.-.-.-.-.-.k k k K L L J k k k k k k z L L L S k k k -.-.-.-.-.-.-.-.-.-.-.k k k z c x x k k k k k k k x c c z k k k -.-.-.-.-.",
"-.-.-.-.-.-.k k k #.&.&.%.k k k k k k x &.&.&.' k k k -.-.-.-.-.-.-.-.-.-.-.k k k #.o.&.%.k k k k k k z o.o.o.' k k k -.-.-.-.-.",
"-.-.-.-.-.-.k %.%.&.*.o.o.o.H k k V o.%.&.&.o.o.%.k k -.-.-.-.-.-.-.-.-.-.-.k [ [ %.&.o.o.{ A k k m { { o.o.o.$.[ k k -.-.-.-.-.",
"-.-.-.-.-.-.k %.o.o.o.o.o.o.H k k D &.o.o.o.o.o.o.k k -.-.-.-.-.-.-.-.-.-.-.k %.o.o.o.o.o.&.H k k Z o.o.o.o.o.*.@.k k -.-.-.-.-.",
"-.-.-.-.k k k %.o.o.o.o.o.&.H k k V &.o.o.o.o.o.%.k k k -.-.-.-.-.-.-.-.-.k k %.&.o.o.o.o.o.H k k Z &.o.o.o.o.o.o.k k -.-.-.-.-.",
"-.-.-.-.k k k %.o.} ~ ~ } &.H k k V o.o.~ ~ ~ ..o.k k k k -.-.-.-.-.-.-.k k k %.o.o.X.o.o.o.H k k V &.o.X.o.o.o.@.k k k k -.-.-.",
"-.-.-.-.k k k %.=.7     > =.H k k A &.o.      U o.k k k k -.-.-.-.-.-.-.k k k %.*.7     < &.H k k A o.o.      U o.k k k k -.-.-.",
"-.-.-.-.k k k #.%.6     , %.F k k C %.O.      Y #.k k k k -.-.-.-.-.-.-.k k k %.*.7     < *.G k k V &.o.      E o.k k k k -.-.-.",
"-.-.-.-.k k k k k -     @ k k k k k k k       q k k k k k -.-.-.-.-.-.-.k k k n n 8     $ n z k k l b b       r n k k k k -.-.-.",
"-.-.-.-.k k k k k g f f g k k k k k k k f f f h k k k k k -.-.-.-.-.-.-.k k k k k i e e u k k k k k k k e e e a k k k k k -.-.-.",
"-.-.-.-.k k k k k k k k k k k k k k k k k k k k k k k k k -.-.-.-.-.-.-.k k k k k k k k k k k k k k k k k k k k k k k k k -.-.-.",
"-.-.-.-.k k k k k k k k k k k k k k k k k k k k k k k k k -.-.-.-.-.-.-.k k k k k k k k k k k k k k k k k k k k k k k k k -.-.-.",
"-.-.-.-.k k k k k k k k k k k k k k k k k k k k k k k k k -.-.-.-.-.-.-.k k k k k k k k k k k k k k k k k k k k k k k k k -.-.-.",
"-.-.-.-.k k k k k k k k k k k k k k k k k k k k k k k k k -.-.-.-.-.-.-.k k k k k k k k k k k k k k k k k k k k k k k k k -.-.-.",
"-.-.-.-.k k k k k k k k k k k k k k k k k k k k k k k k k -.-.-.-.-.-.-.k k k k k k k k k k k k k k k k k k k k k k k k k -.-.-.",
"-.-.-.-.k k k k k k k -.k k k k k k k k -.k k k k k k k k -.-.-.-.-.-.-.k k -.-.-.k k k k k -.-.-.-.k k k k k k -.-.k k k -.-.-.",
"-.-.-.-.-.-.k k k -.-.-.-.-.k k k k -.-.-.-.-.k k k -.-.-.-.-.-.-.-.-.-.k k -.-.-.k k k k k -.-.-.-.k k k k k -.-.-.k k k -.-.-.",
"-.-.-.-.-.-.k k k -.-.-.-.-.k k k k -.-.-.-.-.-.k k -.-.-.-.-.-.-.-.-.-.k -.-.-.-.-.-.k k k -.-.-.-.k k k -.-.-.-.-.-.k k -.-.-.",
"-.-.-.-.-.-.-.-.-.-.-.-.-.-.-.-.-.-.-.-.-.-.-.-.-.-.-.-.-.-.-.-.-.-.-.-.k -.-.-.-.-.-.k k k -.-.-.-.k k k -.-.-.-.-.-.k -.-.-.-.",
"-.-.-.-.-.-.-.-.-.-.-.-.-.-.-.-.-.-.-.-.-.-.-.-.-.-.-.-.-.-.-.-.-.-.-.-.-.-.-.-.-.-.-.-.-.-.-.-.-.-.-.-.-.-.-.-.-.-.-.-.-.-.-.-.",
"-.-.-.-.-.-.-.-.-.-.-.-.-.-.-.-.-.-.-.-.-.-.-.-.-.-.-.-.-.-.-.-.-.-.-.-.-.-.-.-.-.-.-.-.-.-.-.-.-.-.-.-.-.-.-.-.-.-.-.-.-.-.-.-.",
"-.-.-.-.-.-.-.-.-.-.-.-.-.-.-.-.-.-.-.-.-.-.-.-.-.-.-.-.-.-.-.-.-.-.-.-.-.-.-.-.-.-.-.-.-.-.-.-.-.-.-.-.-.-.-.-.-.-.-.-.-.-.-.-.",
"-.-.-.-.-.-.-.-.-.-.-.-.-.-.-.-.-.-.-.-.-.-.-.-.-.-.-.-.-.-.-.-.-.-.-.-.-.-.-.-.-.-.-.-.-.-.-.-.-.-.-.-.-.-.-.-.-.-.-.-.-.-.-.-.",
"-.-.-.-.-.-.-.-.-.-.-.-.-.-.-.-.-.-.-.-.-.-.-.-.-.-.-.-.-.-.-.-.-.-.-.-.-.-.-.-.-.-.-.-.-.-.-.-.-.-.-.-.-.-.-.-.-.-.-.-.-.-.-.-.",
"-.-.-.-.-.-.-.-.-.-.-.-.-.-.-.-.-.-.-.-.-.-.-.-.-.-.-.-.-.-.-.-.-.-.-.-.-.-.-.-.-.-.-.-.-.-.-.-.-.-.-.-.-.-.-.-.-.-.-.-.-.-.-.-.",
"-.-.-.-.-.-.-.-.-.-.-.-.-.-.-.-.-.-.-.-.-.-.-.-.-.-.-.-.-.-.-.-.-.-.-.-.-.-.-.-.-.-.-.-.-.k k k k k k k -.-.-.-.-.-.-.-.-.-.-.-.",
"-.-.-.-.-.-.-.-.-.-.-.-.-.k k k k k k k -.-.-.-.-.-.-.-.-.-.-.-.-.-.-.-.-.-.-.-.-.-.-.-.-.k k k k k k j -.-.-.-.-.-.-.-.-.-.-.-.",
"-.-.-.-.-.-.-.-.-.      & k k k k k k k       -.-.-.-.-.-.-.-.-.-.-.-.-.-.-.-.-.-.      % k k k k k k h         -.-.-.-.-.-.-.-.",
"-.-.-.-.-.-.-.-.-.      % k k k k k k j         -.-.-.-.-.-.-.-.-.-.-.-.-.-.-.-.-.+     * D c k k z A V       < -.-.-.-.-.-.-.-.",
"-.-.-.-.-.-.-.o.=.4     : { A k k m { [       I o.-.-.-.-.-.-.-.-.-.-.-.-.-.-.&.=.7     > &.G k k A &.o.      U &.-.-.-.-.-.-.-.",
"-.-.-.-.-.-.-.o.=.P 1 1 5 &.H k j V &.o.1 1 1 ! o.-.-.-.-.-.-.-.-.-.-.-.-.-.k %.o...| ..| &.H k k V &.o.| | | X.%.k k -.-.-.-.-.",
"-.-.-.-.-.-.k %.o.=.%.*.=.&.H j k V o.&.&.=.=.%.o.k k -.-.-.-.-.-.-.-.-.-.-.k %.o.&.o.@.&.o.H k k V &.o.o.o.o.&.%.l k -.-.-.-.-.",
"-.-.-.-.-.-.k %.o.o.&.&.o.&.H k k A &.o.&.&.o.&.%.k k -.-.-.-.-.-.-.-.-.-.-.k %.o.o.o.o.@.&.H k k V &.o.&.o.&.&.o.k k -.-.-.-.-.",
"-.-.-.-.-.-.k %.*.o.&.&.o.&.H k k V &.o.&.=.o.&.o.k k -.-.-.-.-.-.-.-.-.-.-.k #.%.@.o.&.o.%.F k k B %.%.o.o.o.%.$.k k -.-.-.-.-.",
"-.-.-.-.-.-.k / / $.&.o.%./ m k k v / ( &.o.o.{ / k k -.-.-.-.-.-.-.-.-.-.-.k k k #.o.o.%.k k k k k k l o.o.o.' k k k -.-.-.-.-.",
"-.-.-.-.-.-.k k k #.o.o.%.k k k k k k c o.&.o.` k k k -.-.-.-.-.-.-.-.-.-.-.k k k #.o.%.+.k k k k k k c %.o.o.' k k k -.-.-.-.-.",
"-.-.-.-.k k k k k ) ' ' ' k k k k k k z ' ' ' L k k k k -.-.-.-.-.-.-.-.k k k k k k k k k k k k k k k k k k k k k k k k k -.-.-.",
"-.-.-.-.k k k k k k k k k k k k k k k k k k k k k k k k k -.-.-.-.-.-.-.k k k k k k k k k k k k k k k k k k k k k k k k k -.-.-.",
"-.-.-.-.k k k k k k k k k k k k k k k k k k k k k k k k k -.-.-.-.-.-.-.k k k k k k k k k k k k k k k k k k k k k k k k k -.-.-.",
"-.-.-.-.k k k k k k k k k k k k k k k k k k k k k k k k k -.-.-.-.-.-.-.k k k k k k k k k k k k k k k k k k k k k k k k k -.-.-.",
"-.-.-.-.k k k k k k k k k k k k k k k k k k k k k k k k k -.-.-.-.-.-.-.k k k k k k k k k k k k k k k k k k k k k k k k k -.-.-.",
"-.-.-.-.k k k k k k k k k k k k k k k k k k k k k k k k k -.-.-.-.-.-.-.k k k k k k k k k k k k k k k k k k k k k k k k k -.-.-.",
"-.-.-.-.k k k k k k k k k k k k k k k k k k k k k k k k k -.-.-.-.-.-.-.k k k k k k k k k k k k k k k k k k k k k k k k k -.-.-.",
"-.-.-.-.k k k k k k k k k k k k k k k k k k k k k k k k k -.-.-.-.-.-.-.k k k k k k k k k k k k k k k k k k k k k k k k k -.-.-.",
"-.-.-.-.k k k k k k k k k k k k k k k k k k k k k k k k k -.-.-.-.-.-.-.k k k k k k k k k k k k k k k k k k k k k k k k k -.-.-.",
"-.-.-.-.k k k k k k k k k k k k k k k k k k k k k k k k k -.-.-.-.-.-.-.k k k k k k k k k k k k k k k k k k k k k k k k k -.-.-.",
"-.-.-.-.k k k k k k k k k k k k k k k k k k k k k k k k k -.-.-.-.-.-.-.k k k k k k k k k k k k k k k k k k k k k k k k k -.-.-.",
"-.-.-.-.k k k k k k k -.k k k k k k k k -.k k k k k k k k -.-.-.-.-.-.-.k k -.-.-.k k k k k -.-.-.-.k k k k k k -.-.k k k -.-.-.",
"-.-.-.-.k k k k k k k -.k k k k k k k k -.-.k k k k k k -.-.-.-.-.-.-.-.k -.-.-.-.-.-.k k k -.-.-.-.k k k -.-.-.-.-.-.k k -.-.-.",
"-.-.-.-.-.-.k k k -.-.-.-.-.k k k k -.-.-.-.-.-.k k -.-.-.-.-.-.-.-.-.-.k -.-.-.-.-.-.k k k -.-.-.-.k k k -.-.-.-.-.-.k k -.-.-.",
"-.-.-.-.-.-.k k -.-.-.-.-.-.k k k k -.-.-.-.-.-.k k -.-.-.-.-.-.-.-.-.-.-.-.-.-.-.-.-.-.-.-.-.-.-.-.-.-.-.-.-.-.-.-.-.-.-.-.-.-.",
"-.-.-.-.-.-.-.-.-.-.-.-.-.-.-.-.-.-.-.-.-.-.-.-.-.-.-.-.-.-.-.-.-.-.-.-.-.-.-.-.-.-.-.-.-.-.-.-.-.-.-.-.-.-.-.-.-.-.-.-.-.-.-.-.",
"-.-.-.-.-.-.-.-.-.-.-.-.-.-.-.-.-.-.-.-.-.-.-.-.-.-.-.-.-.-.-.-.-.-.-.-.-.-.-.-.-.-.-.-.-.-.-.-.-.-.-.-.-.-.-.-.-.-.-.-.-.-.-.-.",
"-.-.-.-.-.-.-.-.-.-.-.-.-.-.-.-.-.-.-.-.-.-.-.-.-.-.-.-.-.-.-.-.-.-.-.-.-.-.-.-.-.-.-.-.-.-.-.-.-.-.-.-.-.-.-.-.-.-.-.-.-.-.-.-."
};
