/* XPM */
static char *ghost_left[] = {
/* columns rows colors chars-per-pixel */
"64 32 143 2 ",
"   c black",
".  c #000001",
"X  c #161616",
"o  c #1E1E1E",
"O  c #24211F",
"+  c gray14",
"@  c gray17",
"#  c #2F2F2F",
"$  c #373737",
"%  c #006083",
"&  c #0D6182",
"*  c #0E6385",
"=  c #026D92",
"-  c #1B6F93",
";  c #1686B2",
":  c #2288B4",
">  c #7E8890",
",  c #1A97C8",
"<  c #1B9ACB",
"1  c #09A1D6",
"2  c #1EA6DB",
"3  c #1FA9DF",
"4  c #00ACE6",
"5  c #00ADE6",
"6  c #03ADE6",
"7  c #05ADE6",
"8  c #07ADE6",
"9  c #08ADE6",
"0  c #0AADE6",
"q  c #0BADE6",
"w  c #08AEE7",
"e  c #0DADE6",
"r  c #0EADE6",
"t  c #0FADE6",
"y  c #12ADE6",
"u  c #13ADE6",
"i  c #14ADE6",
"p  c #15ADE6",
"a  c #16ADE6",
"s  c #15AEE6",
"d  c #16AEE6",
"f  c #17AEE6",
"g  c #1FABE2",
"h  c #1AAEE6",
"j  c #1BAEE6",
"k  c #1CAEE6",
"l  c #1DAEE6",
"z  c #1EAEE6",
"x  c #1FAEE6",
"c  c #20AEE6",
"v  c #20AFE7",
"b  c #22AEE6",
"n  c #24AEE6",
"m  c #27AEE6",
"M  c #2AAFE6",
"N  c #2EAFE6",
"B  c #31AFE6",
"V  c #31B0E7",
"C  c #3DB1E6",
"Z  c #5CAAD5",
"A  c #45B2E5",
"S  c #4BB2E5",
"D  c #5BB5E5",
"F  c #5DB5E5",
"G  c #5EB6E5",
"H  c #61B6E5",
"J  c #64B7E5",
"K  c #73BAE4",
"L  c #78BBE4",
"P  c #79BBE4",
"I  c #7DBCE4",
"U  c #7FBDE4",
"Y  c #8D8D8D",
"T  c #8E8E8E",
"R  c gray56",
"E  c #AEAEAE",
"W  c gray69",
"Q  c gray75",
"!  c #A4BBCC",
"~  c #80BDE4",
"^  c #83BEE4",
"/  c #84BEE4",
"(  c #85BEE4",
")  c #89C0E3",
"_  c #8AC0E3",
"`  c #8BC0E3",
"'  c #8EC1E3",
"]  c #8FC1E3",
"[  c #90C2E3",
"{  c #98C4E3",
"}  c #9BC5E3",
"|  c #9CC5E2",
" . c #9DC5E2",
".. c #9CC5E3",
"X. c #A2C7E2",
"o. c #A7C9E2",
"O. c #A8C9E2",
"+. c #B0CCE1",
"@. c #B2CCE1",
"#. c #B4CDE1",
"$. c #B5CEE1",
"%. c #BCD0E1",
"&. c #BDD1E1",
"*. c #BFD1E0",
"=. c #C0C0C0",
"-. c #C1C1C1",
";. c gray76",
":. c gray80",
">. c gray81",
",. c #D1D0CF",
"<. c #C9CDD0",
"1. c #CCD7DF",
"2. c #CDD7DF",
"3. c #CED7DF",
"4. c #D0D0D0",
"5. c #D0D8DF",
"6. c #D1D9DF",
"7. c #D2D9DF",
"8. c #D3D9DF",
"9. c #D6DBDF",
"0. c gray85",
"q. c gray86",
"w. c #D8DBDF",
"e. c #D8DCDE",
"r. c #D9DCDE",
"t. c #DADCDE",
"y. c #DBDDDE",
"u. c #DDDEDE",
"i. c gray87",
"p. c #DFDEDE",
"a. c #DFDFDE",
"s. c #DFDFDF",
"d. c #E0DFDE",
"f. c #E1DFDE",
"g. c #C0D2E0",
"h. c #C1D2E0",
"j. c #C2D2E0",
"k. c #C2D3E0",
"l. c #C5D4E0",
"z. c #C5D4E1",
"x. c #C6D4E0",
"c. c #C9D5E0",
"v. c None",
/* pixels */
"v.v.v.v.v.v.v.v.v.v.v.v.v.v.v.v.v.v.v.v.v.v.v.v.v.v.v.v.v.v.v.v.v.v.v.v.v.v.v.v.v.v.v.v.v.v.v.v.v.v.v.v.v.v.v.v.v.v.v.v.v.v.v.v.",
"v.v.v.v.v.v.v.v.v.v.v.v.v.v.v.v.v.v.v.v.v.v.v.v.v.v.v.v.v.v.v.v.v.v.v.v.v.v.v.v.v.v.v.v.v.v.v.v.v.v.v.v.v.v.v.v.v.v.v.v.v.v.v.v.",
"v.v.v.v.v.v.v.v.v.v.v.v.v.v.v.v.v.v.v.v.v.v.v.v.v.v.v.v.v.v.v.v.v.v.v.v.v.v.v.v.v.v.v.v.v.v.v.v.v.v.v.v.v.v.v.v.v.v.v.v.v.v.v.v.",
"v.v.v.v.v.v.v.v.v.v.v.v.v.v.v.v.v.v.v.v.v.v.v.v.v.v.v.v.v.v.v.v.v.v.v.v.v.v.v.v.v.v.v.v.v.c c c c c c c v.v.v.v.v.v.v.v.v.v.v.v.",
"v.v.v.v.v.v.v.v.v.v.v.v.v.c c c c c c c v.v.v.v.v.v.v.v.v.v.v.v.v.v.v.v.v.v.v.v.v.v.v.v.c c c c c c c c v.v.v.v.v.v.v.v.v.v.v.v.",
"v.v.v.v.v.v.v.v.v.c c c c c c c c c c c c c c c v.v.v.v.v.v.v.v.v.v.v.v.v.v.v.v.v.c c c c c c c c c c c c c c v.v.v.v.v.v.v.v.v.",
"v.v.v.v.v.v.v.v.v.c c c c c c c c c c c c c c c v.v.v.v.v.v.v.v.v.v.v.v.v.v.v.v.v.c c c c c c c c c c c c c c c v.v.v.v.v.v.v.v.",
"v.v.v.v.v.v.v.l l l l c c c c c c c l l l x c c c v.v.v.v.v.v.v.v.v.v.v.v.v.v.r r r i c c c c c c z e r r k c c c v.v.v.v.v.v.v.",
"v.v.v.v.v.v.9 | o.o.X.p c c c c c M o.o.O.U z c c c c v.v.v.v.v.v.v.v.v.v.v.q 8.e.e.%.r c c c c c H t.e.t.P c c c c c v.v.v.v.v.",
"v.v.v.v.v.v.9 l.i.i.9.7 c c c c c B i.i.i.O.l c c c c v.v.v.v.v.v.v.v.v.v.v.4 w.i.i.h.4 7 c c c e G d.i.d.P 5 a c c c v.v.v.v.v.",
"v.v.v.v.v.v.) 3.i.i.r.) _ b c c H ' i.i.i.&.` L j c c v.v.v.v.v.v.v.v.v.v.v.2.u.i.i.t.2.h.8 c u +.5.i.i.i.7.3.] c c c v.v.v.v.v.",
"v.v.v.v.v.v.a.i.i.i.i.p.i.m c c } d.i.i.i.i.p.g.r c c v.v.v.v.v.v.v.v.v.v.v.=.=.Q 0.i.i.6.5 c s ! =.=.-.i.i.i.} c c c v.v.v.v.v.",
"v.v.v.v.v.v.+ + o W i.i.u.m c c : O + X 0.i.i.*.r c c v.v.v.v.v.v.v.v.v.v.v.      :.i.i.6.5 c v %     # s.i.i.} c c c v.v.v.v.v.",
"v.v.v.v.v.v..     E i.i.u.m c c ;       0.i.i.*.r c c v.v.v.v.v.v.v.v.v.v.v.      :.i.i.6.5 c v *     $ s.i.i.} c c c v.v.v.v.v.",
"v.v.v.v.c 3       E i.i.u.m c c ;       0.i.i.*.r c c c c v.v.v.v.v.v.v.c <       :.p.d.8.5 c v &     @ s.a.d. .c c c c v.v.v.v.",
"v.v.v.v.c g = > T ;.y.#.#.n c c , - R Y q.1.$...d c c c c v.v.v.v.v.v.v.c g 1 <.>.q.x.F D l c c 2 Z ,.4.a.[ H A c c c c v.v.v.v.",
"v.v.v.v.c c w z.s.i.9.4 f c c c c V s.s.i.o.y h c c c c c v.v.v.v.v.v.v.c c 0 r.a.a.k.q c c c c c J f.a.f.I c c c c c c v.v.v.v.",
"v.v.v.v.c c t @.c.c.j.r c c c c c N c.c.c.{ z c c c c c c v.v.v.v.v.v.v.c c j ~ ^ ^ K j c c c c c C ( ^ / S c c c c c c v.v.v.v.",
"v.v.v.v.c c c r 6 6 8 c c c c c c c 6 6 6 p c c c c c c c v.v.v.v.v.v.v.c c c c c c c c c c c c c c c c c c c c c c c c v.v.v.v.",
"v.v.v.v.c c c c c c c c c c c c c c c c c c c c c c c c c v.v.v.v.v.v.v.c c c c c c c c c c c c c c c c c c c c c c c c v.v.v.v.",
"v.v.v.v.c c c c c c c c c c c c c c c c c c c c c c c c c v.v.v.v.v.v.v.c c c c c c c c c c c c c c c c c c c c c c c c v.v.v.v.",
"v.v.v.v.c c c c c c c c c c c c c c c c c c c c c c c c c v.v.v.v.v.v.v.c c c c c c c c c c c c c c c c c c c c c c c c v.v.v.v.",
"v.v.v.v.c c c c c c c c c c c c c c c c c c c c c c c c c v.v.v.v.v.v.v.c c c c c c c c c c c c c c c c c c c c c c c c v.v.v.v.",
"v.v.v.v.c c c c c c c c c c c c c c c c c c c c c c c c c v.v.v.v.v.v.v.c c c c c c c c c c c c c c c c c c c c c c c c v.v.v.v.",
"v.v.v.v.c c c c c c c c c c c c c c c c c c c c c c c c c v.v.v.v.v.v.v.c c c v.c c c c c c c v.v.c c c c c c c v.c c c v.v.v.v.",
"v.v.v.v.c c c c c c c v.c c c c c c c c v.v.c c c c c c c v.v.v.v.v.v.v.c c v.v.v.c c c c c v.v.v.v.c c c c c v.v.v.c c v.v.v.v.",
"v.v.v.v.v.v.c c c v.v.v.v.v.c c c c v.v.v.v.v.v.c c c v.v.v.v.v.v.v.v.v.c v.v.v.v.v.v.c c c v.v.v.v.c c c v.v.v.v.v.v.c v.v.v.v.",
"v.v.v.v.v.v.c c c v.v.v.v.v.c c c c v.v.v.v.v.v.c c v.v.v.v.v.v.v.v.v.v.c v.v.v.v.v.v.c c c v.v.v.v.c c c v.v.v.v.v.v.c v.v.v.v.",
"v.v.v.v.v.v.v.v.v.v.v.v.v.v.v.v.v.v.v.v.v.v.v.v.v.v.v.v.v.v.v.v.v.v.v.v.v.v.v.v.v.v.v.v.v.v.v.v.v.v.v.v.v.v.v.v.v.v.v.v.v.v.v.v.",
"v.v.v.v.v.v.v.v.v.v.v.v.v.v.v.v.v.v.v.v.v.v.v.v.v.v.v.v.v.v.v.v.v.v.v.v.v.v.v.v.v.v.v.v.v.v.v.v.v.v.v.v.v.v.v.v.v.v.v.v.v.v.v.v.",
"v.v.v.v.v.v.v.v.v.v.v.v.v.v.v.v.v.v.v.v.v.v.v.v.v.v.v.v.v.v.v.v.v.v.v.v.v.v.v.v.v.v.v.v.v.v.v.v.v.v.v.v.v.v.v.v.v.v.v.v.v.v.v.v.",
"v.v.v.v.v.v.v.v.v.v.v.v.v.v.v.v.v.v.v.v.v.v.v.v.v.v.v.v.v.v.v.v.v.v.v.v.v.v.v.v.v.v.v.v.v.v.v.v.v.v.v.v.v.v.v.v.v.v.v.v.v.v.v.v."
};
