/* XPM */
static char *ghost_down[] = {
/* columns rows colors chars-per-pixel */
"64 32 115 2 ",
"   c black",
".  c #000306",
"X  c #131313",
"o  c #121518",
"O  c #002535",
"+  c #2F3438",
"@  c gray21",
"#  c #124359",
"$  c #164E67",
"%  c #555555",
"&  c #575756",
"*  c gray39",
"=  c #646464",
"-  c gray50",
";  c #046183",
":  c #06739B",
">  c #147EA7",
",  c #147EA8",
"<  c #147FA8",
"1  c #6D7881",
"2  c #1686B2",
"3  c #1788B5",
"4  c #2D88B1",
"5  c #1B9BCE",
"6  c #00ACE6",
"7  c #08ADE6",
"8  c #09ADE6",
"9  c #0BADE6",
"0  c #0DADE5",
"q  c #0EADE6",
"w  c #0EAEE7",
"e  c #0EAEE8",
"r  c #12ADE6",
"t  c #14ADE6",
"y  c #15ADE6",
"u  c #16ADE6",
"i  c #1FABE2",
"p  c #1FACE3",
"a  c #1AAEE6",
"s  c #1EAEE6",
"d  c #1FAEE6",
"f  c #20ACE3",
"g  c #20AEE6",
"h  c #21AEE6",
"j  c #20AFE7",
"k  c #23AEE6",
"l  c #26AEE6",
"z  c #27AEE6",
"x  c #2CAFE6",
"c  c #2EAFE6",
"v  c #30AFE6",
"b  c #31AFE6",
"n  c #3BACE0",
"m  c #34B0E6",
"M  c #3AB0E6",
"N  c #3BB0E6",
"B  c #3CB0E6",
"V  c #3DB1E6",
"C  c #3DB2E8",
"Z  c #3EB2E8",
"A  c #51B3E5",
"S  c #52B4E5",
"D  c #61B6E5",
"F  c #63B6E5",
"G  c #63B7E5",
"H  c #7ABCE4",
"J  c #7EBDE4",
"K  c #818D98",
"L  c gray59",
"P  c gray66",
"I  c gray67",
"U  c #ACACAB",
"Y  c gray73",
"T  c #84BEE4",
"R  c #92C2E3",
"E  c #96C3E3",
"W  c #99C4E3",
"Q  c #9AC5E3",
"!  c #AACAE2",
"~  c #B1CCE1",
"^  c #B2CDE1",
"/  c #B6CEE1",
"(  c #B8CFE1",
")  c #B9CFE1",
"_  c #C1C1C1",
"`  c #CCD6DF",
"'  c #D1D8DF",
"]  c #D7DBDF",
"[  c gray85",
"{  c #DAD9D9",
"}  c gray86",
"|  c #D8DBDF",
" . c #D9DCDE",
".. c #D8DCDF",
"X. c gainsboro",
"o. c #DDDDDD",
"O. c #DEDEDD",
"+. c #DDDEDE",
"@. c gray87",
"#. c #DFDEDE",
"$. c #DFDFDF",
"%. c #E0DFDE",
"&. c #E1DFDE",
"*. c #E0E0DF",
"=. c #C0D1E0",
"-. c #C0D2E0",
";. c #C0D2E1",
":. c #C1D3E2",
">. c #C4D4E0",
",. c #C9D5E0",
"<. c gray88",
"1. c #E1E0E0",
"2. c #E2E1E0",
"3. c #E3E1E0",
"4. c None",
/* pixels */
"4.4.4.4.4.4.4.4.4.4.4.4.4.4.4.4.4.4.4.4.4.4.4.4.4.4.4.4.4.4.4.4.4.4.4.4.4.4.4.4.4.4.4.4.4.4.4.4.4.4.4.4.4.4.4.4.4.4.4.4.4.4.4.4.",
"4.4.4.4.4.4.4.4.4.4.4.4.4.4.4.4.4.4.4.4.4.4.4.4.4.4.4.4.4.4.4.4.4.4.4.4.4.4.4.4.4.4.4.4.4.4.4.4.4.4.4.4.4.4.4.4.4.4.4.4.4.4.4.4.",
"4.4.4.4.4.4.4.4.4.4.4.4.4.4.4.4.4.4.4.4.4.4.4.4.4.4.4.4.4.4.4.4.4.4.4.4.4.4.4.4.4.4.4.4.4.4.4.4.4.4.4.4.4.4.4.4.4.4.4.4.4.4.4.4.",
"4.4.4.4.4.4.4.4.4.4.4.4.4.g g g g g g g 4.4.4.4.4.4.4.4.4.4.4.4.4.4.4.4.4.4.4.4.4.4.4.4.4.4.4.4.4.4.4.4.4.4.4.4.4.4.4.4.4.4.4.4.",
"4.4.4.4.4.4.4.4.4.4.4.4.4.g g g g g g g 4.4.4.4.4.4.4.4.4.4.4.4.4.4.4.4.4.4.4.4.4.4.4.4.4.g g g g g g g 4.4.4.4.4.4.4.4.4.4.4.4.",
"4.4.4.4.4.4.4.4.4.g g g g g g g g g g g g g g g 4.4.4.4.4.4.4.4.4.4.4.4.4.4.4.4.4.g g g g g g g g g g g g g g 4.4.4.4.4.4.4.4.4.",
"4.4.4.4.4.4.4.4.4.g g g g g g g g g g g g g g g 4.4.4.4.4.4.4.4.4.4.4.4.4.4.4.4.4.g g g g g g g g g g g g g g 4.4.4.4.4.4.4.4.4.",
"4.4.4.4.4.4.4.g g g g g g g g g g g g g g g g g g 4.4.4.4.4.4.4.4.4.4.4.4.4.4.g g g g g g g g g g g g g g g g g g 4.4.4.4.4.4.4.",
"4.4.4.4.4.4.g g g g g g g g g g g g g g g g g g g g g 4.4.4.4.4.4.4.4.4.4.4.4.g g g g g g g g g g g g g g g g g g 4.4.4.4.4.4.4.",
"4.4.4.4.4.4.g g g g g g g g g g g g g g g g g g g g g 4.4.4.4.4.4.4.4.4.4.4.g g g g g g g g g g g g g g g g g g g g g 4.4.4.4.4.",
"4.4.4.4.4.4.g g s H Q Q W k g g g g g a E Q Q T a g g 4.4.4.4.4.4.4.4.4.4.4.g g g x c c x g g g g g g h c c c z g g g 4.4.4.4.4.",
"4.4.4.4.4.4.g x x ~ @.@.+.m z g g g v z  .@.@.-.l h g 4.4.4.4.4.4.4.4.4.4.4.g u 6 ` @.@.' 6 d g g d y B #.@.@.Q u g g 4.4.4.4.4.",
"4.4.4.4.4.4.7 >.@.@.@.@.@.#.R g g b @.@.@.@.@.@.#.M g 4.4.4.4.4.4.4.4.4.4.4.y ^ / | @.@. .( A g g S ) ) @.@.@.,.~ t g 4.4.4.4.4.",
"4.4.4.4.4.4.7 >.@.@.@.@.@.#.R g g b @.@.@.@.@.@.#.M g 4.4.4.4.4.4.4.4.4.4.4.9 | @.@.@.@.@.%.D g g F %.@.@.@.@.@.] 8 g 4.4.4.4.4.",
"4.4.4.4.g g 7 >.@.@.@.@.@.#.R g g b @.@.@.@.@.@.#.M g g g 4.4.4.4.4.4.4.4.g 9 | @.@.@.@.@.%.D g g F %.@.@.@.@.@.] 8 g 4.4.4.4.4.",
"4.4.4.4.g g 7 >.@._ P P P @.R g g b @.$.I P P Y $.M g g g 4.4.4.4.4.4.4.g g 9 | @.X.} } } %.D g g F %.@.} } } o.] 8 g g 4.4.4.4.",
"4.4.4.4.g g 7 >.$.L     X O.R g g b @.$.@     - *.M g g g 4.4.4.4.4.4.4.g g 9 | <.*     % 2.D g g F %.[       I ] 8 g g 4.4.4.4.",
"4.4.4.4.g g r ! ;.K     o =.J g g x -.:.+     1 :.m g g g 4.4.4.4.4.4.4.g g 9  .1.=     & 3.D g g G &.{       U ..7 g g 4.4.4.4.",
"4.4.4.4.g g g t w :     . 0 a g g g q w O     ; e d g g g 4.4.4.4.4.4.4.g g d N C $     # Z l g g l V n       4 N d g g 4.4.4.4.",
"4.4.4.4.g g g g g f i i i g g g g g g g i i i p g g g g g 4.4.4.4.4.4.4.g g g g j 3 < < 2 j g g g g g p > < , 5 g g g g 4.4.4.4.",
"4.4.4.4.g g g g g g g g g g g g g g g g g g g g g g g g g 4.4.4.4.4.4.4.g g g g g g g g g g g g g g g g g g g g g g g g 4.4.4.4.",
"4.4.4.4.g g g g g g g g g g g g g g g g g g g g g g g g g 4.4.4.4.4.4.4.g g g g g g g g g g g g g g g g g g g g g g g g 4.4.4.4.",
"4.4.4.4.g g g g g g g g g g g g g g g g g g g g g g g g g 4.4.4.4.4.4.4.g g g g g g g g g g g g g g g g g g g g g g g g 4.4.4.4.",
"4.4.4.4.g g g g g g g g g g g g g g g g g g g g g g g g g 4.4.4.4.4.4.4.g g g g g g g g g g g g g g g g g g g g g g g g 4.4.4.4.",
"4.4.4.4.g g g g g g g g g g g g g g g g g g g g g g g g g 4.4.4.4.4.4.4.g g g g g g g g g g g g g g g g g g g g g g g g 4.4.4.4.",
"4.4.4.4.g g g g g g g 4.g g g g g g g g 4.4.g g g g g g g 4.4.4.4.4.4.4.g g 4.4.g g g g g g 4.4.4.4.g g g g g g 4.4.g g 4.4.4.4.",
"4.4.4.4.4.4.g g g 4.4.4.4.4.g g g g 4.4.4.4.4.4.g g g 4.4.4.4.4.4.4.4.4.g g 4.4.4.g g g g g 4.4.4.4.g g g g g 4.4.4.g g 4.4.4.4.",
"4.4.4.4.4.4.g g g 4.4.4.4.4.g g g g 4.4.4.4.4.4.g g g 4.4.4.4.4.4.4.4.4.g 4.4.4.4.4.4.g g g 4.4.4.4.g g g 4.4.4.4.4.4.g 4.4.4.4.",
"4.4.4.4.4.4.4.4.4.4.4.4.4.4.4.4.4.4.4.4.4.4.4.4.4.4.4.4.4.4.4.4.4.4.4.4.g 4.4.4.4.4.4.g g g 4.4.4.4.g g g 4.4.4.4.4.4.g 4.4.4.4.",
"4.4.4.4.4.4.4.4.4.4.4.4.4.4.4.4.4.4.4.4.4.4.4.4.4.4.4.4.4.4.4.4.4.4.4.4.4.4.4.4.4.4.4.4.4.4.4.4.4.4.4.4.4.4.4.4.4.4.4.4.4.4.4.4.",
"4.4.4.4.4.4.4.4.4.4.4.4.4.4.4.4.4.4.4.4.4.4.4.4.4.4.4.4.4.4.4.4.4.4.4.4.4.4.4.4.4.4.4.4.4.4.4.4.4.4.4.4.4.4.4.4.4.4.4.4.4.4.4.4.",
"4.4.4.4.4.4.4.4.4.4.4.4.4.4.4.4.4.4.4.4.4.4.4.4.4.4.4.4.4.4.4.4.4.4.4.4.4.4.4.4.4.4.4.4.4.4.4.4.4.4.4.4.4.4.4.4.4.4.4.4.4.4.4.4."
};
