/* XPM */
static char *ghost_right[] = {
/* columns rows colors chars-per-pixel */
"64 32 145 2 ",
"   c black",
".  c #000001",
"X  c #050504",
"o  c gray2",
"O  c #101010",
"+  c #111111",
"@  c gray8",
"#  c #011C28",
"$  c #353535",
"%  c #3F3F3F",
"&  c #403B36",
"*  c #006A8F",
"=  c #0F698D",
"-  c #106E93",
";  c #13779F",
":  c #14779F",
">  c #336F8E",
",  c #1378A0",
"<  c #1379A2",
"1  c #267BA1",
"2  c #6588A0",
"3  c #1993C3",
"4  c #1B99CB",
"5  c #2A9CCD",
"6  c #1DA1D5",
"7  c #1DA3D7",
"8  c #1FA8DF",
"9  c #00ACE6",
"0  c #00ADE6",
"q  c #00ADE7",
"w  c #02ADE6",
"e  c #09ADE6",
"r  c #0AADE6",
"t  c #0BADE6",
"y  c #0CADE6",
"u  c #0DADE6",
"i  c #0EADE6",
"p  c #0FADE6",
"a  c #10ADE6",
"s  c #17AEE6",
"d  c #18AEE6",
"f  c #1AAEE6",
"g  c #1BAEE6",
"h  c #1CAEE6",
"j  c #1DAEE6",
"k  c #1EAEE6",
"l  c #1FAEE6",
"z  c #20AEE6",
"x  c #20AEE7",
"c  c #20AFE7",
"v  c #2CAFE6",
"b  c #34B0E6",
"n  c #36B0E6",
"m  c #3AB0E6",
"M  c #3AB1E6",
"N  c #3DB1E6",
"B  c #3FB1E6",
"V  c #41B1E6",
"C  c #42B1E6",
"Z  c #4AB2E5",
"A  c #4BB2E5",
"S  c #4DB3E5",
"D  c #4EB3E5",
"F  c #4FB3E5",
"G  c #57B4E5",
"H  c #57B5E6",
"J  c #64B7E5",
"K  c #66B7E5",
"L  c #67B7E5",
"P  c #6BB8E5",
"I  c #75BBE4",
"U  c #77BBE4",
"Y  c #78BBE4",
"T  c #7ABCE4",
"R  c #7FBDE4",
"E  c #898887",
"W  c #83878A",
"Q  c gray55",
"!  c gray58",
"~  c #9B9B9B",
"^  c #9D9D9D",
"/  c #AEAEAE",
"(  c gray",
")  c #81BDE4",
"_  c #82BEE4",
"`  c #85BEE4",
"'  c #87BFE4",
"]  c #8CC0E3",
"[  c #92C2E3",
"{  c #96C3E3",
"}  c #9AC5E3",
"|  c #9BC5E3",
" . c #9DC6E2",
".. c #A0C6E2",
"X. c #A0C7E2",
"o. c #A1C7E2",
"O. c #A6C9E2",
"+. c #ACCAE0",
"@. c #ACCBE2",
"#. c #AFCCE1",
"$. c #B0CCE1",
"%. c #B3CDE1",
"&. c #B4CDE1",
"*. c #B5CEE1",
"=. c #B6CEE1",
"-. c #B8CFE1",
";. c #B9CFE1",
":. c #BCD0E1",
">. c #BED1E0",
",. c #CDCDCD",
"<. c #CECECE",
"1. c #CDD7DF",
"2. c #CFD8DF",
"3. c LightGray",
"4. c #D1D9DF",
"5. c #D4DADF",
"6. c #D5DADF",
"7. c #D7DBDF",
"8. c #D9DCDE",
"9. c gainsboro",
"0. c #DDDCDC",
"q. c #DDDDDD",
"w. c gray87",
"e. c #DFDEDE",
"r. c #DFDFDE",
"t. c #DFDFDF",
"y. c #E0DFDE",
"u. c #E1DFDE",
"i. c #E1E0DF",
"p. c #E2E0DE",
"a. c #C1D2E0",
"s. c #C2D3E0",
"d. c #C3D3E0",
"f. c #C5D4E0",
"g. c #C6D4E0",
"h. c #C7D4E0",
"j. c #C8D5E0",
"k. c #C9D5E0",
"l. c #CAD6E0",
"z. c #D4DAE0",
"x. c gray88",
"c. c #E1E0E0",
"v. c #E2E1E0",
"b. c #E3E1E0",
"n. c None",
/* pixels */
"n.n.n.n.n.n.n.n.n.n.n.n.n.n.n.n.n.n.n.n.n.n.n.n.n.n.n.n.n.n.n.n.n.n.n.n.n.n.n.n.n.n.n.n.n.n.n.n.n.n.n.n.n.n.n.n.n.n.n.n.n.n.n.n.",
"n.n.n.n.n.n.n.n.n.n.n.n.n.n.n.n.n.n.n.n.n.n.n.n.n.n.n.n.n.n.n.n.n.n.n.n.n.n.n.n.n.n.n.n.n.n.n.n.n.n.n.n.n.n.n.n.n.n.n.n.n.n.n.n.",
"n.n.n.n.n.n.n.n.n.n.n.n.n.n.n.n.n.n.n.n.n.n.n.n.n.n.n.n.n.n.n.n.n.n.n.n.n.n.n.n.n.n.n.n.n.n.n.n.n.n.n.n.n.n.n.n.n.n.n.n.n.n.n.n.",
"n.n.n.n.n.n.n.n.n.n.n.n.n.z z z z z z z n.n.n.n.n.n.n.n.n.n.n.n.n.n.n.n.n.n.n.n.n.n.n.n.n.n.n.n.n.n.n.n.n.n.n.n.n.n.n.n.n.n.n.n.",
"n.n.n.n.n.n.n.n.n.n.n.n.n.z z z z z z z n.n.n.n.n.n.n.n.n.n.n.n.n.n.n.n.n.n.n.n.n.n.n.n.n.z z z z z z z n.n.n.n.n.n.n.n.n.n.n.n.",
"n.n.n.n.n.n.n.n.n.z z z z z z z z z z z z z z z n.n.n.n.n.n.n.n.n.n.n.n.n.n.n.n.n.z z z z z z z z z z z z z z n.n.n.n.n.n.n.n.n.",
"n.n.n.n.n.n.n.n.n.z z z z z z z z z z z z z z z n.n.n.n.n.n.n.n.n.n.n.n.n.n.n.n.n.z z z z z z z z z z z z z z n.n.n.n.n.n.n.n.n.",
"n.n.n.n.n.n.n.z z z l s s s j z z z z z z h s s s n.n.n.n.n.n.n.n.n.n.n.n.n.n.z z z z z z z z z z z z z z z z z z n.n.n.n.n.n.n.",
"n.n.n.n.n.n.z z z z B =.&.*.U z z z z z l _ &.&.*.m z n.n.n.n.n.n.n.n.n.n.n.n.z z z F _ ) _ n z z z z z f I ) ) R n.n.n.n.n.n.n.",
"n.n.n.n.n.n.z z z z A y.w.e.[ z z z z z l X.w.w.e.m z n.n.n.n.n.n.n.n.n.n.n.z z z z ' y.r.u.G z z z z z w l.r.r.5.0 z n.n.n.n.n.",
"n.n.n.n.n.n.z z k T o.e.w.w.-.} Y k z f { >.w.w.w. .} n.n.n.n.n.n.n.n.n.n.n.z z h J | e.w.y.R P N z z v L 1.w.w.6.K P n.n.n.n.n.",
"n.n.n.n.n.n.z z f $.w.w.w.9.9.0.+.g z p 8.w.w.q.9.0.0.n.n.n.n.n.n.n.n.n.n.n.z z 0 4.r.w.w.x.c.b.T z z D p.w.w.t.x.v.v.n.n.n.n.n.",
"n.n.n.n.n.n.z z f #.w.w.q.@ o X : z z p 8.w.w.(   o o n.n.n.n.n.n.n.n.n.n.n.z z 0 2.w.w.<.$ % & 5 z z S y.w.t.! % % % n.n.n.n.n.",
"n.n.n.n.n.n.z z f #.w.w.q.+     ; z z p 8.w.w.(     . n.n.n.n.n.n.n.n.n.n.n.z z 0 2.w.w.,.      4 z z S y.w.t.Q       n.n.n.n.n.",
"n.n.n.n.z z z z f $.w.w.q.O     ; z z p 8.w.w.(       7 z n.n.n.n.n.n.n.z z z z 0 2.w.w.,.      4 z z S y.w.t.Q     # x n.n.n.n.",
"n.n.n.n.z z z z j ' #.e.q.^ 2 < 3 z z d O.f.w.,.~ 1 , 8 z n.n.n.n.n.n.n.z z z z p @.f.w.3.E > = 6 z z V ;.7.t./ W * - z n.n.n.n.",
"n.n.n.n.z z z z z k Z y.w.r.[ z z z z z g ..w.w.r.M z z z n.n.n.n.n.n.n.z z z z z d ` r.w.i.H c z z z l 9 k.w.t.z.q c z n.n.n.n.",
"n.n.n.n.z z z z z z C d.a.s.R z z z z z l ] a.a.s.b z z z n.n.n.n.n.n.n.z z z z z z U h.g.j.D z z z z z u %.g.g.:.t z z n.n.n.n.",
"n.n.n.n.z z z z z z l t y t f z z z z z z d t y t l z z z n.n.n.n.n.n.n.z z z z z z g e r e k z z z z z z a r r i z z z n.n.n.n.",
"n.n.n.n.z z z z z z z z z z z z z z z z z z z z z z z z z n.n.n.n.n.n.n.z z z z z z z z z z z z z z z z z z z z z z z z n.n.n.n.",
"n.n.n.n.z z z z z z z z z z z z z z z z z z z z z z z z z n.n.n.n.n.n.n.z z z z z z z z z z z z z z z z z z z z z z z z n.n.n.n.",
"n.n.n.n.z z z z z z z z z z z z z z z z z z z z z z z z z n.n.n.n.n.n.n.z z z z z z z z z z z z z z z z z z z z z z z z n.n.n.n.",
"n.n.n.n.z z z z z z z z z z z z z z z z z z z z z z z z z n.n.n.n.n.n.n.z z z z z z z z z z z z z z z z z z z z z z z z n.n.n.n.",
"n.n.n.n.z z z z z z z z z z z z z z z z z z z z z z z z z n.n.n.n.n.n.n.z z z z z z z z z z z z z z z z z z z z z z z z n.n.n.n.",
"n.n.n.n.z z z z z z z z z z z z z z z z z z z z z z z z z n.n.n.n.n.n.n.z z z z z z z z z z z z z z z z z z z z z z z z n.n.n.n.",
"n.n.n.n.z z z z z z z n.z z z z z z z z n.n.z z z z z z z n.n.n.n.n.n.n.z z n.n.n.z z z z z n.n.n.n.z z z z z n.n.n.z z n.n.n.n.",
"n.n.n.n.n.n.z z z n.n.n.n.n.z z z z n.n.n.n.n.n.z z z n.n.n.n.n.n.n.n.n.z n.n.n.n.n.n.z z z n.n.n.n.z z z n.n.n.n.n.n.z n.n.n.n.",
"n.n.n.n.n.n.z z z n.n.n.n.n.z z z z n.n.n.n.n.n.z z z n.n.n.n.n.n.n.n.n.z n.n.n.n.n.n.z z z n.n.n.n.z z z n.n.n.n.n.n.z n.n.n.n.",
"n.n.n.n.n.n.n.n.n.n.n.n.n.n.n.n.n.n.n.n.n.n.n.n.n.n.n.n.n.n.n.n.n.n.n.n.n.n.n.n.n.n.n.n.n.n.n.n.n.n.n.n.n.n.n.n.n.n.n.n.n.n.n.n.",
"n.n.n.n.n.n.n.n.n.n.n.n.n.n.n.n.n.n.n.n.n.n.n.n.n.n.n.n.n.n.n.n.n.n.n.n.n.n.n.n.n.n.n.n.n.n.n.n.n.n.n.n.n.n.n.n.n.n.n.n.n.n.n.n.",
"n.n.n.n.n.n.n.n.n.n.n.n.n.n.n.n.n.n.n.n.n.n.n.n.n.n.n.n.n.n.n.n.n.n.n.n.n.n.n.n.n.n.n.n.n.n.n.n.n.n.n.n.n.n.n.n.n.n.n.n.n.n.n.n.",
"n.n.n.n.n.n.n.n.n.n.n.n.n.n.n.n.n.n.n.n.n.n.n.n.n.n.n.n.n.n.n.n.n.n.n.n.n.n.n.n.n.n.n.n.n.n.n.n.n.n.n.n.n.n.n.n.n.n.n.n.n.n.n.n."
};
