/* XPM */
static char *ghost_up[] = {
/* columns rows colors chars-per-pixel */
"64 32 116 2 ",
"   c black",
".  c #001019",
"X  c #011019",
"o  c #161717",
"O  c #00293A",
"+  c #032A3A",
"@  c #232323",
"#  c #363738",
"$  c #064259",
"%  c #1D4559",
"&  c #515150",
"*  c #555555",
"=  c #606060",
"-  c gray49",
";  c #00ACE6",
":  c #00ADE6",
">  c #01ADE6",
",  c #02ADE6",
"<  c #07ACE5",
"1  c #04ADE6",
"2  c #07ADE6",
"3  c #08ADE6",
"4  c #09ADE6",
"5  c #0BADE6",
"6  c #08AEE7",
"7  c #0DADE6",
"8  c #0EADE6",
"9  c #0FADE6",
"0  c #1FAAE0",
"q  c #18AEE6",
"w  c #19AEE6",
"e  c #1AAEE6",
"r  c #1DAEE6",
"t  c #1EAEE6",
"y  c #1FAEE6",
"u  c #20ADE5",
"i  c #20AEE6",
"p  c #21AEE6",
"a  c #20AEE7",
"s  c #20AFE7",
"d  c #22AEE6",
"f  c #27AEE6",
"g  c #2DAFE6",
"h  c #30AFE6",
"j  c #31AFE6",
"k  c #20B0E8",
"l  c #37B0E6",
"z  c #3AB0E6",
"x  c #3BB0E6",
"c  c #3CB0E6",
"v  c #3DB0E6",
"b  c #40B1E6",
"n  c #42B1E6",
"m  c #46B2E5",
"M  c #54B0E0",
"N  c #51B3E5",
"B  c #57B4E5",
"V  c #58B6E7",
"C  c #5CB5E5",
"Z  c #5EB5E5",
"A  c #61B6E5",
"S  c #62B6E5",
"D  c #63B6E5",
"F  c #64B7E5",
"G  c #65B7E5",
"H  c #939393",
"J  c #989898",
"K  c gray60",
"L  c #9D9D9D",
"P  c gray67",
"I  c gray69",
"U  c #B9B9B9",
"Y  c #8DC1E3",
"T  c #92C2E3",
"R  c #93C2E3",
"E  c #99C4E3",
"W  c #B1CCE1",
"Q  c #B3CDE1",
"!  c gray80",
"~  c gray81",
"^  c #CBD6DF",
"/  c #CCD6DF",
"(  c #CED7DF",
")  c gray84",
"_  c #D1D8DF",
"`  c #D1D9DF",
"'  c #D2D9DF",
"]  c #D3D9DF",
"[  c #D7DBDE",
"{  c #D7DBDF",
"}  c #DBD9D8",
"|  c #D8DBDF",
" . c #D8DCDE",
".. c #D9DCDE",
"X. c #DADCDE",
"o. c #DBDDDE",
"O. c #DDDDDD",
"+. c #DCDDDE",
"@. c #DDDEDE",
"#. c gray87",
"$. c #DFDEDE",
"%. c #DFDFDE",
"&. c #DFDFDF",
"*. c #E0DFDE",
"=. c #E2E0DE",
"-. c #C0D2E0",
";. c #C1D2E0",
":. c #C4D3E0",
">. c #C4D4E0",
",. c #C6D4E0",
"<. c #C9D5E0",
"1. c #CBD6E0",
"2. c #D8DCE0",
"3. c gray88",
"4. c #E4E2E0",
"5. c None",
/* pixels */
"5.5.5.5.5.5.5.5.5.5.5.5.5.5.5.5.5.5.5.5.5.5.5.5.5.5.5.5.5.5.5.5.5.5.5.5.5.5.5.5.5.5.5.5.5.5.5.5.5.5.5.5.5.5.5.5.5.5.5.5.5.5.5.5.",
"5.5.5.5.5.5.5.5.5.5.5.5.5.5.5.5.5.5.5.5.5.5.5.5.5.5.5.5.5.5.5.5.5.5.5.5.5.5.5.5.5.5.5.5.5.5.5.5.5.5.5.5.5.5.5.5.5.5.5.5.5.5.5.5.",
"5.5.5.5.5.5.5.5.5.5.5.5.5.5.5.5.5.5.5.5.5.5.5.5.5.5.5.5.5.5.5.5.5.5.5.5.5.5.5.5.5.5.5.5.5.5.5.5.5.5.5.5.5.5.5.5.5.5.5.5.5.5.5.5.",
"5.5.5.5.5.5.5.5.5.5.5.5.5.5.5.5.5.5.5.5.5.5.5.5.5.5.5.5.5.5.5.5.5.5.5.5.5.5.5.5.5.5.5.5.5.i i i i i i i 5.5.5.5.5.5.5.5.5.5.5.5.",
"5.5.5.5.5.5.5.5.5.5.5.5.5.i i i i i i i 5.5.5.5.5.5.5.5.5.5.5.5.5.5.5.5.5.5.5.5.5.5.5.5.5.a i i i i i u 5.5.5.5.5.5.5.5.5.5.5.5.",
"5.5.5.5.5.5.5.5.5.      X u i i i i i s +       5.5.5.5.5.5.5.5.5.5.5.5.5.5.5.5.5.      $ k i i i i i 0       5.5.5.5.5.5.5.5.5.",
"5.5.5.5.5.5.5.5.5.      . < w i i i 2 6 O       5.5.5.5.5.5.5.5.5.5.5.5.5.5.5.5.5.@     % V g i i g B M       * 5.5.5.5.5.5.5.5.",
"5.5.5.5.5.5.5.#.&.H     o [ Y i i h { 2.#     - &.5.5.5.5.5.5.5.5.5.5.5.5.5.5.#.3.=     & 4.S i i F =.}       P #.5.5.5.5.5.5.5.",
"5.5.5.5.5.5.5.' #.U J J K #.T i i j #.&.L J J I &.5.5.5.5.5.5.5.5.5.5.5.5.5.1 ..#.~ ! ! ~ *.A i i D *.O.! ! ! )  .> i 5.5.5.5.5.",
"5.5.5.5.5.5.4 :.#.#.&.&.&.$.T i i j #.#.#.&.&.#.$.z i 5.5.5.5.5.5.5.5.5.5.5.5 | #.#.#.#.#.*.A i i D *.#.#.#.#.#.{ 4 i 5.5.5.5.5.",
"5.5.5.5.5.5.3 >.#.#.#.#.#.$.T i i j #.#.#.#.#.#.$.z i 5.5.5.5.5.5.5.5.5.5.5.5 | #.#.#.#.#.*.A i i D *.#.#.#.#.#.{ 4 i 5.5.5.5.5.",
"5.5.5.5.5.5.3 ,.%.$.#.#.#.*.R i i j %.%.#.#.#.#.*.x i 5.5.5.5.5.5.5.5.5.5.5.9 ^ ` +.#.#.+.] C i i Z ] ' #.#.#.{ 1.7 i 5.5.5.5.5.",
"5.5.5.5.5.5.y c b Q #.#.@.m h i i p n v ..#.#.;.v d i 5.5.5.5.5.5.5.5.5.5.5.i , ; / #.#._ ; r i i r : l %.#.#.E > i i 5.5.5.5.5.",
"5.5.5.5.5.5.i i e W *.*.$.f i i i i i 9 o.*.*.-.8 i i 5.5.5.5.5.5.5.5.5.5.5.i i , <.X.X.( : i i i i i b +.X.o.E i i i 5.5.5.5.5.",
"5.5.5.5.i i i i y N G G G p i i i i i t D G G B t i i i i 5.5.5.5.5.5.5.i i i i i e q q w i i i i i i i q q q r i i i i 5.5.5.5.",
"5.5.5.5.i i i i i i i i i i i i i i i i i i i i i i i i i 5.5.5.5.5.5.5.i i i i i i i i i i i i i i i i i i i i i i i i 5.5.5.5.",
"5.5.5.5.i i i i i i i i i i i i i i i i i i i i i i i i i 5.5.5.5.5.5.5.i i i i i i i i i i i i i i i i i i i i i i i i 5.5.5.5.",
"5.5.5.5.i i i i i i i i i i i i i i i i i i i i i i i i i 5.5.5.5.5.5.5.i i i i i i i i i i i i i i i i i i i i i i i i 5.5.5.5.",
"5.5.5.5.i i i i i i i i i i i i i i i i i i i i i i i i i 5.5.5.5.5.5.5.i i i i i i i i i i i i i i i i i i i i i i i i 5.5.5.5.",
"5.5.5.5.i i i i i i i i i i i i i i i i i i i i i i i i i 5.5.5.5.5.5.5.i i i i i i i i i i i i i i i i i i i i i i i i 5.5.5.5.",
"5.5.5.5.i i i i i i i i i i i i i i i i i i i i i i i i i 5.5.5.5.5.5.5.i i i i i i i i i i i i i i i i i i i i i i i i 5.5.5.5.",
"5.5.5.5.i i i i i i i i i i i i i i i i i i i i i i i i i 5.5.5.5.5.5.5.i i i i i i i i i i i i i i i i i i i i i i i i 5.5.5.5.",
"5.5.5.5.i i i i i i i i i i i i i i i i i i i i i i i i i 5.5.5.5.5.5.5.i i i i i i i i i i i i i i i i i i i i i i i i 5.5.5.5.",
"5.5.5.5.i i i i i i i i i i i i i i i i i i i i i i i i i 5.5.5.5.5.5.5.i i i i i i i i i i i i i i i i i i i i i i i i 5.5.5.5.",
"5.5.5.5.i i i i i i i i i i i i i i i i i i i i i i i i i 5.5.5.5.5.5.5.i i i i i i i i i i i i i i i i i i i i i i i i 5.5.5.5.",
"5.5.5.5.i i i i i i i 5.i i i i i i i i 5.5.i i i i i i i 5.5.5.5.5.5.5.i i 5.5.5.i i i i i 5.5.5.5.i i i i i 5.5.5.i i 5.5.5.5.",
"5.5.5.5.5.5.i i i 5.5.5.5.5.i i i i 5.5.5.5.5.5.i i i 5.5.5.5.5.5.5.5.5.i 5.5.5.5.5.5.i i i 5.5.5.5.i i i 5.5.5.5.5.5.i 5.5.5.5.",
"5.5.5.5.5.5.i i i 5.5.5.5.5.i i i i 5.5.5.5.5.5.i i 5.5.5.5.5.5.5.5.5.5.i 5.5.5.5.5.5.i i i 5.5.5.5.i i i 5.5.5.5.5.5.i 5.5.5.5.",
"5.5.5.5.5.5.5.5.5.5.5.5.5.5.5.5.5.5.5.5.5.5.5.5.5.5.5.5.5.5.5.5.5.5.5.5.5.5.5.5.5.5.5.5.5.5.5.5.5.5.5.5.5.5.5.5.5.5.5.5.5.5.5.5.",
"5.5.5.5.5.5.5.5.5.5.5.5.5.5.5.5.5.5.5.5.5.5.5.5.5.5.5.5.5.5.5.5.5.5.5.5.5.5.5.5.5.5.5.5.5.5.5.5.5.5.5.5.5.5.5.5.5.5.5.5.5.5.5.5.",
"5.5.5.5.5.5.5.5.5.5.5.5.5.5.5.5.5.5.5.5.5.5.5.5.5.5.5.5.5.5.5.5.5.5.5.5.5.5.5.5.5.5.5.5.5.5.5.5.5.5.5.5.5.5.5.5.5.5.5.5.5.5.5.5.",
"5.5.5.5.5.5.5.5.5.5.5.5.5.5.5.5.5.5.5.5.5.5.5.5.5.5.5.5.5.5.5.5.5.5.5.5.5.5.5.5.5.5.5.5.5.5.5.5.5.5.5.5.5.5.5.5.5.5.5.5.5.5.5.5."
};
