/* XPM */
static char *red_yellow_frames[] = {
/* columns rows colors chars-per-pixel */
"64 128 110 2 ",
"   c #000000",
".  c #011019",
"X  c #131414",
"o  c #121518",
"O  c #1E1E1E",
"+  c #24211F",
"@  c #011C28",
"#  c #002535",
"$  c #022A3A",
"%  c #242424",
"&  c #2D2D2D",
"*  c #2F3438",
"=  c gray21",
"-  c #363738",
";  c #3F3F3F",
":  c #403B36",
">  c #064259",
",  c #124359",
"<  c #1D4559",
"1  c #164E67",
"2  c #555554",
"3  c #626262",
"4  c #7E7E7E",
"5  c #026183",
"6  c #0E6283",
"7  c #006A8F",
"8  c #0F698D",
"9  c #026D92",
"0  c #106E93",
"q  c #1B6F93",
"w  c #06739B",
"e  c #13779F",
"r  c #336F8E",
"t  c #137AA3",
"y  c #147FA8",
"u  c #267BA1",
"i  c #6D7881",
"p  c #1686B2",
"a  c #1788B5",
"s  c #2288B4",
"d  c #2D88B1",
"f  c #7E8890",
"g  c #6588A0",
"h  c #1993C3",
"j  c #1A97C8",
"k  c #1B9ACC",
"l  c #2A9CCD",
"z  c #09A1D6",
"x  c #1DA2D6",
"c  c #1EA6DB",
"v  c #1FA9DF",
"b  c #02ADE6",
"n  c #0CADE6",
"m  c #0EAEE8",
"M  c #15ADE6",
"N  c #1DAEE5",
"B  c #20AEE6",
"V  c #2DAFE6",
"C  c #31AFE6",
"Z  c #3BACE0",
"A  c #20B0E8",
"S  c #34B0E6",
"D  c #3BB0E6",
"F  c #3EB2E8",
"G  c #5CAAD5",
"H  c #42B1E6",
"J  c #4DB3E5",
"K  c #55B3E5",
"L  c #5CB5E5",
"P  c #63B6E5",
"I  c #6BB8E5",
"U  c #76BBE4",
"Y  c #7CBCE4",
"T  c #898887",
"R  c #83878A",
"E  c #8D8D8D",
"W  c #818D98",
"Q  c #949494",
"!  c #9A9A9A",
"~  c #ABABAB",
"^  c gray69",
"/  c #BDBDBD",
"(  c #A4BBCC",
")  c #83BEE4",
"_  c #8CC0E3",
"`  c #92C2E3",
"'  c #9AC5E3",
"]  c #A1C7E2",
"[  c #A7C9E2",
"{  c #ACCBE1",
"}  c #B3CDE1",
"|  c #B9CFE1",
" . c #BED1E0",
".. c #C1C1C1",
"X. c #CDCDCD",
"o. c #D1D0CF",
"O. c #C9CDD0",
"+. c #CDD7DF",
"@. c #CFD8DF",
"#. c LightGray",
"$. c #D4DADF",
"%. c #DDDEDE",
"&. c #E0DFDE",
"*. c #E1E0DF",
"=. c #C3D3E0",
"-. c #C9D5E0",
";. c #D4DAE0",
":. c #D8DCE0",
">. c #E2E1E0",
",. c None",
/* pixels */
",.,.,.,.,.,.,.,.,.,.,.,.,.,.,.,.,.,.,.,.,.,.,.,.,.,.,.,.,.,.,.,.,.,.,.,.,.,.,.,.,.,.,.,.,.,.,.,.,.,.,.,.,.,.,.,.,.,.,.,.,.,.,.,.",
",.,.,.,.,.,.,.,.,.,.,.,.,.,.,.,.,.,.,.,.,.,.,.,.,.,.,.,.,.,.,.,.,.,.,.,.,.,.,.,.,.,.,.,.,.,.,.,.,.,.,.,.,.,.,.,.,.,.,.,.,.,.,.,.",
",.,.,.,.,.,.,.,.,.,.,.,.,.,.,.,.,.,.,.,.,.,.,.,.,.,.,.,.,.,.,.,.,.,.,.,.,.,.,.,.,.,.,.,.,.,.,.,.,.,.,.,.,.,.,.,.,.,.,.,.,.,.,.,.",
",.,.,.,.,.,.,.,.,.,.,.,.,.B B B B B B B ,.,.,.,.,.,.,.,.,.,.,.,.,.,.,.,.,.,.,.,.,.,.,.,.,.,.,.,.,.,.,.,.,.,.,.,.,.,.,.,.,.,.,.,.",
",.,.,.,.,.,.,.,.,.,.,.,.,.B B B B B B B ,.,.,.,.,.,.,.,.,.,.,.,.,.,.,.,.,.,.,.,.,.,.,.,.,.B B B B B B B ,.,.,.,.,.,.,.,.,.,.,.,.",
",.,.,.,.,.,.,.,.,.B B B B B B B B B B B B B B N ,.,.,.,.,.,.,.,.,.,.,.,.,.,.,.,.,.B B B B B B B B B B B B B B ,.,.,.,.,.,.,.,.,.",
",.,.,.,.,.,.,.,.,.B B A B B B B B B B B B B B A ,.,.,.,.,.,.,.,.,.,.,.,.,.,.,.,.,.B B B B B B B B B B B B B B ,.,.,.,.,.,.,.,.,.",
",.,.,.,.,.,.,.B B B N M M N N B B B B B B N M N M ,.,.,.,.,.,.,.,.,.,.,.,.,.,.B B B B B B B B B B B B B B B B B B ,.,.,.,.,.,.,.",
",.,.,.,.,.,.B B B B F | | } U B B B B B N ) | | | D B ,.,.,.,.,.,.,.,.,.,.,.,.B B B J ) ) ) S B B B B N N U ) _ U ,.,.,.,.,.,.,.",
",.,.,.,.,.,.B B B B J %.%.%.` N B B B B B ] %.&.%.D B ,.,.,.,.,.,.,.,.,.,.,.B B B B ) *.%.&.L N B B B A b -.%.%.;.b A ,.,.,.,.,.",
",.,.,.,.,.,.B B N Y ] %.%.%. .' U N B N ` O.&.&.%.' ' ,.,.,.,.,.,.,.,.,.,.,.B B N P ' &.%.%.) I F B B V I @.%.%.$.P I ,.,.,.,.,.",
",.,.,.,.,.,.B B N } %.%.%.%.%.>.{ N N n %.:.&.*.%.%.%.,.,.,.,.,.,.,.,.,.,.,.B B b $.%.%.%.>.>.>.Y B B J *.:.%.&.>.>.>.,.,.,.,.,.",
",.,.,.,.,.,.B B N { %.%.%.X     t B B M %.%.%.(       ,.,.,.,.,.,.,.,.,.,.,.B B b @.%.%.X.= ; : l B B J *.%.%.Q ; ; ; ,.,.,.,.,.",
",.,.,.,.,.,.B B N { %.%.%.X     e B B n $.%.%./       ,.,.,.,.,.,.,.,.,.,.,.B B b @.%.%.X.      j B B J *.%.>.E       ,.,.,.,.,.",
",.,.,.,.B B B B N { %.%.%.X     e B B n %.%.%...      x B ,.,.,.,.,.,.,.B B B B b ;.%.%.X.      k B B J &.&.%.E     @ B ,.,.,.,.",
",.,.,.,.B B B B N _ { %.%.! g t h B N N [ -.%.#.! u t v B ,.,.,.,.,.,.,.B B B N n { -.%.#.T r 8 x B B H | $.*.~ R 7 0 B ,.,.,.,.",
",.,.,.,.B B B B B N J *.%.*.` B B B B B N ] %.%.%.D B B B ,.,.,.,.,.,.,.B B B B B N ) :.%.%.K A B B B N b -.%.:.;.b A B ,.,.,.,.",
",.,.,.,.B B B B B N H =.=.=.Y B B B B B B ) =.=.=.S B B B ,.,.,.,.,.,.,.B B B B B B U -.-.-.J A B B B B n } -.-. .n B B ,.,.,.,.",
",.,.,.,.B B B B B B B n n n N N B B B B B N n n n N B B B ,.,.,.,.,.,.,.B B B B B B N n n n N B B B B B N M n n n B B B ,.,.,.,.",
",.,.,.,.B B B B B B B B B N B B B B B B B B B B N B B B B ,.,.,.,.,.,.,.B B B B B B N A B B B B B B B B B N B B B B B B ,.,.,.,.",
",.,.,.,.B B B B B B B B B B B B B B B B B B B B B B B B B ,.,.,.,.,.,.,.B B B B B B B B B B B B B B B B B B B B B B B B ,.,.,.,.",
",.,.,.,.B B B B B B B B B B B B B B B B B B B B B B B B B ,.,.,.,.,.,.,.B B B B B B B B B B B B B B B B B B B B B B B B ,.,.,.,.",
",.,.,.,.B B B B B B B B B B B B B B B B B B B B B B B B B ,.,.,.,.,.,.,.B B B B B B B B B B B B B B B B B B B B B B B B ,.,.,.,.",
",.,.,.,.B B B B B B B B B B B B B B B B B B B B B B B B B ,.,.,.,.,.,.,.B B B B B B B B B B B B B B B B B B B B B B B B ,.,.,.,.",
",.,.,.,.B B B B B B B B B B B B B B B B B B B B B B B B B ,.,.,.,.,.,.,.B B B B B B B B B B B B B B B B B B B B B B B B ,.,.,.,.",
",.,.,.,.B B B B B B B ,.B B B B B B B B ,.,.B B B B B B B ,.,.,.,.,.,.,.B B ,.,.,.B B B B B ,.,.,.,.B B B B B ,.,.,.B B ,.,.,.,.",
",.,.,.,.,.,.B B B ,.,.,.,.,.B B B B ,.,.,.,.,.,.B B B ,.,.,.,.,.,.,.,.,.B ,.,.,.,.,.,.B B B ,.,.,.,.B B B ,.,.,.,.,.,.B ,.,.,.,.",
",.,.,.,.,.,.B B B ,.,.,.,.,.B B B B ,.,.,.,.,.,.B B B ,.,.,.,.,.,.,.,.,.B ,.,.,.,.,.,.B B B ,.,.,.,.B B B ,.,.,.,.,.,.B ,.,.,.,.",
",.,.,.,.,.,.,.,.,.,.,.,.,.,.,.,.,.,.,.,.,.,.,.,.,.,.,.,.,.,.,.,.,.,.,.,.,.,.,.,.,.,.,.,.,.,.,.,.,.,.,.,.,.,.,.,.,.,.,.,.,.,.,.,.",
",.,.,.,.,.,.,.,.,.,.,.,.,.,.,.,.,.,.,.,.,.,.,.,.,.,.,.,.,.,.,.,.,.,.,.,.,.,.,.,.,.,.,.,.,.,.,.,.,.,.,.,.,.,.,.,.,.,.,.,.,.,.,.,.",
",.,.,.,.,.,.,.,.,.,.,.,.,.,.,.,.,.,.,.,.,.,.,.,.,.,.,.,.,.,.,.,.,.,.,.,.,.,.,.,.,.,.,.,.,.,.,.,.,.,.,.,.,.,.,.,.,.,.,.,.,.,.,.,.",
",.,.,.,.,.,.,.,.,.,.,.,.,.,.,.,.,.,.,.,.,.,.,.,.,.,.,.,.,.,.,.,.,.,.,.,.,.,.,.,.,.,.,.,.,.,.,.,.,.,.,.,.,.,.,.,.,.,.,.,.,.,.,.,.",
",.,.,.,.,.,.,.,.,.,.,.,.,.,.,.,.,.,.,.,.,.,.,.,.,.,.,.,.,.,.,.,.,.,.,.,.,.,.,.,.,.,.,.,.,.,.,.,.,.,.,.,.,.,.,.,.,.,.,.,.,.,.,.,.",
",.,.,.,.,.,.,.,.,.,.,.,.,.,.,.,.,.,.,.,.,.,.,.,.,.,.,.,.,.,.,.,.,.,.,.,.,.,.,.,.,.,.,.,.,.,.,.,.,.,.,.,.,.,.,.,.,.,.,.,.,.,.,.,.",
",.,.,.,.,.,.,.,.,.,.,.,.,.,.,.,.,.,.,.,.,.,.,.,.,.,.,.,.,.,.,.,.,.,.,.,.,.,.,.,.,.,.,.,.,.,.,.,.,.,.,.,.,.,.,.,.,.,.,.,.,.,.,.,.",
",.,.,.,.,.,.,.,.,.,.,.,.,.,.,.,.,.,.,.,.,.,.,.,.,.,.,.,.,.,.,.,.,.,.,.,.,.,.,.,.,.,.,.,.,.B B B B B B B ,.,.,.,.,.,.,.,.,.,.,.,.",
",.,.,.,.,.,.,.,.,.,.,.,.,.B B B B B B B ,.,.,.,.,.,.,.,.,.,.,.,.,.,.,.,.,.,.,.,.,.,.,.,.B B B B B B B B ,.,.,.,.,.,.,.,.,.,.,.,.",
",.,.,.,.,.,.,.,.,.B B B B B B B B B B B B B B B ,.,.,.,.,.,.,.,.,.,.,.,.,.,.,.,.,.B B B B B B B B B B B B B B ,.,.,.,.,.,.,.,.,.",
",.,.,.,.,.,.,.,.,.B B B B B B B B B B B B B B B ,.,.,.,.,.,.,.,.,.,.,.,.,.,.,.,.,.B B B B B B B B B B N B B B B ,.,.,.,.,.,.,.,.",
",.,.,.,.,.,.,.N N N N B B B B B B B N N N B B B B ,.,.,.,.,.,.,.,.,.,.,.,.,.,.m n n M B B B B B B N n M n N B B B ,.,.,.,.,.,.,.",
",.,.,.,.,.,.b ' [ [ ] M B B B B B V [ [ [ ) N B B B B ,.,.,.,.,.,.,.,.,.,.,.n $.%.$.| n B B B B B P %.%.$.Y B B B B B ,.,.,.,.,.",
",.,.,.,.,.,.n -.*.:.;.b B B B B N S %.%.%.[ N B B B B ,.,.,.,.,.,.,.,.,.,.,.b $.%.&. .b n N B B n L %.%.%.Y b M B B B ,.,.,.,.,.",
",.,.,.,.,.,._ +.&.&.%._ ) B B B P _ %.&.:. ._ U N B B ,.,.,.,.,.,.,.,.,.,.,.+.%.%.%.%.+. .n B M { $.%.>.%.$.+._ B B B ,.,.,.,.,.",
",.,.,.,.,.,.&.%.%.%.%.%.&.V B B ' *.%.%.*.%.&.=.n B B ,.,.,.,.,.,.,.,.,.,.,.......%.%.%.+.b B M ( ......%.%.%.' B B B ,.,.,.,.,.",
",.,.,.,.,.,.% % O ^ %.%.%.B B B s + % X %.%.%. .n B B ,.,.,.,.,.,.,.,.,.,.,.      X.%.%.$.b N B 5     & &.%.&.' B B B ,.,.,.,.,.",
",.,.,.,.,.,.      ~ %.%.%.V B B p       #.%.%. .M N B ,.,.,.,.,.,.,.,.,.,.,.      X.%.%.$.b B B 6     = &.%.&.' B B B ,.,.,.,.,.",
",.,.,.,.B B       ^ %.%.%.V B B p       %.%.:.=.n B B B B ,.,.,.,.,.,.,.B j       X.%.%.$.b B B 6     & :.*.&.' B B B B ,.,.,.,.",
",.,.,.,.B N 9 f E ..%.} | B B B j q E E %.+.| ' N B B B B ,.,.,.,.,.,.,.B N z X.X.%.+.L L N B B c G o.#.*.` P H B B B B ,.,.,.,.",
",.,.,.,.B B n =.>.&.$.b M N B B B C >.>.%.[ M M N B B B B ,.,.,.,.,.,.,.B B n %.&.%.=.n N B B B B P *.&.&.Y B B B B N B ,.,.,.,.",
",.,.,.,.B B n } -.-.=.M B B B B B V -.-.-.' N B B B B B B ,.,.,.,.,.,.,.B B N Y ) ) U N B B B B B F ) ) ) J B B B B B B ,.,.,.,.",
",.,.,.,.B B B n b b b B B B B B B B b b b M B B B B B B B ,.,.,.,.,.,.,.B B N B B B B B B B B B B B B B B B B B B B B B ,.,.,.,.",
",.,.,.,.B B B B B B B B B B B B B B B B B B B B B B B B B ,.,.,.,.,.,.,.B B B B B B B B B B B B B B B B B B B B B B B B ,.,.,.,.",
",.,.,.,.B B B B B B B B B B B B B B B B B B B B B B B B B ,.,.,.,.,.,.,.B B B B B N B B B B B B B B B B B B B B B B B B ,.,.,.,.",
",.,.,.,.B B B B B B B B B B B B B B B B B B B B B B B B B ,.,.,.,.,.,.,.B B B B B B B B B B B B B B B B B B B B B B B B ,.,.,.,.",
",.,.,.,.B B B B B B B B B B B B B B B B B B B B B B B B B ,.,.,.,.,.,.,.B B B B B B B B B B B B B B B B B B B B B B B B ,.,.,.,.",
",.,.,.,.B B B B B B B B B B B B B B B B B B B B B B B B B ,.,.,.,.,.,.,.B B B B B B B B B B B B B B B B B B B B B B B B ,.,.,.,.",
",.,.,.,.B B B B B B B B B B B B B B B B B B B B B B B B B ,.,.,.,.,.,.,.B B B ,.B B B B B B B ,.,.B B B B B B B ,.B B B ,.,.,.,.",
",.,.,.,.B B B B B B B ,.B B B B B B B B ,.,.B B B B B B B ,.,.,.,.,.,.,.B B ,.,.,.B B B B B ,.,.,.,.B B B B B ,.,.,.B B ,.,.,.,.",
",.,.,.,.,.,.B B B ,.,.,.,.,.B B B B ,.,.,.,.,.,.B B B ,.,.,.,.,.,.,.,.,.B ,.,.,.,.,.,.B B B ,.,.,.,.B B B ,.,.,.,.,.,.B ,.,.,.,.",
",.,.,.,.,.,.B B B ,.,.,.,.,.B B B B ,.,.,.,.,.,.B B ,.,.,.,.,.,.,.,.,.,.B ,.,.,.,.,.,.B B B ,.,.,.,.B B B ,.,.,.,.,.,.B ,.,.,.,.",
",.,.,.,.,.,.,.,.,.,.,.,.,.,.,.,.,.,.,.,.,.,.,.,.,.,.,.,.,.,.,.,.,.,.,.,.,.,.,.,.,.,.,.,.,.,.,.,.,.,.,.,.,.,.,.,.,.,.,.,.,.,.,.,.",
",.,.,.,.,.,.,.,.,.,.,.,.,.,.,.,.,.,.,.,.,.,.,.,.,.,.,.,.,.,.,.,.,.,.,.,.,.,.,.,.,.,.,.,.,.,.,.,.,.,.,.,.,.,.,.,.,.,.,.,.,.,.,.,.",
",.,.,.,.,.,.,.,.,.,.,.,.,.,.,.,.,.,.,.,.,.,.,.,.,.,.,.,.,.,.,.,.,.,.,.,.,.,.,.,.,.,.,.,.,.,.,.,.,.,.,.,.,.,.,.,.,.,.,.,.,.,.,.,.",
",.,.,.,.,.,.,.,.,.,.,.,.,.,.,.,.,.,.,.,.,.,.,.,.,.,.,.,.,.,.,.,.,.,.,.,.,.,.,.,.,.,.,.,.,.,.,.,.,.,.,.,.,.,.,.,.,.,.,.,.,.,.,.,.",
",.,.,.,.,.,.,.,.,.,.,.,.,.,.,.,.,.,.,.,.,.,.,.,.,.,.,.,.,.,.,.,.,.,.,.,.,.,.,.,.,.,.,.,.,.,.,.,.,.,.,.,.,.,.,.,.,.,.,.,.,.,.,.,.",
",.,.,.,.,.,.,.,.,.,.,.,.,.,.,.,.,.,.,.,.,.,.,.,.,.,.,.,.,.,.,.,.,.,.,.,.,.,.,.,.,.,.,.,.,.,.,.,.,.,.,.,.,.,.,.,.,.,.,.,.,.,.,.,.",
",.,.,.,.,.,.,.,.,.,.,.,.,.,.,.,.,.,.,.,.,.,.,.,.,.,.,.,.,.,.,.,.,.,.,.,.,.,.,.,.,.,.,.,.,.,.,.,.,.,.,.,.,.,.,.,.,.,.,.,.,.,.,.,.",
",.,.,.,.,.,.,.,.,.,.,.,.,.B B B B B B B ,.,.,.,.,.,.,.,.,.,.,.,.,.,.,.,.,.,.,.,.,.,.,.,.,.,.,.,.,.,.,.,.,.,.,.,.,.,.,.,.,.,.,.,.",
",.,.,.,.,.,.,.,.,.,.,.,.,.B B B B B B B ,.,.,.,.,.,.,.,.,.,.,.,.,.,.,.,.,.,.,.,.,.,.,.,.,.B B B B B B B ,.,.,.,.,.,.,.,.,.,.,.,.",
",.,.,.,.,.,.,.,.,.B B B B B B B B B B B B B B B ,.,.,.,.,.,.,.,.,.,.,.,.,.,.,.,.,.B B B B B B B B B B B B B B ,.,.,.,.,.,.,.,.,.",
",.,.,.,.,.,.,.,.,.B B B B B B B B B B B B B B B ,.,.,.,.,.,.,.,.,.,.,.,.,.,.,.,.,.B B B B B B B B B B B B B B ,.,.,.,.,.,.,.,.,.",
",.,.,.,.,.,.,.B B B B B B B B B B B B B B B B B B ,.,.,.,.,.,.,.,.,.,.,.,.,.,.B B B B B B B B B B B B B B B B B B ,.,.,.,.,.,.,.",
",.,.,.,.,.,.B B B B B B B B B B B B B B B B B B B B B ,.,.,.,.,.,.,.,.,.,.,.,.B B B B B B B B B B B B B B B B B B ,.,.,.,.,.,.,.",
",.,.,.,.,.,.B B B N B B B B B B B B B B B B B B B N B ,.,.,.,.,.,.,.,.,.,.,.B B B B B B B B B B B B B B B B N B B B B ,.,.,.,.,.",
",.,.,.,.,.,.B B N Y ' ' ' B B B B B B N ` ' ' ) N N B ,.,.,.,.,.,.,.,.,.,.,.B B N V C V V B B B B B B B V V V V B B B ,.,.,.,.,.",
",.,.,.,.,.,.N V V } %.%.%.C V B B B C A %.%.%.=.V B B ,.,.,.,.,.,.,.,.,.,.,.B M b +.%.%.@.b N B B B M F %.%.%.' M B B ,.,.,.,.,.",
",.,.,.,.,.,.n =.%.%.%.%.%.&.` B B C %.%.%.:.&.&.%.D N ,.,.,.,.,.,.,.,.,.,.,.M } } $.&.%.%.| K B B K | | %.%.%.-.} M N ,.,.,.,.,.",
",.,.,.,.,.,.b -.%.%.%.&.%.%.` B B C %.%.%.%.%.&.%.D B ,.,.,.,.,.,.,.,.,.,.,.n $.%.%.&.&.%.%.P N B P &.%.%.&.%.%.$.n B ,.,.,.,.,.",
",.,.,.,.B B n =.%.%.%.%.%.&.` B B C %.%.%.%.%.%.&.D B B B ,.,.,.,.,.,.,.,.B n $.%.%.&.&.%.%.P N B P %.%.%.%.&.%.$.n B ,.,.,.,.,.",
",.,.,.,.B N n =.%./ ~ ~ ~ %.` B B C %.%.~ ~ ~ / %.D B B B ,.,.,.,.,.,.,.B B n %.%.%.%.#.%.%.P B B P %.%.%.%.%.%.$.n B B ,.,.,.,.",
",.,.,.,.B B n =.%.!     X $.` N B S %.:.-     f &.F A N B ,.,.,.,.,.,.,.B B n $.*.3     2 >.P A B P &.#.      ~ $.n B B ,.,.,.,.",
",.,.,.,.B B M [ =.f     o +.Y B B V =.=.-     i  .S B B B ,.,.,.,.,.,.,.B B n $.>.3     2 >.P B B P &.%.      ~ %.b B B ,.,.,.,.",
",.,.,.,.B B N M m w       n N B B B n m #     1 m N B B B ,.,.,.,.,.,.,.B B N F H 1     , F V N B B F Z       d F N B B ,.,.,.,.",
",.,.,.,.B B B B A N N B B B B B B B B B N N B B A B B B B ,.,.,.,.,.,.,.B B B B A a p t p B B B B B B B y y y l B B B B ,.,.,.,.",
",.,.,.,.B B B B B B B B B B B B B B B B B B B B B B B B B ,.,.,.,.,.,.,.B B B B B B B B B B B B B B B B B B B B B B B B ,.,.,.,.",
",.,.,.,.B B B B B B B B B B B B N B B B B B B B B B B B B ,.,.,.,.,.,.,.B B B B N B B B B B B B B B B B B B B B B B B B ,.,.,.,.",
",.,.,.,.B B B B B B B B B B B B B B B B B B B B B B B B B ,.,.,.,.,.,.,.B B B B B B B B B B B B B N B B B B B B B B B B ,.,.,.,.",
",.,.,.,.B B B B B B B B B B B B B B B B B B B B B B B B B ,.,.,.,.,.,.,.B B B B B B B B B B B B B B B B B B B B B B B B ,.,.,.,.",
",.,.,.,.B B B B B B B B B B B B B B B B B B B B B B B B B ,.,.,.,.,.,.,.B B B B B B B B B B B B B B B B B B B B B B B B ,.,.,.,.",
",.,.,.,.B B B B B B B ,.B B B B B B B B ,.,.B B B B B B B ,.,.,.,.,.,.,.B B ,.,.B B B B B B ,.,.,.,.B B B B B B ,.,.B B ,.,.,.,.",
",.,.,.,.,.,.B B B ,.,.,.,.,.B B B B ,.,.,.,.,.,.B B B ,.,.,.,.,.,.,.,.,.B B ,.,.,.B B B B B ,.,.,.,.B B B B B ,.,.,.B B ,.,.,.,.",
",.,.,.,.,.,.B B B ,.,.,.,.,.B B B B ,.,.,.,.,.,.B B B ,.,.,.,.,.,.,.,.,.B ,.,.,.,.,.,.B B B ,.,.,.,.B B B ,.,.,.,.,.,.B ,.,.,.,.",
",.,.,.,.,.,.,.,.,.,.,.,.,.,.,.,.,.,.,.,.,.,.,.,.,.,.,.,.,.,.,.,.,.,.,.,.B ,.,.,.,.,.,.B B B ,.,.,.,.B B B ,.,.,.,.,.,.B ,.,.,.,.",
",.,.,.,.,.,.,.,.,.,.,.,.,.,.,.,.,.,.,.,.,.,.,.,.,.,.,.,.,.,.,.,.,.,.,.,.,.,.,.,.,.,.,.,.,.,.,.,.,.,.,.,.,.,.,.,.,.,.,.,.,.,.,.,.",
",.,.,.,.,.,.,.,.,.,.,.,.,.,.,.,.,.,.,.,.,.,.,.,.,.,.,.,.,.,.,.,.,.,.,.,.,.,.,.,.,.,.,.,.,.,.,.,.,.,.,.,.,.,.,.,.,.,.,.,.,.,.,.,.",
",.,.,.,.,.,.,.,.,.,.,.,.,.,.,.,.,.,.,.,.,.,.,.,.,.,.,.,.,.,.,.,.,.,.,.,.,.,.,.,.,.,.,.,.,.,.,.,.,.,.,.,.,.,.,.,.,.,.,.,.,.,.,.,.",
",.,.,.,.,.,.,.,.,.,.,.,.,.,.,.,.,.,.,.,.,.,.,.,.,.,.,.,.,.,.,.,.,.,.,.,.,.,.,.,.,.,.,.,.,.,.,.,.,.,.,.,.,.,.,.,.,.,.,.,.,.,.,.,.",
",.,.,.,.,.,.,.,.,.,.,.,.,.,.,.,.,.,.,.,.,.,.,.,.,.,.,.,.,.,.,.,.,.,.,.,.,.,.,.,.,.,.,.,.,.,.,.,.,.,.,.,.,.,.,.,.,.,.,.,.,.,.,.,.",
",.,.,.,.,.,.,.,.,.,.,.,.,.,.,.,.,.,.,.,.,.,.,.,.,.,.,.,.,.,.,.,.,.,.,.,.,.,.,.,.,.,.,.,.,.,.,.,.,.,.,.,.,.,.,.,.,.,.,.,.,.,.,.,.",
",.,.,.,.,.,.,.,.,.,.,.,.,.,.,.,.,.,.,.,.,.,.,.,.,.,.,.,.,.,.,.,.,.,.,.,.,.,.,.,.,.,.,.,.,.B B B B B B B ,.,.,.,.,.,.,.,.,.,.,.,.",
",.,.,.,.,.,.,.,.,.,.,.,.,.B B B B B B B ,.,.,.,.,.,.,.,.,.,.,.,.,.,.,.,.,.,.,.,.,.,.,.,.,.B B B B B B N ,.,.,.,.,.,.,.,.,.,.,.,.",
",.,.,.,.,.,.,.,.,.      . B B B B B B A $       ,.,.,.,.,.,.,.,.,.,.,.,.,.,.,.,.,.      > A B B B B B N       ,.,.,.,.,.,.,.,.,.",
",.,.,.,.,.,.,.,.,.      . b N B B B n n $       ,.,.,.,.,.,.,.,.,.,.,.,.,.,.,.,.,.%     < L V N B V K G       2 ,.,.,.,.,.,.,.,.",
",.,.,.,.,.,.,.%.*.Q     X $._ B B C $.:.-     4 %.,.,.,.,.,.,.,.,.,.,.,.,.,.,.%.>.3     2 *.P N B P &.%.      ~ %.,.,.,.,.,.,.,.",
",.,.,.,.,.,.,.$.%./ Q ! ! %.` B B C %.&.! ! ! ^ >.,.,.,.,.,.,.,.,.,.,.,.,.,.b %.%.X.X.X.O.&.P B B P &.%.X.X.X.#.$.b B ,.,.,.,.,.",
",.,.,.,.,.,.n =.%.%.%.%.*.%.` N B C %.&.%.%.%.%.%.D B ,.,.,.,.,.,.,.,.,.,.,.n %.&.%.%.%.&.%.P B B P &.%.%.%.%.%.$.n B ,.,.,.,.,.",
",.,.,.,.,.,.b =.%.%.%.%.%.%.` B B C %.%.%.%.%.%.%.Z N ,.,.,.,.,.,.,.,.,.,.,.n $.%.%.%.%.&.&.P N B P &.%.&.%.%.%.$.n B ,.,.,.,.,.",
",.,.,.,.,.,.n +.*.&.%.%.%.*.` B B C &.*.*.:.%.%.&.F B ,.,.,.,.,.,.,.,.,.,.,.n -.;.%.%.%.%.;.L B B L $.$.%.%.%.:.-.M B ,.,.,.,.,.",
",.,.,.,.,.,.N F F | %.%.%.H S B B B H F $.&.&.=.F B B ,.,.,.,.,.,.,.,.,.,.,.B b b +.%.%.@.b N B B N b C &.&.&.' b A B ,.,.,.,.,.",
",.,.,.,.,.,.B B N { &.&.%.V B B B B N M %.&.&.=.m B B ,.,.,.,.,.,.,.,.,.,.,.B B b -.%.$.;.b N B B B N H %.%.$.' B B B ,.,.,.,.,.",
",.,.,.,.B B B B N K P P P B B B B B B N P P P L N B B B B ,.,.,.,.,.,.,.B B B B B N N M N N B B B B B B M M N N B B B B ,.,.,.,.",
",.,.,.,.B B B B B B B B B B B B B B B B B B B B B B B B B ,.,.,.,.,.,.,.B B B B B B B N B B B B B B B B B B B B B B B B ,.,.,.,.",
",.,.,.,.B B B B B B B B B B B B B B B B B B B B B B B B B ,.,.,.,.,.,.,.B B B B B B B B B B B B B B B B B B B B B B B B ,.,.,.,.",
",.,.,.,.B B B B B B B B B B B B B B B B B B B B B B B B B ,.,.,.,.,.,.,.B B B B B B B B B B B B B B B B B B B B B B B B ,.,.,.,.",
",.,.,.,.B B B B B B B B B B B N B B B B B B B B B B B B B ,.,.,.,.,.,.,.B B B B B B B B B B B B B B B B B B B B B B B B ,.,.,.,.",
",.,.,.,.B B B B B B B B B B B B B B B B B B B B B B B B B ,.,.,.,.,.,.,.B B B B B B B B B B B B B B B B B B B B B B B B ,.,.,.,.",
",.,.,.,.B B B B B B B B B B B B B B B B B B B B B B B B B ,.,.,.,.,.,.,.B B B B B B B B B B B B B B B B B B B B B B B B ,.,.,.,.",
",.,.,.,.B B B B B B B B B B B B B B B B B B B B B B B B B ,.,.,.,.,.,.,.B B B B B N B B B B B B B B B B B B B B B B B B ,.,.,.,.",
",.,.,.,.B B B B B B B B B B B B B B B B B B B B B B B B B ,.,.,.,.,.,.,.B B B B B B B B B B B B B A B B B B B B B B B B ,.,.,.,.",
",.,.,.,.B B B B B B B B B B B B B B B B B B N B B B B B B ,.,.,.,.,.,.,.B B B B B B B B B B B B B N B B B B B B B B B B ,.,.,.,.",
",.,.,.,.B B B B B B B B B B B B B B B B B B B B B B B B B ,.,.,.,.,.,.,.B B B B B B B B B B B B B B B B B B B B B B B B ,.,.,.,.",
",.,.,.,.B B B B B B B ,.B B B B B B B B ,.,.B B B B B B B ,.,.,.,.,.,.,.B B ,.,.,.B B B B B ,.,.,.,.B B B B B ,.,.,.B B ,.,.,.,.",
",.,.,.,.,.,.B B B ,.,.,.,.,.B B B B ,.,.,.,.,.,.B B B ,.,.,.,.,.,.,.,.,.B ,.,.,.,.,.,.B B B ,.,.,.,.B B B ,.,.,.,.,.,.B ,.,.,.,.",
",.,.,.,.,.,.B B B ,.,.,.,.,.B B B B ,.,.,.,.,.,.B B ,.,.,.,.,.,.,.,.,.,.B ,.,.,.,.,.,.B B B ,.,.,.,.B B B ,.,.,.,.,.,.B ,.,.,.,.",
",.,.,.,.,.,.,.,.,.,.,.,.,.,.,.,.,.,.,.,.,.,.,.,.,.,.,.,.,.,.,.,.,.,.,.,.,.,.,.,.,.,.,.,.,.,.,.,.,.,.,.,.,.,.,.,.,.,.,.,.,.,.,.,.",
",.,.,.,.,.,.,.,.,.,.,.,.,.,.,.,.,.,.,.,.,.,.,.,.,.,.,.,.,.,.,.,.,.,.,.,.,.,.,.,.,.,.,.,.,.,.,.,.,.,.,.,.,.,.,.,.,.,.,.,.,.,.,.,.",
",.,.,.,.,.,.,.,.,.,.,.,.,.,.,.,.,.,.,.,.,.,.,.,.,.,.,.,.,.,.,.,.,.,.,.,.,.,.,.,.,.,.,.,.,.,.,.,.,.,.,.,.,.,.,.,.,.,.,.,.,.,.,.,.",
",.,.,.,.,.,.,.,.,.,.,.,.,.,.,.,.,.,.,.,.,.,.,.,.,.,.,.,.,.,.,.,.,.,.,.,.,.,.,.,.,.,.,.,.,.,.,.,.,.,.,.,.,.,.,.,.,.,.,.,.,.,.,.,."
};
