/* XPM */
static char *all[] = {
/* columns rows colors chars-per-pixel */
"96 128 2 1 ",
"  c #FFF100",
". c None",
/* pixels */
"................................................................................................",
"................................................................................................",
"................................................................................................",
"................................................................................................",
"...........          .......................         ........................         ..........",
"...........          .......................         ........................         ..........",
"........                .................                ................             ..........",
"........                ................                 ................             ..........",
"......                    .............                   ..............            ............",
"......                    .............                   ..............            ............",
"......                    .............                   ..............          ..............",
"....                        .........                  ...............          ................",
"....                        .........                  ..............           ................",
"....                        .........                 ...............           ................",
"....                        .........             ...................          .................",
"....                        .........             ...................          .................",
"....                        .........       .........................        ...................",
"....                        .........             ...................          .................",
"....                        .........             ...................          .................",
"....                        .........                  ..............           ................",
"....                        .........                  ...............          ................",
"......                    .............                   ..............          ..............",
"......                    .............                   ..............          ..............",
"......                    .............                   ..............            ............",
"........                ................                 ................             ..........",
"........                ................                 ................             ..........",
"...........          .......................         .......................          ..........",
"...........          .......................         ........................         ..........",
"................................................................................................",
"................................................................................................",
"................................................................................................",
"................................................................................................",
"................................................................................................",
"................................................................................................",
"................................................................................................",
"................................................................................................",
"...........          ...........................................................................",
"...........          ......................          .......................        ............",
"........                ...................          ......................          ...........",
"........                ................                ...................          ...........",
"......                    ............                   ...............                ........",
"......                    ............                    ............                    ......",
"......                    ............                    ............                    ......",
"....                        ..........                    ............                    ......",
"....                        ........           .            .........                     ......",
"....                        ........           .            ........           .            ....",
"....                        ........           .            ........           .            ....",
"....                        ........           .            ........         .....          ....",
"....                        ........           .            ........       ..........       ....",
"....                        ........           .            ........       ..........       ....",
"....                        ........         .....          ........     .............      ....",
"....                        ........         .....          ........     .............      ....",
"....                        ........         .....          ........    ................    ....",
"......                    ............       .....        ..........    ................    ....",
"......                    ............       ......       ......................................",
"......                    ............     ..........     ......................................",
"........                ..............     ..........     ......................................",
"........                ................   ..........   ........................................",
"...........          ...........................................................................",
"...........          ...........................................................................",
"................................................................................................",
"................................................................................................",
"................................................................................................",
"................................................................................................",
"................................................................................................",
"................................................................................................",
"................................................................................................",
"................................................................................................",
"...........          ...........................................................................",
"...........          ...........................................................................",
"........                ................   ..........   ........................................",
"........                ..............     ..........     ......................................",
"......                    ............     ..........     ......................................",
"......                    ............       ......       ......................................",
"......                    ............        .....       ..........    ................    ....",
"....                        ........          .....         ........    ................    ....",
"....                        ........          .....         ........      .............     ....",
"....                        ........          .....         ........      .............     ....",
"....                        ........            .           ........       ..........       ....",
"....                        ........            .           ........       ..........       ....",
"....                        ........            .           ........          .....         ....",
"....                        ........            .           ........            .           ....",
"....                        ........            .           ........            .           ....",
"....                        ........            .           ..........                     .....",
"....                        ..........                    ............                    ......",
"......                    ............                    ............                    ......",
"......                    ............                    ............                    ......",
"......                    .............                   ..............                ........",
"........                ................                ...................          ...........",
"........                ...................          ......................          ...........",
"...........          ......................          .......................        ............",
"...........          ...........................................................................",
"................................................................................................",
"................................................................................................",
"................................................................................................",
"................................................................................................",
"................................................................................................",
"................................................................................................",
"................................................................................................",
"................................................................................................",
"...........          ......................         ......................         .............",
"...........          ......................         ......................          ............",
"........                ...............                 ..................             .........",
"........                ...............                 ..................             .........",
"......                    ............                   ...................            ........",
"......                    ............                   .....................          ........",
"......                    ............                   .....................          ........",
"....                        .............                  .....................          ......",
"....                        .............                  .....................           .....",
"....                        ..................             ......................          .....",
"....                        ..................             ......................          .....",
"....                        ........................       ........................        .....",
"....                        ..................             ......................          .....",
"....                        ..................             ......................          .....",
"....                        ..............                 .....................           .....",
"....                        .............                  .....................           .....",
"....                        .............                  .....................          ......",
"......                    ............                   .....................          ........",
"......                    ............                   ...................            ........",
"......                    ............                   ...................            ........",
"........                ...............                 ..................             .........",
"........                ...............                ...................             .........",
"...........          ......................         ......................         .............",
"...........          ......................         ......................         .............",
"................................................................................................",
"................................................................................................",
"................................................................................................",
"................................................................................................"
};
