/* XPM */
static char *s0[] = {
/* columns rows colors chars-per-pixel */
"96 32 2 1 ",
"  c #FFF100",
". c None",
/* pixels */
"................................................................................................",
"................................................................................................",
"................................................................................................",
"................................................................................................",
"...........          .......................         ........................         ..........",
"...........          .......................         ........................         ..........",
"........                .................                ................             ..........",
"........                ................                 ................             ..........",
"......                    .............                   ..............            ............",
"......                    .............                   ..............            ............",
"......                    .............                   ..............          ..............",
"....                        .........                  ...............          ................",
"....                        .........                  ..............           ................",
"....                        .........                 ...............           ................",
"....                        .........             ...................          .................",
"....                        .........             ...................          .................",
"....                        .........       .........................        ...................",
"....                        .........             ...................          .................",
"....                        .........             ...................          .................",
"....                        .........                  ..............           ................",
"....                        .........                  ...............          ................",
"......                    .............                   ..............          ..............",
"......                    .............                   ..............          ..............",
"......                    .............                   ..............            ............",
"........                ................                 ................             ..........",
"........                ................                 ................             ..........",
"...........          .......................         .......................          ..........",
"...........          .......................         ........................         ..........",
"................................................................................................",
"................................................................................................",
"................................................................................................",
"................................................................................................"
};
