/* XPM */
static char *s1[] = {
/* columns rows colors chars-per-pixel */
"96 32 2 1 ",
"  c #FFF100",
". c None",
/* pixels */
"................................................................................................",
"................................................................................................",
"................................................................................................",
"................................................................................................",
"...........          ...........................................................................",
"...........          ......................          .......................        ............",
"........                ...................          ......................          ...........",
"........                ................                ...................          ...........",
"......                    ............                   ...............                ........",
"......                    ............                    ............                    ......",
"......                    ............                    ............                    ......",
"....                        ..........                    ............                    ......",
"....                        ........           .            .........                     ......",
"....                        ........           .            ........           .            ....",
"....                        ........           .            ........           .            ....",
"....                        ........           .            ........         .....          ....",
"....                        ........           .            ........       ..........       ....",
"....                        ........           .            ........       ..........       ....",
"....                        ........         .....          ........     .............      ....",
"....                        ........         .....          ........     .............      ....",
"....                        ........         .....          ........    ................    ....",
"......                    ............       .....        ..........    ................    ....",
"......                    ............       ......       ......................................",
"......                    ............     ..........     ......................................",
"........                ..............     ..........     ......................................",
"........                ................   ..........   ........................................",
"...........          ...........................................................................",
"...........          ...........................................................................",
"................................................................................................",
"................................................................................................",
"................................................................................................",
"................................................................................................"
};
