/* XPM */
static char *pacman_daying[] = {
/* columns rows colors chars-per-pixel */
"352 32 2 1 ",
"  c #FFF100",
". c None",
/* pixels */
"................................................................................................................................................................................................................................................................................................................................................................",
"................................................................................................................................................................................................................................................................................................................................................................",
"................................................................................................................................................................................................................................................................................................................................................................",
"................................................................................................................................................................................................................................................................................................................................................................",
"................................................................................................................................................................................................................................................................................................................................................................",
"................................................................................................................................................................................................................................................................................................................................................................",
"................................................................................................................................................................................................................................................................................................................................................................",
"....   .................   ................................................................................................................................................................................................................................................................................................................  .....   ...........",
"....    ................   ................................................................................................................................................................................................................................................................................................................  .....   ...........",
"....    ...............    .........  ....................  ............................................................................................................................................................................................................................................................................  ...  .. ..............",
"....      ............     .........   ..................   ...................................................................................................................................................................................................................  ......................................................... ...........  ........",
"....       .........       ........       ............       ..................................................................................................................................................  ..............................  ..............................  ......................................................... ...........  ........",
"....       .........       ........       ............       ......     ................     ................................................................................     .............................  ..............................  ..............................  ..............................  .................................... ..........",
"....         .....         ........        ..........        ......     ................     ................................................................................     ...........................     ...........................     .............................  ..............................  .................................... ..........",
"....         .....         ........        .........         ......          ......          ......       ............       .............            ....................            ....................            .....................         .........................     .............................  .....................    ......................",
"....           ..          ........            ..            ......          .....           ......                          .............            ....................            ....................            .....................          ........................     .............................  .....................    ......................",
"....           ..          .........                        .......                          ......                          ......                          .......                        ............                ...................          ........................     .............................  .....................................    ......",
"......                   ...........                        .......                          ......                          ......                          .......                        ............                ...................          ........................     .............................  ......................... .....................",
"......                   ...........                        ........                        .......                          ......                          ......                          .......                        ..............            .......................     .............................  ......................... .....................",
"......                   ...........                        ..........                    ..........                        ........                        ........           ..           ........                        ..............            ......................        ...........................  ......................... .....................",
"........                ..............                    ............                    ..........                        ........                        ........           ..           ........           ..           ............                ...................          ..........................  .......................  ........... ..........",
"........                ..............                    ...............      ..     ..................       ..       ................       ..       ...............       ....      ..............        ....        ................     ..     .......................  .. .............................  ............................  .. ....  ........",
"...........         ......................     ..     ....................     ..     ..................................................       ..       ................     .....      ..............       .....        ................     ..     .......................  .. ...........................................................  .. ....  ........",
"...........         ...................................................................................................................................................................................      ......      ..................................................................................................................  .....   ...........",
"............................................................................................................................................................................................................................................................................................................................................ ...... ............",
"................................................................................................................................................................................................................................................................................................................................................................",
"................................................................................................................................................................................................................................................................................................................................................................",
"................................................................................................................................................................................................................................................................................................................................................................",
"................................................................................................................................................................................................................................................................................................................................................................",
"................................................................................................................................................................................................................................................................................................................................................................",
"................................................................................................................................................................................................................................................................................................................................................................",
"................................................................................................................................................................................................................................................................................................................................................................"
};
