/* XPM */
static char *ghost_down[] = {
/* columns rows colors chars-per-pixel */
"64 32 102 2 ",
"   c black",
".  c #200020",
"X  c #280A28",
"o  c #3A003A",
"O  c #411441",
"+  c #570057",
"@  c #5C005C",
"#  c #5E215E",
"$  c #600060",
"%  c #650065",
"&  c #6F006F",
"*  c #780078",
"=  c #790079",
"-  c #7A007A",
";  c #7B007B",
":  c #7C007C",
">  c #7D007D",
",  c #7E007E",
"<  c #7F007F",
"1  c #434343",
"2  c #454345",
"3  c gray28",
"4  c #494949",
"5  c #6A686A",
"6  c #6D6D6D",
"7  c #6F6F6F",
"8  c gray44",
"9  c #800080",
"0  c #800180",
"q  c #810081",
"w  c #810B81",
"e  c #810F81",
"r  c #811381",
"t  c #811481",
"y  c #821982",
"u  c #821A82",
"i  c #821B82",
"p  c #821C82",
"a  c #821E82",
"s  c #853285",
"d  c #863086",
"f  c #863286",
"g  c #863386",
"h  c #873387",
"j  c #893F89",
"k  c #8C498C",
"l  c #8D4C8D",
"z  c #8E4E8E",
"x  c #8E4F8E",
"c  c #915691",
"v  c #925B92",
"b  c #966396",
"n  c #986898",
"m  c #996A99",
"M  c #996B99",
"N  c #9A6E9A",
"B  c #9E769E",
"V  c #A17BA1",
"C  c #979497",
"Z  c gray62",
"A  c #9FA09F",
"S  c #B9A6B9",
"D  c #BAA7BA",
"F  c #BEAFBE",
"G  c gray",
"H  c #C1B3C1",
"J  c #C2B5C2",
"K  c #C3B7C3",
"L  c #C4B7C4",
"P  c #C4B8C4",
"I  c #C1C1C1",
"U  c #C5C5C5",
"Y  c #CEC6CE",
"T  c #CEC7CE",
"R  c #CFC8CF",
"E  c #CECECE",
"W  c #D1CDD1",
"Q  c #D2CCD2",
"!  c #D4D0D4",
"~  c #D5D1D5",
"^  c #D7D3D7",
"/  c #D7D5D7",
"(  c #D8D5D8",
")  c #D8D6D8",
"_  c #D9D6D9",
"`  c #DAD9DA",
"'  c #DBD9DB",
"]  c gray86",
"[  c #DCDBDC",
"{  c gainsboro",
"}  c #DCDDDC",
"|  c #DDDCDD",
" . c #DDDDDD",
".. c gray87",
"X. c #DFDFDF",
"o. c #DFE0DF",
"O. c gray88",
"+. c #E0E1E0",
"@. c #E1E1E1",
"#. c #E1E2E1",
"$. c #E2E3E2",
"%. c None",
/* pixels */
"%.%.%.%.%.%.%.%.%.%.%.%.%.%.%.%.%.%.%.%.%.%.%.%.%.%.%.%.%.%.%.%.%.%.%.%.%.%.%.%.%.%.%.%.%.%.%.%.%.%.%.%.%.%.%.%.%.%.%.%.%.%.%.%.",
"%.%.%.%.%.%.%.%.%.%.%.%.%.%.%.%.%.%.%.%.%.%.%.%.%.%.%.%.%.%.%.%.%.%.%.%.%.%.%.%.%.%.%.%.%.%.%.%.%.%.%.%.%.%.%.%.%.%.%.%.%.%.%.%.",
"%.%.%.%.%.%.%.%.%.%.%.%.%.%.%.%.%.%.%.%.%.%.%.%.%.%.%.%.%.%.%.%.%.%.%.%.%.%.%.%.%.%.%.%.%.%.%.%.%.%.%.%.%.%.%.%.%.%.%.%.%.%.%.%.",
"%.%.%.%.%.%.%.%.%.%.%.%.%.%.%.%.%.%.%.%.%.%.%.%.%.%.%.%.%.%.%.%.%.%.%.%.%.%.%.%.%.%.%.%.%.%.%.%.%.%.%.%.%.%.%.%.%.%.%.%.%.%.%.%.",
"%.%.%.%.%.%.%.%.%.%.%.%.%.9 9 9 9 9 9 9 %.%.%.%.%.%.%.%.%.%.%.%.%.%.%.%.%.%.%.%.%.%.%.%.%.9 9 9 9 9 9 9 %.%.%.%.%.%.%.%.%.%.%.%.",
"%.%.%.%.%.%.%.%.%.9 9 9 9 9 9 9 9 9 9 9 9 9 9 9 %.%.%.%.%.%.%.%.%.%.%.%.%.%.%.%.%.9 9 9 9 9 9 9 9 9 9 9 9 9 9 %.%.%.%.%.%.%.%.%.",
"%.%.%.%.%.%.%.%.%.9 9 9 9 9 9 9 9 9 9 9 9 9 9 9 %.%.%.%.%.%.%.%.%.%.%.%.%.%.%.%.%.9 9 9 9 9 9 9 9 9 9 9 9 9 9 9 %.%.%.%.%.%.%.%.",
"%.%.%.%.%.%.%.9 9 9 9 9 9 9 9 9 9 9 9 9 9 9 9 9 9 %.%.%.%.%.%.%.%.%.%.%.%.%.%.9 9 9 9 9 9 9 9 9 9 9 9 9 9 9 9 9 9 %.%.%.%.%.%.%.",
"%.%.%.%.%.%.%.9 9 9 9 9 9 9 9 9 9 9 9 9 9 9 9 9 9 %.%.%.%.%.%.%.%.%.%.%.%.%.%.9 9 9 9 9 9 9 9 9 9 9 9 9 9 9 9 9 9 %.%.%.%.%.%.%.",
"%.%.%.%.%.%.9 9 9 9 9 9 9 9 9 9 9 9 9 9 9 9 9 9 9 9 9 %.%.%.%.%.%.%.%.%.%.%.9 9 9 9 9 9 9 9 9 9 9 9 9 9 9 9 9 9 9 9 9 %.%.%.%.%.",
"%.%.%.%.%.%.9 9 < N V V B < 9 9 9 9 9 e V V V v 9 9 9 %.%.%.%.%.%.%.%.%.%.%.9 9 9 u a a p 9 9 9 9 9 9 0 a a a t 9 9 9 %.%.%.%.%.",
"%.%.%.%.%.%.0 , : R o.o._ ; 9 9 9 9 , y o.o.o.D , 9 9 %.%.%.%.%.%.%.%.%.%.%.9 < : Y ..../ : 9 9 9 9 < i ......S , 9 9 %.%.%.%.%.",
"%.%.%.%.%.%.> ! `  .......[ n 9 9 l [ ' ......{ ) < 9 %.%.%.%.%.%.%.%.%.%.%., F J ) ....[ K c 9 9 j P L ......Q H < 9 %.%.%.%.%.",
"%.%.%.%.%.%.> ( ..........o.m 9 9 z o...........[ < 9 %.%.%.%.%.%.%.%.%.%.%.> ( ..........o.m 9 9 z o...........[ < 9 %.%.%.%.%.",
"%.%.%.%.9 9 > ( ..........o.m 9 9 z o...........[ < 9 9 %.%.%.%.%.%.%.%.%.9 > ( ..........o.m 9 9 z o...........[ < 9 %.%.%.%.%.",
"%.%.%.%.9 9 > ( X.U G G I O.m 9 9 z o. .G G G E [ < 9 9 9 %.%.%.%.%.%.%.9 9 > ( ..{ ] ] ] o.m 9 9 z o...] ] ] { [ < 9 9 9 %.%.%.",
"%.%.%.%.9 9 > ( O.6     1 #.m 9 9 z o.{       Z [ < 9 9 9 %.%.%.%.%.%.%.9 9 > ( O.7     3 #.m 9 9 z o.{       Z [ < 9 9 9 %.%.%.",
"%.%.%.%.9 9 , T ~ 5     2 ^ b 9 9 k ~ W       C Q < 9 9 9 %.%.%.%.%.%.%.9 9 > ) @.8     4 $.M 9 9 x +.}       A | < 9 9 9 %.%.%.",
"%.%.%.%.9 9 0 > , o     . , < 9 9 9 > :       + > 9 9 9 9 %.%.%.%.%.%.%.9 9 9 d h O     X h r 9 9 w g s       # f 9 9 9 9 %.%.%.",
"%.%.%.%.9 9 9 9 9 - * * = 9 9 9 9 9 9 9 * * * : 9 9 9 9 9 %.%.%.%.%.%.%.9 9 9 9 q % @ @ $ q 9 9 9 9 9 < @ @ @ & 9 9 9 9 9 %.%.%.",
"%.%.%.%.9 9 9 9 9 9 9 9 9 9 9 9 9 9 9 9 9 9 9 9 9 9 9 9 9 %.%.%.%.%.%.%.9 9 9 9 9 9 9 9 9 9 9 9 9 9 9 9 9 9 9 9 9 9 9 9 9 %.%.%.",
"%.%.%.%.9 9 9 9 9 9 9 9 9 9 9 9 9 9 9 9 9 9 9 9 9 9 9 9 9 %.%.%.%.%.%.%.9 9 9 9 9 9 9 9 9 9 9 9 9 9 9 9 9 9 9 9 9 9 9 9 9 %.%.%.",
"%.%.%.%.9 9 9 9 9 9 9 9 9 9 9 9 9 9 9 9 9 9 9 9 9 9 9 9 9 %.%.%.%.%.%.%.9 9 9 9 9 9 9 9 9 9 9 9 9 9 9 9 9 9 9 9 9 9 9 9 9 %.%.%.",
"%.%.%.%.9 9 9 9 9 9 9 9 9 9 9 9 9 9 9 9 9 9 9 9 9 9 9 9 9 %.%.%.%.%.%.%.9 9 9 9 9 9 9 9 9 9 9 9 9 9 9 9 9 9 9 9 9 9 9 9 9 %.%.%.",
"%.%.%.%.9 9 9 9 9 9 9 9 9 9 9 9 9 9 9 9 9 9 9 9 9 9 9 9 9 %.%.%.%.%.%.%.9 9 9 9 9 9 9 9 9 9 9 9 9 9 9 9 9 9 9 9 9 9 9 9 9 %.%.%.",
"%.%.%.%.9 9 9 9 9 9 9 %.9 9 9 9 9 9 9 9 %.9 9 9 9 9 9 9 9 %.%.%.%.%.%.%.9 9 %.%.%.9 9 9 9 9 %.%.%.%.9 9 9 9 9 9 %.%.9 9 9 %.%.%.",
"%.%.%.%.%.%.9 9 9 %.%.%.%.%.9 9 9 9 %.%.%.%.%.9 9 9 %.%.%.%.%.%.%.%.%.%.9 9 %.%.%.9 9 9 9 9 %.%.%.%.9 9 9 9 9 %.%.%.9 9 9 %.%.%.",
"%.%.%.%.%.%.9 9 9 %.%.%.%.%.9 9 9 9 %.%.%.%.%.%.9 9 %.%.%.%.%.%.%.%.%.%.9 %.%.%.%.%.%.9 9 9 %.%.%.%.9 9 9 %.%.%.%.%.%.9 9 %.%.%.",
"%.%.%.%.%.%.%.%.%.%.%.%.%.%.%.%.%.%.%.%.%.%.%.%.%.%.%.%.%.%.%.%.%.%.%.%.9 %.%.%.%.%.%.9 9 9 %.%.%.%.9 9 9 %.%.%.%.%.%.9 %.%.%.%.",
"%.%.%.%.%.%.%.%.%.%.%.%.%.%.%.%.%.%.%.%.%.%.%.%.%.%.%.%.%.%.%.%.%.%.%.%.%.%.%.%.%.%.%.%.%.%.%.%.%.%.%.%.%.%.%.%.%.%.%.%.%.%.%.%.",
"%.%.%.%.%.%.%.%.%.%.%.%.%.%.%.%.%.%.%.%.%.%.%.%.%.%.%.%.%.%.%.%.%.%.%.%.%.%.%.%.%.%.%.%.%.%.%.%.%.%.%.%.%.%.%.%.%.%.%.%.%.%.%.%.",
"%.%.%.%.%.%.%.%.%.%.%.%.%.%.%.%.%.%.%.%.%.%.%.%.%.%.%.%.%.%.%.%.%.%.%.%.%.%.%.%.%.%.%.%.%.%.%.%.%.%.%.%.%.%.%.%.%.%.%.%.%.%.%.%."
};
