/* XPM */
static char *ghost_left[] = {
/* columns rows colors chars-per-pixel */
"64 32 112 2 ",
"   c black",
".  c #000100",
"X  c gray4",
"o  c #151515",
"O  c #2C002C",
"+  c #371B37",
"@  c gray14",
"#  c #4C004C",
"$  c #4E004E",
"%  c #4F004F",
"&  c #580058",
"*  c #6F006F",
"=  c #730073",
"-  c #740074",
";  c #750075",
":  c #7A007A",
">  c #7D007D",
",  c #7E007E",
"<  c #7F007F",
"1  c #555555",
"2  c #575657",
"3  c #5A5B5A",
"4  c #5B5B5B",
"5  c #5F5F5F",
"6  c #6D4C6D",
"7  c #606060",
"8  c #656565",
"9  c #800080",
"0  c #800180",
"q  c #810081",
"w  c #842784",
"e  c #842A84",
"r  c #893D89",
"t  c #844884",
"y  c #8A438A",
"u  c #8C478C",
"i  c #8C498C",
"p  c #8D4C8D",
"a  c #8D4D8D",
"s  c #8E4E8E",
"d  c #8E4F8E",
"f  c #8F4F8F",
"g  c #8E508E",
"h  c #905490",
"j  c #915791",
"k  c #915891",
"l  c #935C93",
"z  c #9A6C9A",
"x  c #9B6E9B",
"c  c #9D739D",
"v  c #9F789F",
"b  c #A07AA0",
"n  c #A17BA1",
"m  c #A481A4",
"M  c #A482A4",
"N  c #A685A6",
"B  c #A686A6",
"V  c #A786A7",
"C  c #A88AA8",
"Z  c #AC9CAC",
"A  c #B096B0",
"S  c #B199B1",
"D  c #B19AB1",
"F  c #B39CB3",
"G  c #B9A7B9",
"H  c #BAA8BA",
"J  c gray75",
"K  c #C5B8C5",
"L  c #C0C0C0",
"P  c #C1C1C1",
"I  c #C6C6C6",
"U  c gray78",
"Y  c #CBC2CB",
"T  c #CBC3CB",
"R  c #C9C6C9",
"E  c #CCC4CC",
"W  c #CEC6CE",
"Q  c #CEC7CE",
"!  c #CACACA",
"~  c #CBCBCB",
"^  c #CFC8CF",
"/  c gray81",
"(  c #D0CAD0",
")  c #D2CDD2",
"_  c #D3CFD3",
"`  c #D4CFD4",
"'  c #D0D1D0",
"]  c #D4D0D4",
"[  c #D5D1D5",
"{  c #D6D3D6",
"}  c #D7D5D7",
"|  c #D8D5D8",
" . c #D8D6D8",
".. c #D9D6D9",
"X. c #D9D7D9",
"o. c #DAD7DA",
"O. c #D8D8D8",
"+. c #DAD8DA",
"@. c #DBD9DB",
"#. c #DBDADB",
"$. c gray86",
"%. c #DCDBDC",
"&. c gainsboro",
"*. c #DDDDDD",
"=. c gray87",
"-. c #DFDFDF",
";. c #DFE0DF",
":. c gray88",
">. c #E0E1E0",
",. c #E0E2E0",
"<. c #E1E2E1",
"1. c None",
/* pixels */
"1.1.1.1.1.1.1.1.1.1.1.1.1.1.1.1.1.1.1.1.1.1.1.1.1.1.1.1.1.1.1.1.1.1.1.1.1.1.1.1.1.1.1.1.1.1.1.1.1.1.1.1.1.1.1.1.1.1.1.1.1.1.1.1.",
"1.1.1.1.1.1.1.1.1.1.1.1.1.1.1.1.1.1.1.1.1.1.1.1.1.1.1.1.1.1.1.1.1.1.1.1.1.1.1.1.1.1.1.1.1.1.1.1.1.1.1.1.1.1.1.1.1.1.1.1.1.1.1.1.",
"1.1.1.1.1.1.1.1.1.1.1.1.1.1.1.1.1.1.1.1.1.1.1.1.1.1.1.1.1.1.1.1.1.1.1.1.1.1.1.1.1.1.1.1.1.1.1.1.1.1.1.1.1.1.1.1.1.1.1.1.1.1.1.1.",
"1.1.1.1.1.1.1.1.1.1.1.1.1.1.1.1.1.1.1.1.1.1.1.1.1.1.1.1.1.1.1.1.1.1.1.1.1.1.1.1.1.1.1.1.1.9 9 9 9 9 9 9 1.1.1.1.1.1.1.1.1.1.1.1.",
"1.1.1.1.1.1.1.1.1.1.1.1.1.9 9 9 9 9 9 9 1.1.1.1.1.1.1.1.1.1.1.1.1.1.1.1.1.1.1.1.1.1.1.1.1.9 9 9 9 9 9 9 1.1.1.1.1.1.1.1.1.1.1.1.",
"1.1.1.1.1.1.1.1.1.9 9 9 9 9 9 9 9 9 9 9 9 9 9 1.1.1.1.1.1.1.1.1.1.1.1.1.1.1.1.1.1.9 9 9 9 9 9 9 9 9 9 9 9 9 9 9 1.1.1.1.1.1.1.1.",
"1.1.1.1.1.1.1.1.1.9 9 9 9 9 9 9 9 9 9 9 9 9 9 9 1.1.1.1.1.1.1.1.1.1.1.1.1.1.1.1.1.9 9 9 9 9 9 9 9 9 9 9 9 9 9 9 1.1.1.1.1.1.1.1.",
"1.1.1.1.1.1.1.9 9 9 9 9 9 9 9 9 9 9 9 9 9 9 9 9 9 1.1.1.1.1.1.1.1.1.1.1.1.1.1., , , , 0 9 9 9 9 9 9 , , , < 9 9 9 1.1.1.1.1.1.1.",
"1.1.1.1.1.1.1.v b b z < 9 9 9 9 9 w n b b i 9 9 9 1.1.1.1.1.1.1.1.1.1.1.1.1.> ] +.+.Y , 9 9 9 9 9 p #.+.@.N 9 9 9 9 9 1.1.1.1.1.",
"1.1.1.1.1.1.> ..;.;.^ > 9 9 9 9 9 d ,.;.>.C 9 9 9 9 9 1.1.1.1.1.1.1.1.1.1.1.: } =.=.W : > 0 9 9 , u ;.=.-.V > , 9 9 9 1.1.1.1.1.",
"1.1.1.1.1.1.s  .=.=.( s g 9 9 9 y x ;.=.-.A h r 9 9 9 1.1.1.1.1.1.1.1.1.1.1.) *.=.=.#.) E , 9 < G _ =.=.=.{ ) D 9 9 9 1.1.1.1.1.",
"1.1.1.1.1.1.<.:.:.=.=.;.X.> 9 < K <.:.:.=.-.;.H 9 9 9 1.1.1.1.1.1.1.1.1.1.1.L L J O.=.=.| > 9 < Z L L P =.=.=.G 9 9 9 1.1.1.1.1.",
"1.1.1.1.1.1.5 5 4 ~ =.=.| > 9 9 6 5 5 8 =.=.=.G 9 9 9 1.1.1.1.1.1.1.1.1.1.1.      I =.=.| > 9 q #     o =.=.=.G 9 9 9 1.1.1.1.1.",
"1.1.1.1.1.1.      U =.=.| > 9 q %     @ =.=.=.G 9 9 9 1.1.1.1.1.1.1.1.1.1.1.      U =.=.| > 9 q %     @ =.=.=.G 9 9 9 1.1.1.1.1.",
"1.1.1.1.9 *       U =.=.| > 9 q %     @ =.=.=.G 9 9 9 9 1.1.1.1.1.1.1.1.9 = .     I =.;.X.> 9 q $     X =.-.:.H 9 9 9 9 9 1.1.1.",
"1.1.1.1.9 ; O 2 1 ! %.` Q , 9 9 & + 3 7 =.| ] F 9 9 9 9 9 1.1.1.1.1.1.1.9 , - R / $.( j k 9 9 9 : t ' / -.S l y 9 9 9 9 9 1.1.1.",
"1.1.1.1.9 9 < o.:.=.W : > 0 9 9 q f <.:.-.V > , 9 9 9 9 9 1.1.1.1.1.1.1.9 9 > ..-.-.^ > 9 9 9 9 9 d >.-.:.C 9 9 9 9 9 9 9 1.1.1.",
"1.1.1.1.9 9 > [ #.#.T > 9 9 9 9 9 a &.#.%.B 9 9 9 9 9 9 9 1.1.1.1.1.1.1.9 9 < n m m c < 9 9 9 9 9 e M m m a 9 9 9 9 9 9 9 1.1.1.",
"1.1.1.1.9 9 9 < < < < 9 9 9 9 9 9 9 < < < 9 9 9 9 9 9 9 9 1.1.1.1.1.1.1.9 9 9 9 9 9 9 9 9 9 9 9 9 9 9 9 9 9 9 9 9 9 9 9 9 1.1.1.",
"1.1.1.1.9 9 9 9 9 9 9 9 9 9 9 9 9 9 9 9 9 9 9 9 9 9 9 9 9 1.1.1.1.1.1.1.9 9 9 9 9 9 9 9 9 9 9 9 9 9 9 9 9 9 9 9 9 9 9 9 9 1.1.1.",
"1.1.1.1.9 9 9 9 9 9 9 9 9 9 9 9 9 9 9 9 9 9 9 9 9 9 9 9 9 1.1.1.1.1.1.1.9 9 9 9 9 9 9 9 9 9 9 9 9 9 9 9 9 9 9 9 9 9 9 9 9 1.1.1.",
"1.1.1.1.9 9 9 9 9 9 9 9 9 9 9 9 9 9 9 9 9 9 9 9 9 9 9 9 9 1.1.1.1.1.1.1.9 9 9 9 9 9 9 9 9 9 9 9 9 9 9 9 9 9 9 9 9 9 9 9 9 1.1.1.",
"1.1.1.1.9 9 9 9 9 9 9 9 9 9 9 9 9 9 9 9 9 9 9 9 9 9 9 9 9 1.1.1.1.1.1.1.9 9 9 9 9 9 9 9 9 9 9 9 9 9 9 9 9 9 9 9 9 9 9 9 9 1.1.1.",
"1.1.1.1.9 9 9 9 9 9 9 9 9 9 9 9 9 9 9 9 9 9 9 9 9 9 9 9 9 1.1.1.1.1.1.1.9 9 9 9 9 9 9 9 9 9 9 9 9 9 9 9 9 9 9 9 9 9 9 9 9 1.1.1.",
"1.1.1.1.9 9 9 9 9 9 9 9 9 9 9 9 9 9 9 9 9 9 9 9 9 9 9 9 9 1.1.1.1.1.1.1.9 9 9 1.9 9 9 9 9 9 9 1.1.9 9 9 9 9 9 9 1.9 9 9 9 1.1.1.",
"1.1.1.1.9 9 9 9 9 9 9 1.9 9 9 9 9 9 9 9 1.9 9 9 9 9 9 9 9 1.1.1.1.1.1.1.9 9 1.1.1.9 9 9 9 9 1.1.1.1.9 9 9 9 9 1.1.1.9 9 9 1.1.1.",
"1.1.1.1.1.9 9 9 9 1.1.1.1.1.9 9 9 9 1.1.1.1.1.9 9 9 9 1.1.1.1.1.1.1.1.1.9 1.1.1.1.1.1.9 9 9 1.1.1.1.9 9 9 1.1.1.1.1.1.9 9 1.1.1.",
"1.1.1.1.1.1.9 9 9 1.1.1.1.1.9 9 9 9 1.1.1.1.1.1.9 9 1.1.1.1.1.1.1.1.1.1.9 1.1.1.1.1.1.9 9 9 1.1.1.1.9 9 9 1.1.1.1.1.1.9 9 1.1.1.",
"1.1.1.1.1.1.9 9 1.1.1.1.1.1.9 9 9 9 1.1.1.1.1.1.9 9 1.1.1.1.1.1.1.1.1.1.1.1.1.1.1.1.1.1.1.1.1.1.1.1.1.1.1.1.1.1.1.1.1.1.1.1.1.1.",
"1.1.1.1.1.1.1.1.1.1.1.1.1.1.1.1.1.1.1.1.1.1.1.1.1.1.1.1.1.1.1.1.1.1.1.1.1.1.1.1.1.1.1.1.1.1.1.1.1.1.1.1.1.1.1.1.1.1.1.1.1.1.1.1.",
"1.1.1.1.1.1.1.1.1.1.1.1.1.1.1.1.1.1.1.1.1.1.1.1.1.1.1.1.1.1.1.1.1.1.1.1.1.1.1.1.1.1.1.1.1.1.1.1.1.1.1.1.1.1.1.1.1.1.1.1.1.1.1.1.",
"1.1.1.1.1.1.1.1.1.1.1.1.1.1.1.1.1.1.1.1.1.1.1.1.1.1.1.1.1.1.1.1.1.1.1.1.1.1.1.1.1.1.1.1.1.1.1.1.1.1.1.1.1.1.1.1.1.1.1.1.1.1.1.1."
};
