/* XPM */
static char *ghost_right[] = {
/* columns rows colors chars-per-pixel */
"64 32 119 2 ",
"   c black",
".  c #353535",
"X  c gray24",
"o  c #3F3F3F",
"O  c #3E403E",
"+  c #4C004C",
"@  c #4D004D",
"#  c #4E044E",
"$  c #5B005B",
"%  c #5B3B5B",
"&  c #670067",
"*  c #690069",
"=  c #710071",
"-  c #740074",
";  c #7B007B",
":  c #7D007D",
">  c #7E007E",
",  c #7F007F",
"<  c #6F246F",
"1  c #6E4B6E",
"2  c #800080",
"3  c #810081",
"4  c #810981",
"5  c #810A81",
"6  c #810B81",
"7  c #810C81",
"8  c #821682",
"9  c #821882",
"0  c #821A82",
"q  c #832283",
"w  c #832483",
"e  c #873687",
"r  c #893D89",
"t  c #8B448B",
"y  c #915691",
"u  c #915891",
"i  c #925992",
"p  c #925B92",
"a  c #945E94",
"s  c #956295",
"d  c #966496",
"f  c #976497",
"g  c #976697",
"h  c #976797",
"j  c #986798",
"k  c #996A99",
"l  c #9A6D9A",
"z  c #9B6F9B",
"x  c #9B709B",
"c  c #A17BA1",
"v  c #A27DA2",
"b  c #A27EA2",
"n  c #A37FA3",
"m  c #888888",
"M  c #888988",
"N  c #9F9E9F",
"B  c #A380A3",
"V  c #A686A6",
"C  c #A98CA9",
"Z  c #AA8CAA",
"A  c #AB8DAB",
"S  c #AE93AE",
"D  c #AF94AF",
"F  c #B097B0",
"G  c #B39CB3",
"H  c #B39DB3",
"J  c #B49DB4",
"K  c #A0A1A0",
"L  c gray65",
"P  c #A7A7A7",
"I  c #ACACAC",
"U  c #B6A1B6",
"Y  c #B8A4B8",
"T  c #BBA9BB",
"R  c #BDACBD",
"E  c #BEAEBE",
"W  c gray69",
"Q  c #C1B3C1",
"!  c #C2B5C2",
"~  c #C3B6C3",
"^  c #C3B7C3",
"/  c #C4B7C4",
"(  c #C4B8C4",
")  c #C6BAC6",
"_  c #C7BDC7",
"`  c #C8BEC8",
"'  c #C9BFC9",
"]  c #C0C0C0",
"[  c gray77",
"{  c #CCC3CC",
"}  c #CCC4CC",
"|  c #CDC5CD",
" . c #CEC7CE",
".. c #D1CBD1",
"X. c #D2CDD2",
"o. c #D3CFD3",
"O. c #D2D2D2",
"+. c LightGray",
"@. c #D5D1D5",
"#. c #D5D5D5",
"$. c gray84",
"%. c gray85",
"&. c gray86",
"*. c #DBDCDB",
"=. c #DCDBDC",
"-. c gainsboro",
";. c #DDDCDD",
":. c #DDDDDD",
">. c #DEDDDE",
",. c gray87",
"<. c #DEDFDE",
"1. c #DFDFDF",
"2. c #DFE0DF",
"3. c gray88",
"4. c #E0E1E0",
"5. c #E1E1E1",
"6. c #E1E2E1",
"7. c #E2E3E2",
"8. c None",
/* pixels */
"8.8.8.8.8.8.8.8.8.8.8.8.8.8.8.8.8.8.8.8.8.8.8.8.8.8.8.8.8.8.8.8.8.8.8.8.8.8.8.8.8.8.8.8.8.8.8.8.8.8.8.8.8.8.8.8.8.8.8.8.8.8.8.8.",
"8.8.8.8.8.8.8.8.8.8.8.8.8.8.8.8.8.8.8.8.8.8.8.8.8.8.8.8.8.8.8.8.8.8.8.8.8.8.8.8.8.8.8.8.8.8.8.8.8.8.8.8.8.8.8.8.8.8.8.8.8.8.8.8.",
"8.8.8.8.8.8.8.8.8.8.8.8.8.8.8.8.8.8.8.8.8.8.8.8.8.8.8.8.8.8.8.8.8.8.8.8.8.8.8.8.8.8.8.8.8.8.8.8.8.8.8.8.8.8.8.8.8.8.8.8.8.8.8.8.",
"8.8.8.8.8.8.8.8.8.8.8.8.8.2 2 2 2 2 2 2 8.8.8.8.8.8.8.8.8.8.8.8.8.8.8.8.8.8.8.8.8.8.8.8.8.8.8.8.8.8.8.8.8.8.8.8.8.8.8.8.8.8.8.8.",
"8.8.8.8.8.8.8.8.8.8.8.8.8.2 2 2 2 2 2 2 8.8.8.8.8.8.8.8.8.8.8.8.8.8.8.8.8.8.8.8.8.8.8.8.8.2 2 2 2 2 2 2 8.8.8.8.8.8.8.8.8.8.8.8.",
"8.8.8.8.8.8.8.8.8.2 2 2 2 2 2 2 2 2 2 2 2 2 2 2 8.8.8.8.8.8.8.8.8.8.8.8.8.8.8.8.8.2 2 2 2 2 2 2 2 2 2 2 2 2 2 2 8.8.8.8.8.8.8.8.",
"8.8.8.8.8.8.8.8.8.2 2 2 2 2 2 2 2 2 2 2 2 2 2 2 8.8.8.8.8.8.8.8.8.8.8.8.8.8.8.8.8.2 2 2 2 2 2 2 2 2 2 2 2 2 2 2 8.8.8.8.8.8.8.8.",
"8.8.8.8.8.8.8.2 2 2 2 , , , 2 2 2 2 2 2 2 , , , , 8.8.8.8.8.8.8.8.8.8.8.8.8.8.2 2 2 2 2 2 2 2 2 2 2 2 2 2 2 2 2 2 8.8.8.8.8.8.8.",
"8.8.8.8.8.8.2 2 2 2 p ( ^ ( y 2 2 2 2 2 , F ^ ^ ! , 2 8.8.8.8.8.8.8.8.8.8.8.8.2 2 2 t n n B e 2 2 2 2 2 2 g n n b 8.8.8.8.8.8.8.",
"8.8.8.8.8.8.2 2 2 2 x 2.,.2.k 2 2 2 2 2 > ( ,.,.=., 2 8.8.8.8.8.8.8.8.8.8.8.2 2 2 2 v 4.1.4.d 2 2 2 2 2 , ~ 1.1.>.6 2 8.8.8.8.8.",
"8.8.8.8.8.8.2 2 , Z E 1.,.1.R J s 2 2 8 G ..,.,.;.G H 8.8.8.8.8.8.8.8.8.8.8.2 2 , a D 1.,.2.V h r 2 2 5 d ` ,.,.:.j g 8.8.8.8.8.",
"8.8.8.8.8.8.2 2 :  .,.,.,.&.&.-.C 2 2 w ,.,.,.:.&.*.*.8.8.8.8.8.8.8.8.8.8.8.2 2 : o.1.,.,.3.5.7.A 2 2 q 2.<.,.1.3.6.6.8.8.8.8.8.",
"8.8.8.8.8.8.2 2 :  .,.,.#.      & 2 2 w ,.,.,.L       8.8.8.8.8.8.8.8.8.8.8.2 2 : X.,.,.+.. o O < 2 2 q ,.,.,.W X o o 8.8.8.8.8.",
"8.8.8.8.8.8.2 2 :  .,.,.#.      & 2 2 w ,.,.,.P       8.8.8.8.8.8.8.8.8.8.8.2 2 : X.,.,.O.      * 2 2 q ,.,.,.I       8.8.8.8.8.",
"8.8.8.8.2 2 2 2 :  .,.,.#.      & 2 2 w ,.,.,.P       : 8.8.8.8.8.8.8.8.2 2 2 2 : X.,.,.O.      * 2 2 q ,.,.,.I       ; 2 8.8.8.",
"8.8.8.8.2 2 2 2 , S Q 1.%.K 1 $ - 2 2 9 Y X.,.[ N $ $ , 2 8.8.8.8.8.8.8.2 2 2 2 > T { <.$.M % @ = 2 2 0 / @.,.] m # + : 2 8.8.8.",
"8.8.8.8.2 2 2 2 2 2 z 2.,.3.k 2 2 2 2 2 > ( ,.,.=., 2 2 2 8.8.8.8.8.8.8.2 2 2 2 2 , c 2.,.4.f 3 2 2 2 2 : ! ,.,.>.7 3 2 2 8.8.8.",
"8.8.8.8.2 2 2 2 2 2 a ` _ ' i 2 2 2 2 2 , H _ _ ) , 2 2 2 8.8.8.8.8.8.8.2 2 2 2 2 2 l  .|  .u 2 2 2 2 2 , U | | } 4 2 2 2 8.8.8.",
"8.8.8.8.2 2 2 2 2 2 2 > > > 2 2 2 2 2 2 2 , > > > 2 2 2 2 8.8.8.8.8.8.8.2 2 2 2 2 2 , > > > 2 2 2 2 2 2 2 , > > > 2 2 2 2 8.8.8.",
"8.8.8.8.2 2 2 2 2 2 2 2 2 2 2 2 2 2 2 2 2 2 2 2 2 2 2 2 2 8.8.8.8.8.8.8.2 2 2 2 2 2 2 2 2 2 2 2 2 2 2 2 2 2 2 2 2 2 2 2 2 8.8.8.",
"8.8.8.8.2 2 2 2 2 2 2 2 2 2 2 2 2 2 2 2 2 2 2 2 2 2 2 2 2 8.8.8.8.8.8.8.2 2 2 2 2 2 2 2 2 2 2 2 2 2 2 2 2 2 2 2 2 2 2 2 2 8.8.8.",
"8.8.8.8.2 2 2 2 2 2 2 2 2 2 2 2 2 2 2 2 2 2 2 2 2 2 2 2 2 8.8.8.8.8.8.8.2 2 2 2 2 2 2 2 2 2 2 2 2 2 2 2 2 2 2 2 2 2 2 2 2 8.8.8.",
"8.8.8.8.2 2 2 2 2 2 2 2 2 2 2 2 2 2 2 2 2 2 2 2 2 2 2 2 2 8.8.8.8.8.8.8.2 2 2 2 2 2 2 2 2 2 2 2 2 2 2 2 2 2 2 2 2 2 2 2 2 8.8.8.",
"8.8.8.8.2 2 2 2 2 2 2 2 2 2 2 2 2 2 2 2 2 2 2 2 2 2 2 2 2 8.8.8.8.8.8.8.2 2 2 2 2 2 2 2 2 2 2 2 2 2 2 2 2 2 2 2 2 2 2 2 2 8.8.8.",
"8.8.8.8.2 2 2 2 2 2 2 2 2 2 2 2 2 2 2 2 2 2 2 2 2 2 2 2 2 8.8.8.8.8.8.8.2 2 2 2 2 2 2 2 2 2 2 2 2 2 2 2 2 2 2 2 2 2 2 2 2 8.8.8.",
"8.8.8.8.2 2 2 2 2 2 2 8.2 2 2 2 2 2 2 2 8.2 2 2 2 2 2 2 2 8.8.8.8.8.8.8.2 2 8.8.8.2 2 2 2 2 8.8.8.8.2 2 2 2 2 2 8.8.2 2 2 8.8.8.",
"8.8.8.8.8.8.2 2 2 8.8.8.8.8.2 2 2 2 8.8.8.8.8.2 2 2 8.8.8.8.8.8.8.8.8.8.2 8.8.8.8.8.8.2 2 2 8.8.8.8.2 2 2 8.8.8.8.8.8.2 2 8.8.8.",
"8.8.8.8.8.8.2 2 2 8.8.8.8.8.2 2 2 2 8.8.8.8.8.8.2 2 8.8.8.8.8.8.8.8.8.8.2 8.8.8.8.8.8.2 2 2 8.8.8.8.2 2 2 8.8.8.8.8.8.2 2 8.8.8.",
"8.8.8.8.8.8.8.8.8.8.8.8.8.8.8.8.8.8.8.8.8.8.8.8.8.8.8.8.8.8.8.8.8.8.8.8.8.8.8.8.8.8.8.8.8.8.8.8.8.8.8.8.8.8.8.8.8.8.8.8.8.8.8.8.",
"8.8.8.8.8.8.8.8.8.8.8.8.8.8.8.8.8.8.8.8.8.8.8.8.8.8.8.8.8.8.8.8.8.8.8.8.8.8.8.8.8.8.8.8.8.8.8.8.8.8.8.8.8.8.8.8.8.8.8.8.8.8.8.8.",
"8.8.8.8.8.8.8.8.8.8.8.8.8.8.8.8.8.8.8.8.8.8.8.8.8.8.8.8.8.8.8.8.8.8.8.8.8.8.8.8.8.8.8.8.8.8.8.8.8.8.8.8.8.8.8.8.8.8.8.8.8.8.8.8.",
"8.8.8.8.8.8.8.8.8.8.8.8.8.8.8.8.8.8.8.8.8.8.8.8.8.8.8.8.8.8.8.8.8.8.8.8.8.8.8.8.8.8.8.8.8.8.8.8.8.8.8.8.8.8.8.8.8.8.8.8.8.8.8.8."
};
