/* XPM */
static char *ghost_up[] = {
/* columns rows colors chars-per-pixel */
"64 32 90 1 ",
"  c black",
". c #260026",
"X c #2A002A",
"o c #2B152B",
"O c gray16",
"+ c #3F3A3F",
"@ c #7A007A",
"# c #7D007D",
"$ c #7E007E",
"% c #7F007F",
"& c #414241",
"* c #484848",
"= c gray32",
"- c #5F5F5F",
"; c #6A6A6A",
": c #6D6D6D",
"> c #800080",
", c #800180",
"< c #810081",
"1 c #810A81",
"2 c #821782",
"3 c #821882",
"4 c #832283",
"5 c #832483",
"6 c #852C85",
"7 c #893D89",
"8 c #893F89",
"9 c #8C498C",
"0 c #8D4F8D",
"q c #8E4E8E",
"w c #8E4F8E",
"e c #8F518F",
"r c #905290",
"t c #915791",
"y c #966496",
"u c #996A99",
"i c #996B99",
"p c #A07AA0",
"a c #838383",
"s c #8E8E8E",
"d c gray62",
"f c #A380A3",
"g c #A583A5",
"h c #A584A5",
"j c #A786A7",
"k c #A888A8",
"l c #AD92AD",
"z c #B39DB3",
"x c gray66",
"c c #B8A4B8",
"v c #B8A5B8",
"b c #B9A7B9",
"n c #C2B5C2",
"m c #C5B9C5",
"M c #C6BAC6",
"N c #C6BBC6",
"B c #CCC3CC",
"V c #CEC6CE",
"C c #CEC7CE",
"Z c #CFC8CF",
"A c gray80",
"S c #CECECE",
"D c #D3CED3",
"F c #D3CFD3",
"G c #D0D0D0",
"H c #D5D1D5",
"J c #D6D2D6",
"K c #D6D3D6",
"L c #D5D5D5",
"P c #D7D5D7",
"I c #D8D5D8",
"U c #D8D6D8",
"Y c #D9D6D9",
"T c #DAD8DA",
"R c #DBDADB",
"E c #DCDADC",
"W c #DCDBDC",
"Q c gainsboro",
"! c #DDDCDD",
"~ c #DDDDDD",
"^ c gray87",
"/ c #DEDFDE",
"( c #DFDFDF",
") c #DFE0DF",
"_ c gray88",
"` c #E0E1E0",
"' c #E1E1E1",
"] c #E1E2E1",
"[ c #E3E4E3",
"{ c None",
/* pixels */
"{{{{{{{{{{{{{{{{{{{{{{{{{{{{{{{{{{{{{{{{{{{{{{{{{{{{{{{{{{{{{{{{",
"{{{{{{{{{{{{{{{{{{{{{{{{{{{{{{{{{{{{{{{{{{{{{{{{{{{{{{{{{{{{{{{{",
"{{{{{{{{{{{{{{{{{{{{{{{{{{{{{{{{{{{{{{{{{{{{{{{{{{{{{{{{{{{{{{{{",
"{{{{{{{{{{{{{{{{{{{{{{{{{{{{{{{{{{{{{{{{{{{{{>>>>>>>{{{{{{{{{{{{",
"{{{{{{{{{{{{{>>>>>>>{{{{{{{{{{{{{{{{{{{{{{{{{>>>>>>>{{{{{{{{{{{{",
"{{{{{{{{{   X<>>>>>%   {{{{{{{{{{{{{{{{{{   .<>>>>>%    {{{{{{{{",
"{{{{{{{{{   .>>>>>%#    {{{{{{{{{{{{{{{{{O  or4>>2e0   *{{{{{{{{",
"{{{{{{{^'-  +Mt>>8mn   s^{{{{{{{{{{{{{{^_:  &[i>>w]~   d^{{{{{{{",
"{{{{{{{~_a==;]u>>q)Q===x^{{{{{{{{{{{{{#Y^GAAS_u>>q)^AAALW%>{{{{{",
"{{{{{{#I^____)u>>q)^___(W%>{{{{{{{{{{{#I^^^^^)u>>q)^^^^^W%>{{{{{",
"{{{{{{#I^^^^^)u>>q)^^^^^W%>{{{{{{{{{{{#I^^^^^)u>>q)^^^^^W%>{{{{{",
"{{{{{{#U(^^^^`i>>w`(^^^/!%>{{{{{{{{{{{$ZHW^^~Jy>>9KH^^^TD%>{{{{{",
"{{{{{{%fgF^^Th7>>6jk^^^Ng>>{{{{{{{{{{{,#@V^^P@%>>>#1^^^v#>>{{{{{",
"{{{{{{>>#C^^I#>>>>>5^^^b>>>{{{{{{{{{{{>>#BRRH#>>>>>5EREc>>>{{{{{",
"{{{{>>>>%lccz%>>>>>3cccp>>>>{{{{{{{{>>>>>%%%%>>>>>>>%%%%>>>>>{{{",
"{{{{>>>>>>>>>>>>>>>>>>>>>>>>>{{{{{{{>>>>>>>>>>>>>>>>>>>>>>>>>{{{",
"{{{{>>>>>>>>>>>>>>>>>>>>>>>>>{{{{{{{>>>>>>>>>>>>>>>>>>>>>>>>>{{{",
"{{{{>>>>>>>>>>>>>>>>>>>>>>>>>{{{{{{{>>>>>>>>>>>>>>>>>>>>>>>>>{{{",
"{{{{>>>>>>>>>>>>>>>>>>>>>>>>>{{{{{{{>>>>>>>>>>>>>>>>>>>>>>>>>{{{",
"{{{{>>>>>>>>>>>>>>>>>>>>>>>>>{{{{{{{>>>>>>>>>>>>>>>>>>>>>>>>>{{{",
"{{{{>>>>>>>>>>>>>>>>>>>>>>>>>{{{{{{{>>>>>>>>>>>>>>>>>>>>>>>>>{{{",
"{{{{>>>>>>>>>>>>>>>>>>>>>>>>>{{{{{{{>>>>>>>>>>>>>>>>>>>>>>>>>{{{",
"{{{{>>>>>>>>>>>>>>>>>>>>>>>>>{{{{{{{>>>>>>>>>>>>>>>>>>>>>>>>>{{{",
"{{{{>>>>>>>>>>>>>>>>>>>>>>>>>{{{{{{{>>>>>>>>>>>>>>>>>>>>>>>>>{{{",
"{{{{>>>>>>>>>>>>>>>>>>>>>>>>>{{{{{{{>>>>>>>>>>>>>>>>>>>>>>>>>{{{",
"{{{{>>>>>>>{>>>>>>>>{>>>>>>>>{{{{{{{>>{{{>>>>>{{{{>>>>>>{{>>>{{{",
"{{{{>>>>>>>{>>>>>>>>{{>>>>>>{{{{{{{{>{{{{{{>>>{{{{>>>{{{{{{>>{{{",
"{{{{{{>>>{{{{{>>>>{{{{{{>>{{{{{{{{{{>{{{{{{>>>{{{{>>>{{{{{{>>{{{",
"{{{{{{>>{{{{{{>>>>{{{{{{>>{{{{{{{{{{{{{{{{{{{{{{{{{{{{{{{{{{{{{{",
"{{{{{{{{{{{{{{{{{{{{{{{{{{{{{{{{{{{{{{{{{{{{{{{{{{{{{{{{{{{{{{{{",
"{{{{{{{{{{{{{{{{{{{{{{{{{{{{{{{{{{{{{{{{{{{{{{{{{{{{{{{{{{{{{{{{",
"{{{{{{{{{{{{{{{{{{{{{{{{{{{{{{{{{{{{{{{{{{{{{{{{{{{{{{{{{{{{{{{{"
};
