/* XPM */
static char *red_yellow_frames[] = {
/* columns rows colors chars-per-pixel */
"64 128 84 1 ",
"  c #000000",
". c gray4",
"X c #151515",
"o c #240024",
"O c #2B002B",
"+ c #280A28",
"@ c #2B152B",
"# c #3A003A",
"$ c #371B37",
"% c gray14",
"& c gray16",
"* c #353535",
"= c #3F3E3F",
"- c #3E403E",
"; c #4E014E",
": c #411441",
"> c #570057",
", c #5B005B",
"< c #5E215E",
"1 c #5B3B5B",
"2 c #650065",
"3 c #6C006C",
"4 c #730073",
"5 c #7E007E",
"6 c #6F246F",
"7 c #444444",
"8 c #494949",
"9 c #535353",
"0 c #5E5E5E",
"q c #6E4C6E",
"w c #626262",
"e c #6C6C6C",
"r c gray44",
"t c #800080",
"y c #810B81",
"u c #821582",
"i c #821B82",
"p c #832383",
"a c #852B85",
"s c #863386",
"d c #893E89",
"f c #844884",
"g c #8B448B",
"h c #8E4E8E",
"j c #8F518F",
"k c #915591",
"l c #925B92",
"z c #966496",
"x c #986798",
"c c #996B99",
"v c #9D739D",
"b c #9F789F",
"n c #A17CA1",
"m c #838383",
"M c #8A8A8A",
"N c #979497",
"B c #9E9E9E",
"V c #9FA09F",
"C c #A583A5",
"Z c #A98BA9",
"A c #AE93AE",
"S c #AC9CAC",
"D c #B097B0",
"F c #B39CB3",
"G c #A5A5A5",
"H c #ABABAB",
"J c #B6A1B6",
"K c #B9A6B9",
"L c #BCABBC",
"P c gray69",
"I c #BEBEBE",
"U c #C3B6C3",
"Y c #C5BAC5",
"T c #C8BEC8",
"R c #C3C3C3",
"E c #CDC6CD",
"W c #CDCBCD",
"Q c #D2CDD2",
"! c #D5D2D5",
"~ c #D8D5D8",
"^ c #DEDDDE",
"/ c #DFE0DF",
"( c #E0E1E0",
") c None",
/* pixels */
"))))))))))))))))))))))))))))))))))))))))))))))))))))))))))))))))",
"))))))))))))))))))))))))))))))))))))))))))))))))))))))))))))))))",
"))))))))))))))))))))))))))))))))))))))))))))))))))))))))))))))))",
")))))))))))))ttttttt))))))))))))))))))))))))))))))))))))))))))))",
")))))))))))))ttttttt)))))))))))))))))))))))))ttttttt))))))))))))",
")))))))))ttttttttttttttt)))))))))))))))))ttttttttttttttt))))))))",
")))))))))ttttttttttttttt)))))))))))))))))ttttttttttttttt))))))))",
")))))))tttt5t5tttttttt5t5))))))))))))))tttttttttttttttttt)))))))",
"))))))ttttlYIUkttttttDUUUtt))))))))))))tttgnCndttttttzCCn)))))))",
"))))))ttttv^^/xttttttU^/^5t)))))))))))ttttn(^/zttttt5U^^^yt)))))",
"))))))tttZL/^/LJzttuFQ^^^FF)))))))))))tttlD/^(CxdttyzT^^^xz)))))",
"))))))tt5E^^^^^/Zttp^^//~^^)))))))))))tt5!^^^(((Zttp//^/((()))))",
"))))))tt5E^^!   2ttp/^^G   )))))))))))tt5Q^^!*--6ttp^^/P=--)))))",
"))))))tt5E^/~   2ttp^^/G   )))))))))))tt5Q^/!   2ttp^^/H   )))))",
"))))tttt5E/^!   2ttp^//G   5))))))))tttt5Q^^!   3ttp^//H   5t)))",
"))))tttttAU/~Vq,4ttiKQ^RB,,5t)))))))ttt55LE/!M1;4ttiU!^YM;;5t)))",
"))))ttttttc/^^xttttt5Y^^~tttt)))))))ttttt5n(^(xttttt5U/^/yttt)))",
"))))ttttttzTTElttttttFTTT5ttt)))))))ttttttcEEElttttt5JEEEyttt)))",
"))))ttttttt555tttttttttt5tttt)))))))ttttttt555tttttttt555tttt)))",
"))))ttttttttt5ttttttttttttttt)))))))ttttttttttttttttttttttttt)))",
"))))ttttttttttttttttttttttttt)))))))ttttttttttttttttttttttttt)))",
"))))ttttttttttttttttttttttttt)))))))ttttttttttttttttttttttttt)))",
"))))ttttttttttttttttttttttttt)))))))ttttttttttttttttttttttttt)))",
"))))ttttttttttttttttttttttttt)))))))ttttttttttttttttttttttttt)))",
"))))ttttttttttttttttttttttttt)))))))ttttttttttttttttttttttttt)))",
"))))ttttttt)tttttttt)tttttttt)))))))tt)))ttttt))))tttttt))ttt)))",
"))))))ttt)))))tttt)))))ttt))))))))))t))))))ttt))))ttt))))))tt)))",
"))))))ttt)))))tttt))))))tt))))))))))t))))))ttt))))ttt))))))tt)))",
"))))))))))))))))))))))))))))))))))))))))))))))))))))))))))))))))",
"))))))))))))))))))))))))))))))))))))))))))))))))))))))))))))))))",
"))))))))))))))))))))))))))))))))))))))))))))))))))))))))))))))))",
"))))))))))))))))))))))))))))))))))))))))))))))))))))))))))))))))",
"))))))))))))))))))))))))))))))))))))))))))))))))))))))))))))))))",
"))))))))))))))))))))))))))))))))))))))))))))))))))))))))))))))))",
"))))))))))))))))))))))))))))))))))))))))))))))))))))))))))))))))",
")))))))))))))))))))))))))))))))))))))))))))))ttttttt))))))))))))",
")))))))))))))ttttttt)))))))))))))))))))))))))ttttttt))))))))))))",
")))))))))tttttttttttttt))))))))))))))))))ttttttttttttttt))))))))",
")))))))))ttttttttttttttt)))))))))))))))))ttttttttttttttt))))))))",
")))))))tttttttttttttttttt))))))))))))))5555ttttttt5555ttt)))))))",
")))))))nnbcttttttannngttt)))))))))))))5!~^R5ttttth~~^C55ttt)))))",
"))))))5~//E5ttttth(^(Zt5ttt)))))))))))5!^^E55ttt5g(/^Z55ttt)))))",
"))))))h~^^Qhjtttgc(^/Dkdttt)))))))))))Q^^/^WE5t5KQ^^^!QFttt)))))",
"))))))(^(^^^~5ttY(((^/^Lttt)))))))))))IRY~^/!5ttSRIR^^/Lttt)))))",
"))))))0w0W/^~55tq0ww/^^Kttt)))))))))))   R^^~5tt;  X^^^Kttt)))))",
"))))))   R^^~5tt;  %^^/Kttt)))))))))))   E^^~5tt;  %^^^Lttt)))))",
"))))t4   R^^~5tt;  %^/^Ktttt))))))))t4   R^^~5tt;  .^((Kttttt)))",
"))))t4O09W^!Ettt>$0w^~!Fttttt)))))))t54WQ^Qllttt5f!W^Flgttttt)))",
"))))tt5~(^E555ttth(((Z55ttttt)))))))tt5~^^Q5ttttth^^(Z5tttttt)))",
"))))tt5!^~E5t5ttth~^^Ct5ttttt)))))))tt5nCCv5tttttaCCChttttttt)))",
"))))tttt5ttttttttt5t5tttttttt)))))))ttttttttttttttttttttttttt)))",
"))))ttttttttttttttttttttttttt)))))))ttttttttttttttttttttttttt)))",
"))))ttttttttttttttttttttttttt)))))))ttttttttttttttttttttttttt)))",
"))))ttttttttttttttttttttttttt)))))))ttttttttttttttttttttttttt)))",
"))))ttttttttttttttttttttttttt)))))))ttttttttttttttttttttttttt)))",
"))))ttttttttttttttttttttttttt)))))))ttttttttttttttttttttttttt)))",
"))))ttttttttttttttttttttttttt)))))))ttt)ttttttt))ttttttt)tttt)))",
"))))ttttttt)tttttttt)tttttttt)))))))tt)))ttttt))))ttttt)))ttt)))",
")))))tttt)))))tttt)))))tttt)))))))))t))))))ttt))))ttt))))))tt)))",
"))))))ttt)))))tttt))))))tt))))))))))t))))))ttt))))ttt))))))tt)))",
"))))))tt))))))tttt))))))tt))))))))))))))))))))))))))))))))))))))",
"))))))))))))))))))))))))))))))))))))))))))))))))))))))))))))))))",
"))))))))))))))))))))))))))))))))))))))))))))))))))))))))))))))))",
"))))))))))))))))))))))))))))))))))))))))))))))))))))))))))))))))",
"))))))))))))))))))))))))))))))))))))))))))))))))))))))))))))))))",
"))))))))))))))))))))))))))))))))))))))))))))))))))))))))))))))))",
"))))))))))))))))))))))))))))))))))))))))))))))))))))))))))))))))",
"))))))))))))))))))))))))))))))))))))))))))))))))))))))))))))))))",
")))))))))))))ttttttt)))))))))))))))))))))))))ttttttt))))))))))))",
")))))))))ttttttttttttttt)))))))))))))))))tttttttttttttt)))))))))",
")))))))))ttttttttttttttt)))))))))))))))))ttttttttttttttt))))))))",
")))))))tttttttttttttttttt))))))))))))))tttttttttttttttttt)))))))",
")))))))tttttttttttttttttt))))))))))))))tttttttttttttttttt)))))))",
"))))))ttttttttttttttttttttt)))))))))))ttttttttttttttttttttt)))))",
"))))))tt5cnnb5tttttynnnlttt)))))))))))tt5ipiitttttttpiiuttt)))))",
"))))))t55E//~5tttt5i^/^L5tt)))))))))))t55E^/!5tttt5i^/^K5tt)))))",
"))))))5!~/^^^^xtth^~^^/^!tt)))))))))))5LU!/^^UlttdYU^^^QU5t)))))",
"))))))5~/^^/^/cttj(^^^^^^5t)))))))))))5~^^/^^(xtth/^^^/^^5t)))))",
"))))tt5!^^^^^/ctth/^^/^^^5tt)))))))))t5~/^//^/ctth/^/^^^^5t)))))",
"))))tt5~/RIIR(xtth(^IIIW^tttt)))))))tt5~/~^~^/xtth/^^~^^^5ttt)))",
"))))tt5~(r  7(xttj/^   B~5ttt)))))))tt5~(r  8(ctth(^   B^5ttt)))",
"))))tt5E!e  7!xttg!Q   NQtttt)))))))tt5~(r  8(ctth(^   V^5ttt)))",
"))))ttt55#  o5tttt55   >5tttt)))))))tttss:  +suttyss   <stttt)))",
"))))tttt55454ttttt5t5455ttttt)))))))ttttt2,,2ttttt5t,,,4ttttt)))",
"))))ttttttttttttttttttttttttt)))))))tttttttt5tttttttttttttttt)))",
"))))ttttttttttttttttttttttttt)))))))ttttttttttttttttttttttttt)))",
"))))ttttttttttttttttttttttttt)))))))ttttttttttttttttttttttttt)))",
"))))ttttttttttttttttttttttttt)))))))ttttttttttttttttttttttttt)))",
"))))ttttttttttttttttttttttttt)))))))ttttttttttttttttttttttttt)))",
"))))ttttttt)tttttttt)tttttttt)))))))tt)))ttttt))))tttttt))ttt)))",
"))))))ttt)))))tttt)))))ttt))))))))))tt)))ttttt))))ttttt)))ttt)))",
"))))))ttt)))))tttt))))))tt))))))))))t))))))ttt))))ttt))))))tt)))",
"))))))))))))))))))))))))))))))))))))t))))))ttt))))ttt))))))t))))",
"))))))))))))))))))))))))))))))))))))))))))))))))))))))))))))))))",
"))))))))))))))))))))))))))))))))))))))))))))))))))))))))))))))))",
"))))))))))))))))))))))))))))))))))))))))))))))))))))))))))))))))",
"))))))))))))))))))))))))))))))))))))))))))))))))))))))))))))))))",
"))))))))))))))))))))))))))))))))))))))))))))))))))))))))))))))))",
"))))))))))))))))))))))))))))))))))))))))))))))))))))))))))))))))",
")))))))))))))))))))))))))))))))))))))))))))))ttttttt))))))))))))",
")))))))))))))ttttttt)))))))))))))))))))))))))ttttttt))))))))))))",
")))))))))   Otttttt5   ))))))))))))))))))   otttttt5    ))))))))",
")))))))))   otttt5t5    )))))))))))))))))&  @kpttukh   8))))))))",
")))))))^(0  1YlttgYU   M())))))))))))))/(e  7(xttj(^   V^)))))))",
")))))))^/m99e(xtth/^999H^)))))))))))))5~/QWWQ(ctth(^WWW!^5t)))))",
"))))))5~^((^(/c5th/^^(^(^tt)))))))))))5~/^/^/(xtth/^^/^^^5t)))))",
"))))))5~^^^^^/xtth/^^^^^^5t)))))))))))5~^^^^//xttk/^^^/^^tt)))))",
"))))))5~(^^^/(cttj(/^^^^^5t)))))))))))5E!~^^^!zttg!!/^^~Q5t)))))",
"))))))tCCQ^^~CdttaCZ^^^YCtt)))))))))))t54E//!55ttt5y^^^J55t)))))",
"))))))tt5E^^~5tttttp^^^Lttt)))))))))))tt5E^~!5tttttp^^^Kttt)))))",
"))))tttttAKKJttttttiKKJntttt))))))))tttttt555ttttttt5t5tttttt)))",
"))))tttttttt5tttttttttttttttt)))))))tttttttttttttttt5tttttttt)))",
"))))ttttttttttttttttttttttttt)))))))ttttttttttttttttttttttttt)))",
"))))ttttttttttttttttttttttttt)))))))ttttttttttttttttttttttttt)))",
"))))ttttttttttttttttttttttttt)))))))ttttttttttttttttttttttttt)))",
"))))ttttttttttttttttttttttttt)))))))ttttttttttttttttttttttttt)))",
"))))ttttttttttttttttttttttttt)))))))ttttttttttttttttttttttttt)))",
"))))ttttttttttttttttttttttttt)))))))ttttttttttttttttttttttttt)))",
"))))ttttttttttttttttttttttttt)))))))ttttttttttttttttttttttttt)))",
"))))ttttttttttttttttttttttttt)))))))ttttttttttttttttttttttttt)))",
"))))ttttttttttttttttttttttttt)))))))ttttttttttttttttttttttttt)))",
"))))ttttttt)tttttttt)tttttttt)))))))tt)))ttttt))))tttttt))ttt)))",
"))))ttttttt)tttttttt))tttttt))))))))t))))))ttt))))ttt))))))tt)))",
"))))))ttt)))))tttt))))))tt))))))))))t))))))ttt))))ttt))))))tt)))",
"))))))tt))))))tttt))))))tt))))))))))))))))))))))))))))))))))))))",
"))))))))))))))))))))))))))))))))))))))))))))))))))))))))))))))))",
"))))))))))))))))))))))))))))))))))))))))))))))))))))))))))))))))",
"))))))))))))))))))))))))))))))))))))))))))))))))))))))))))))))))"
};
