/* XPM */
static char *ghost_up[] = {
/* columns rows colors chars-per-pixel */
"64 32 93 2 ",
"   c black",
".  c #010101",
"X  c #090909",
"o  c gray16",
"O  c #4F3139",
"+  c #4F343B",
"@  c #414141",
"#  c #484848",
"$  c #6D6D6D",
"%  c #A86C7D",
"&  c #A96D7E",
"*  c gray59",
"=  c #979797",
"-  c #989898",
";  c #9C9899",
":  c gray62",
">  c #BBBBBB",
",  c #CF869A",
"<  c #CF879B",
"1  c #EE9CB3",
"2  c #F29BB3",
"3  c #F19CB4",
"4  c #F19DB4",
"5  c #F19DB5",
"6  c #F29DB5",
"7  c #F09EB4",
"8  c #F19EB5",
"9  c #F19FB6",
"0  c #F39FB7",
"q  c #C0BBBC",
"w  c #ECA5B8",
"e  c #EFA5B9",
"r  c #EFA7BA",
"t  c #EEA9BC",
"y  c #EEABBC",
"u  c #EEABBD",
"i  c #EEACBE",
"p  c #F1A0B6",
"a  c #F0A1B7",
"s  c #F0A2B7",
"d  c #F0A3B8",
"f  c #F0A4B8",
"g  c #F0A4B9",
"h  c #F1A8BC",
"j  c #ECB4C2",
"k  c #EBB6C4",
"l  c #EABAC6",
"z  c #E9BEC8",
"x  c #E9BEC9",
"c  c #E9BFC9",
"v  c gray80",
"b  c #CDCDCD",
"n  c #CECECE",
"m  c gray81",
"M  c #D0D0D0",
"N  c #D5D5D5",
"B  c gray84",
"V  c #DFDADB",
"C  c #DFDBDC",
"Z  c #DBDDDC",
"A  c gainsboro",
"S  c #DDDDDD",
"D  c #DFDCDD",
"F  c #DEDDDD",
"G  c #DFDDDD",
"H  c #DEDDDE",
"J  c #DDDEDE",
"K  c gray87",
"L  c #DEDFDE",
"P  c #DEDFDF",
"I  c #DFDFDF",
"U  c #E7C3CC",
"Y  c #E7C6CD",
"T  c #E6C6CE",
"R  c #E8C0CA",
"E  c #E8C2CB",
"W  c #E5C9D0",
"Q  c #E4CDD2",
"!  c #E4CDD3",
"~  c #E4CED3",
"^  c #E3D0D5",
"/  c #E2D2D6",
"(  c #E1D5D8",
")  c #E1D6D9",
"_  c #E0D7D9",
"`  c #E1D7D9",
"'  c #E0D8DA",
"]  c #E0D9DB",
"[  c #DDE0DF",
"{  c #DDE0E0",
"}  c #DFE1E1",
"|  c gray88",
" . c None",
/* pixels */
" . . . . . . . . . . . . . . . . . . . . . . . . . . . . . . . . . . . . . . . . . . . . . . . . . . . . . . . . . . . . . . . .",
" . . . . . . . . . . . . . . . . . . . . . . . . . . . . . . . . . . . . . . . . . . . . . . . . . . . . . . . . . . . . . . . .",
" . . . . . . . . . . . . . . . . . . . . . . . . . . . . . . . . . . . . . . . . . . . . . . . . . . . . . . . . . . . . . . . .",
" . . . . . . . . . . . . . . . . . . . . . . . . . . . . . . . . . . . . . . . . . . . . .8 8 8 8 8 8 8  . . . . . . . . . . . .",
" . . . . . . . . . . . . .8 8 8 8 8 8 8  . . . . . . . . . . . . . . . . . . . . . . . . .7 8 8 8 8 8 8  . . . . . . . . . . . .",
" . . . . . . . . .      & 8 8 8 8 8 8 <        . . . . . . . . . . . . . . . . . .        1 8 8 8 8 8 0 O        . . . . . . . .",
" . . . . . . . . .      % 6 8 8 8 5 4 ,     .  . . . . . . . . . . . . . . . . . .#       w s 8 8 8 r h +     o  . . . . . . . .",
" . . . . . . .K A X     ; ] 8 8 8 z V q       m K  . . . . . . . . . . . . . .K K :       Z c 8 8 8 K } @     $ |  . . . . . . .",
" . . . . . . .K S - - - > G 8 8 8 R K b = - * B (  . . . . . . . . . . . . .4 ^ K N v v v J x 8 8 8 F K n v v M P e 8  . . . . .",
" . . . . .8 e P K I I I K F 8 8 8 R K K I I I K Q 4 8  . . . . . . . . . . .4 ~ K K K K K K x 8 8 8 F K K K K K P g 8  . . . . .",
" . . . . .8 e P K K K K K F 8 8 8 R K K K K K K Q 4 8  . . . . . . . . . . .4 ~ K K K K K K x 8 8 8 F K K K K K P g 8  . . . . .",
" . . . . .8 e [ L K K K K H 8 8 8 R P L K K K L ! 4 8  . . . . . . . . . . .4 W ` C K K K ' l 8 8 8 ) ` H K K G ' d 8  . . . . .",
" . . . . .8 8 d f K K K T s 8 8 8 p d k L K P i a 8 8  . . . . . . . . . . .8 4 3 U K K K 8 5 8 8 8 3 2 ] K K / 2 8 8  . . . . .",
" . . . . .8 8 8 9 P P P Y 8 8 8 8 8 8 j [ P { t 8 8 8  . . . . . . . . . . .8 8 8 E D D D p 8 8 8 8 8 3 _ D D ^ 4 8 8  . . . . .",
" . . .8 8 8 8 8 8 y y y e 8 8 8 8 8 8 s u y u p 8 8 8 8  . . . . . . . .8 8 8 8 8 8 5 5 5 8 8 8 8 8 8 8 5 5 5 8 8 8 8 8 8  . . .",
" . . .8 8 8 8 8 8 8 8 8 8 8 8 8 8 8 8 8 8 8 8 8 8 8 8 8  . . . . . . . .8 8 8 8 8 8 8 8 8 8 8 8 8 8 8 8 8 8 8 8 8 8 8 8 8  . . .",
" . . .8 8 8 8 8 8 8 8 8 8 8 8 8 8 8 8 8 8 8 8 8 8 8 8 8  . . . . . . . .8 8 8 8 8 8 8 8 8 8 8 8 8 8 8 8 8 8 8 8 8 8 8 8 8  . . .",
" . . .8 8 8 8 8 8 8 8 8 8 8 8 8 8 8 8 8 8 8 8 8 8 8 8 8  . . . . . . . .8 8 8 8 8 8 8 8 8 8 8 8 8 8 8 8 8 8 8 8 8 8 8 8 8  . . .",
" . . .8 8 8 8 8 8 8 8 8 8 8 8 8 8 8 8 8 8 8 8 8 8 8 8 8  . . . . . . . .8 8 8 8 8 8 8 8 8 8 8 8 8 8 8 8 8 8 8 8 8 8 8 8 8  . . .",
" . . .8 8 8 8 8 8 8 8 8 8 8 8 8 8 8 8 8 8 8 8 8 8 8 8 8  . . . . . . . .8 8 8 8 8 8 8 8 8 8 8 8 8 8 8 8 8 8 8 8 8 8 8 8 8  . . .",
" . . .8 8 8 8 8 8 8 8 8 8 8 8 8 8 8 8 8 8 8 8 8 8 8 8 8  . . . . . . . .8 8 8 8 8 8 8 8 8 8 8 8 8 8 8 8 8 8 8 8 8 8 8 8 8  . . .",
" . . .8 8 8 8 8 8 8 8 8 8 8 8 8 8 8 8 8 8 8 8 8 8 8 8 8  . . . . . . . .8 8 8 8 8 8 8 8 8 8 8 8 8 8 8 8 8 8 8 8 8 8 8 8 8  . . .",
" . . .8 8 8 8 8 8 8 8 8 8 8 8 8 8 8 8 8 8 8 8 8 8 8 8 8  . . . . . . . .8 8 8 8 8 8 8 8 8 8 8 8 8 8 8 8 8 8 8 8 8 8 8 8 8  . . .",
" . . .8 8 8 8 8 8 8 8 8 8 8 8 8 8 8 8 8 8 8 8 8 8 8 8 8  . . . . . . . .8 8 8 8 8 8 8 8 8 8 8 8 8 8 8 8 8 8 8 8 8 8 8 8 8  . . .",
" . . .8 8 8 8 8 8 8 8 8 8 8 8 8 8 8 8 8 8 8 8 8 8 8 8 8  . . . . . . . .8 8 8 8 8 8 8 8 8 8 8 8 8 8 8 8 8 8 8 8 8 8 8 8 8  . . .",
" . . .8 8 8 8 8 8 8  . .8 8 8 8 8 8 8 8  .8 8 8 8 8 8 8  . . . . . . . .8 8 8  . .8 8 8 8 8  . . . .8 8 8 8 8 8  . .8 8 8  . . .",
" . . . . .8 8 8  . . . . . .8 8 8 8  . . . . .8 8 8  . . . . . . . . . .8  . . . . . .8 8 8  . . . .8 8 8 8  . . . . .8 8  . . .",
" . . . . .8 8 8  . . . . . .8 8 8 8  . . . . .8 8 8  . . . . . . . . . .8  . . . . . .8 8 8  . . . .8 8 8 8  . . . . .8 8  . . .",
" . . . . . . . . . . . . . . . . . . . . . . . . . . . . . . . . . . . . . . . . . . . . . . . . . . . . . . . . . . . . . . . .",
" . . . . . . . . . . . . . . . . . . . . . . . . . . . . . . . . . . . . . . . . . . . . . . . . . . . . . . . . . . . . . . . .",
" . . . . . . . . . . . . . . . . . . . . . . . . . . . . . . . . . . . . . . . . . . . . . . . . . . . . . . . . . . . . . . . .",
" . . . . . . . . . . . . . . . . . . . . . . . . . . . . . . . . . . . . . . . . . . . . . . . . . . . . . . . . . . . . . . . ."
};
