/* XPM */
static char *ghost_down[] = {
/* columns rows colors chars-per-pixel */
"64 32 95 2 ",
"   c black",
".  c #020202",
"X  c #0A0809",
"o  c #4F323A",
"O  c gray28",
"+  c #494949",
"@  c #794F5B",
"#  c #6F6F6F",
"$  c gray44",
"%  c #A76B7C",
"&  c #AC7282",
"*  c #B17384",
"=  c #B87789",
"-  c #C17E91",
";  c #9F8F93",
":  c #9A9A9A",
">  c gray62",
",  c #9F9F9F",
"<  c gray65",
"1  c #A7A7A7",
"2  c gray66",
"3  c gray",
"4  c #CF869A",
"5  c #D2899E",
"6  c #E292A8",
"7  c #EC9BB1",
"8  c #EC9BB2",
"9  c #EE9CB3",
"0  c #EF9CB3",
"q  c #F09DB4",
"w  c #F19DB4",
"e  c #F19DB5",
"r  c #F29CB4",
"t  c #F29DB5",
"y  c #F09EB5",
"u  c #F19EB5",
"i  c #F19FB5",
"p  c #F19FB6",
"a  c #F29FB6",
"s  c #C3B1B5",
"d  c #EEA0B5",
"f  c #EFA5B9",
"g  c #EFA8BB",
"h  c #EEAABC",
"j  c #F1A0B6",
"k  c #F0A1B6",
"l  c #F0A1B7",
"z  c #F0A2B7",
"x  c #F1A2B7",
"c  c #F0A3B8",
"v  c #F2A3B9",
"b  c #F0A4B9",
"n  c #EDB0C0",
"m  c #ECB3C2",
"M  c #EBB5C3",
"N  c #EBB7C4",
"B  c #E9BDC8",
"V  c #E9BEC8",
"C  c #E9BEC9",
"Z  c #E9BFC9",
"A  c gray76",
"S  c #D5C1C6",
"D  c #D0D0D0",
"F  c #D7D7D7",
"G  c gray86",
"H  c #DBDCDC",
"J  c gainsboro",
"K  c #DDDDDD",
"L  c #DFDCDD",
"P  c #DEDDDD",
"I  c #DFDDDD",
"U  c #DFDDDE",
"Y  c #DDDFDF",
"T  c gray87",
"R  c #DEDFDF",
"E  c #E7C3CC",
"W  c #E6C6CE",
"Q  c #E8C0CA",
"!  c #E8C1CA",
"~  c #E5C9D0",
"^  c #E5CAD0",
"/  c #E5CAD1",
"(  c #E5CBD1",
")  c #E2CDD2",
"_  c #E4CDD2",
"`  c #E4CED3",
"'  c #E3CFD4",
"]  c #E2D2D6",
"[  c #E1D5D8",
"{  c #E0D9DB",
"}  c #E0DADB",
"|  c #DFE1E0",
" . c #DFE1E1",
".. c gray88",
"X. c None",
/* pixels */
"X.X.X.X.X.X.X.X.X.X.X.X.X.X.X.X.X.X.X.X.X.X.X.X.X.X.X.X.X.X.X.X.X.X.X.X.X.X.X.X.X.X.X.X.X.X.X.X.X.X.X.X.X.X.X.X.X.X.X.X.X.X.X.X.",
"X.X.X.X.X.X.X.X.X.X.X.X.X.X.X.X.X.X.X.X.X.X.X.X.X.X.X.X.X.X.X.X.X.X.X.X.X.X.X.X.X.X.X.X.X.X.X.X.X.X.X.X.X.X.X.X.X.X.X.X.X.X.X.X.",
"X.X.X.X.X.X.X.X.X.X.X.X.X.X.X.X.X.X.X.X.X.X.X.X.X.X.X.X.X.X.X.X.X.X.X.X.X.X.X.X.X.X.X.X.X.X.X.X.X.X.X.X.X.X.X.X.X.X.X.X.X.X.X.X.",
"X.X.X.X.X.X.X.X.X.X.X.X.X.u u u u u u X.X.X.X.X.X.X.X.X.X.X.X.X.X.X.X.X.X.X.X.X.X.X.X.X.X.X.X.X.X.X.X.X.X.X.X.X.X.X.X.X.X.X.X.X.",
"X.X.X.X.X.X.X.X.X.X.X.X.X.u u u u u u u X.X.X.X.X.X.X.X.X.X.X.X.X.X.X.X.X.X.X.X.X.X.X.X.X.u u u u u u u X.X.X.X.X.X.X.X.X.X.X.X.",
"X.X.X.X.X.X.X.X.X.u u u u u u u u u u u u u u X.X.X.X.X.X.X.X.X.X.X.X.X.X.X.X.X.X.X.u u u u u u u u u u u u u u X.X.X.X.X.X.X.X.",
"X.X.X.X.X.X.X.X.X.u u u u u u u u u u u u u u X.X.X.X.X.X.X.X.X.X.X.X.X.X.X.X.X.X.u u u u u u u u u u u u u u u X.X.X.X.X.X.X.X.",
"X.X.X.X.X.X.X.u u u u u u u u u u u u u u u u u u X.X.X.X.X.X.X.X.X.X.X.X.X.X.X.u u u u u u u u u u u u u u u u u X.X.X.X.X.X.X.",
"X.X.X.X.X.X.u u u u u u u u u u u u u u u u u u u u u X.X.X.X.X.X.X.X.X.X.X.X.u u u u u u u u u u u u u u u u u u X.X.X.X.X.X.X.",
"X.X.X.X.X.u u u u u u u u u u u u u u u u u u u u u u X.X.X.X.X.X.X.X.X.X.X.u u u u u u u u u u u u u u u u u u u u u X.X.X.X.X.",
"X.X.X.X.X.u u u i B B B n u u u u u u g B B V c u u u X.X.X.X.X.X.X.X.X.X.X.u u u i p p p u u u u u u u p p p p u u u X.X.X.X.X.",
"X.X.X.X.X.u u j l T T T W p u u u i j M R T Y h p u u X.X.X.X.X.X.X.X.X.X.X.u e w E T T T p u u u u e r { T T ] r u u X.X.X.X.X.",
"X.X.X.X.X.u f R T T T T T I u u u Q T T T T T T _ w u X.X.X.X.X.X.X.X.X.X.X.e Z ^ [ T T T ( m u u u ~ ^ L T T } / z u X.X.X.X.X.",
"X.X.X.X.X.u f R T T T T T P u u u Q T T T T T T _ w u X.X.X.X.X.X.X.X.X.X.X.w ` T T T T T T C u u u P T T T T T R b u X.X.X.X.X.",
"X.X.X.u u u f R T T T T T P u u u Q T T T T T T _ w u u X.X.X.X.X.X.X.X.X.X.w ` T T T T T T C u u u P T T T T T R b u u X.X.X.X.",
"X.X.X.u u u f R K 2 2 2 A I u u u Q T D 1 2 < F _ w u u X.X.X.X.X.X.X.X.u u w ` T J G G G T C u u u P T G G G J R b u u u X.X.X.",
"X.X.X.u u u f R J .     : U u u u Q T 3       D _ w u u X.X.X.X.X.X.X.X.u u w ` T >       H C u u u P ..O     # | b u u u X.X.X.",
"X.X.X.u u u c ' ) X     ; ` u u u N ` s       S ! e u u X.X.X.X.X.X.X.X.u u w ` R ,       H C u u u T ..+     $  .b u u u X.X.X.",
"X.X.X.u u u u w 0       % t u u u e w 4       6 e u u u X.X.X.X.X.X.X.X.u u u k x &       d j u u u l v o     @ v u u u u X.X.X.",
"X.X.X.u u u u u u 8 8 8 9 u u u u u u q 7 8 7 y u u u u X.X.X.X.X.X.X.X.u u u u u 5 * * * q u u u u u a = * * - a u u u u X.X.X.",
"X.X.X.u u u u u u u u u u u u u u u u u u u u u u u u u X.X.X.X.X.X.X.X.u u u u u u u u u u u u u u u u u u u u u u u u u X.X.X.",
"X.X.X.u u u u u u u u u u u u u u u u u u u u u u u u u X.X.X.X.X.X.X.X.u u u u u u u u u u u u u u u u u u u u u u u u u X.X.X.",
"X.X.X.u u u u u u u u u u u u u u u u u u u u u u u u u X.X.X.X.X.X.X.X.u u u u u u u u u u u u u u u u u u u u u u u u u X.X.X.",
"X.X.X.u u u u u u u u u u u u u u u u u u u u u u u u u X.X.X.X.X.X.X.X.u u u u u u u u u u u u u u u u u u u u u u u u u X.X.X.",
"X.X.X.u u u u u u u u u u u u u u u u u u u u u u u u u X.X.X.X.X.X.X.X.u u u u u u u u u u u u u u u u u u u u u u u u u X.X.X.",
"X.X.X.u u u u u u u X.X.u u u u u u u u X.u u u u u u u X.X.X.X.X.X.X.X.u u u X.X.u u u u u u X.X.X.u u u u u u X.X.u u u X.X.X.",
"X.X.X.X.X.u u u X.X.X.X.X.X.u u u u X.X.X.X.X.u u u X.X.X.X.X.X.X.X.X.X.u u X.X.X.u u u u u X.X.X.X.u u u u u u X.X.u u u X.X.X.",
"X.X.X.X.X.u u u X.X.X.X.X.X.u u u u X.X.X.X.X.u u u X.X.X.X.X.X.X.X.X.X.u X.X.X.X.X.X.u u u X.X.X.X.u u u u X.X.X.X.X.u u X.X.X.",
"X.X.X.X.X.X.X.X.X.X.X.X.X.X.X.X.X.X.X.X.X.X.X.X.X.X.X.X.X.X.X.X.X.X.X.X.u X.X.X.X.X.X.u u u X.X.X.X.u u u X.X.X.X.X.X.u u X.X.X.",
"X.X.X.X.X.X.X.X.X.X.X.X.X.X.X.X.X.X.X.X.X.X.X.X.X.X.X.X.X.X.X.X.X.X.X.X.X.X.X.X.X.X.X.X.X.X.X.X.X.X.X.X.X.X.X.X.X.X.X.X.X.X.X.X.",
"X.X.X.X.X.X.X.X.X.X.X.X.X.X.X.X.X.X.X.X.X.X.X.X.X.X.X.X.X.X.X.X.X.X.X.X.X.X.X.X.X.X.X.X.X.X.X.X.X.X.X.X.X.X.X.X.X.X.X.X.X.X.X.X.",
"X.X.X.X.X.X.X.X.X.X.X.X.X.X.X.X.X.X.X.X.X.X.X.X.X.X.X.X.X.X.X.X.X.X.X.X.X.X.X.X.X.X.X.X.X.X.X.X.X.X.X.X.X.X.X.X.X.X.X.X.X.X.X.X."
};
