/* XPM */
static char *ghost_right[] = {
/* columns rows colors chars-per-pixel */
"64 32 104 2 ",
"   c black",
".  c gray2",
"X  c #0A0405",
"o  c #3F3F3F",
"O  c #414040",
"+  c #505050",
"@  c #5A5A5A",
"#  c #65404A",
"$  c #68414C",
"%  c gray39",
"&  c #96606F",
"*  c #966170",
"=  c #A86D7E",
"-  c #AA6D7E",
";  c #AA6E7E",
":  c #AB6F7F",
">  c #8E7D81",
",  c #B77789",
"<  c #8B8788",
"1  c gray59",
"2  c #989898",
"3  c #9C9B9B",
"4  c gray62",
"5  c #A08F93",
"6  c #A7A7A7",
"7  c #AAAAAA",
"8  c gray67",
"9  c #B4B4B4",
"0  c #EB9AB1",
"q  c #EE9CB3",
"w  c #EF9DB3",
"e  c #EF9DB4",
"r  c #F19CB4",
"t  c #F09DB4",
"y  c #F19DB4",
"u  c #F19DB5",
"i  c #F29DB5",
"p  c #F19EB5",
"a  c #F19FB5",
"s  c #F29EB5",
"d  c #F19FB6",
"f  c #F29FB6",
"g  c #EFA8BB",
"h  c #EEAABC",
"j  c #EEABBD",
"k  c #EEACBD",
"l  c #EEACBE",
"z  c #EDAFBF",
"x  c #F1A0B6",
"c  c #F3A0B7",
"v  c #F0A2B7",
"b  c #F0A3B8",
"n  c #F0A4B8",
"m  c #EDB0C0",
"M  c #ECB1C0",
"N  c #ECB2C1",
"B  c #ECB3C2",
"V  c #ECB4C2",
"C  c #EAB9C5",
"Z  c #EABBC6",
"A  c #E9BDC8",
"S  c #E9BFC9",
"D  c gray77",
"F  c #DFDBDC",
"G  c gainsboro",
"H  c #DCDDDD",
"J  c #DDDDDD",
"K  c #DFDCDC",
"L  c #DEDDDD",
"P  c #DEDDDE",
"I  c #DFDDDE",
"U  c gray87",
"Y  c #DEDFDE",
"T  c #DEDFDF",
"R  c #DFDFDF",
"E  c #E7C4CC",
"W  c #E7C4CD",
"Q  c #E6C7CE",
"!  c #E6C7CF",
"~  c #E8C0CA",
"^  c #E8C1CB",
"/  c #E6C8CF",
"(  c #E5C9D0",
")  c #E5CAD0",
"_  c #E5CBD1",
"`  c #E6CBD1",
"'  c #E4CDD2",
"]  c #E4CDD3",
"[  c #E5CDD3",
"{  c #E4CED3",
"}  c #E3CFD4",
"|  c #E3D0D5",
" . c #E3D1D5",
".. c #E3D2D6",
"X. c #E2D3D6",
"o. c #E2D3D7",
"O. c #E2D4D7",
"+. c #E1D5D8",
"@. c #E0DADB",
"#. c #E0DBDC",
"$. c #DDE0DF",
"%. c #DFE1E0",
"&. c gray88",
"*. c None",
/* pixels */
"*.*.*.*.*.*.*.*.*.*.*.*.*.*.*.*.*.*.*.*.*.*.*.*.*.*.*.*.*.*.*.*.*.*.*.*.*.*.*.*.*.*.*.*.*.*.*.*.*.*.*.*.*.*.*.*.*.*.*.*.*.*.*.*.",
"*.*.*.*.*.*.*.*.*.*.*.*.*.*.*.*.*.*.*.*.*.*.*.*.*.*.*.*.*.*.*.*.*.*.*.*.*.*.*.*.*.*.*.*.*.*.*.*.*.*.*.*.*.*.*.*.*.*.*.*.*.*.*.*.",
"*.*.*.*.*.*.*.*.*.*.*.*.*.*.*.*.*.*.*.*.*.*.*.*.*.*.*.*.*.*.*.*.*.*.*.*.*.*.*.*.*.*.*.*.*.*.*.*.*.*.*.*.*.*.*.*.*.*.*.*.*.*.*.*.",
"*.*.*.*.*.*.*.*.*.*.*.*.*.p p p p p p *.*.*.*.*.*.*.*.*.*.*.*.*.*.*.*.*.*.*.*.*.*.*.*.*.*.*.*.*.*.*.*.*.*.*.*.*.*.*.*.*.*.*.*.*.",
"*.*.*.*.*.*.*.*.*.*.*.*.*.p p p p p p p *.*.*.*.*.*.*.*.*.*.*.*.*.*.*.*.*.*.*.*.*.*.*.*.p p p p p p p p *.*.*.*.*.*.*.*.*.*.*.*.",
"*.*.*.*.*.*.*.*.*.p p p p p p p p p p p p p p *.*.*.*.*.*.*.*.*.*.*.*.*.*.*.*.*.*.p p p p p p p p p p p p p p *.*.*.*.*.*.*.*.*.",
"*.*.*.*.*.*.*.*.*.p p p p p p p p p p p p p p *.*.*.*.*.*.*.*.*.*.*.*.*.*.*.*.*.*.p p p p p p p p p p p p p p *.*.*.*.*.*.*.*.*.",
"*.*.*.*.*.*.*.p p p p u u u p p p p p p p u u u u *.*.*.*.*.*.*.*.*.*.*.*.*.*.p p p p p p p p p p p p p p p p p p *.*.*.*.*.*.*.",
"*.*.*.*.*.*.p p p p Z ( ( / p p p p p p p ! ( ( ~ y p *.*.*.*.*.*.*.*.*.*.*.*.p p p z V V N p p p p p p p B V V M *.*.*.*.*.*.*.",
"*.*.*.*.*.p p p p u ) U U L p p p p p p u K U U ' y p *.*.*.*.*.*.*.*.*.*.p p p p y ..Y Y F y p p p p p p P Y Y _ u p *.*.*.*.*.",
"*.*.*.*.*.p p p a A X.U U L A A x p p g A L U U O.A A *.*.*.*.*.*.*.*.*.*.p p p d j o.U U F j k p p p b l L U U { j k *.*.*.*.*.",
"*.*.*.*.*.p p p d U U U J G G H v p p V T U U G G G G *.*.*.*.*.*.*.*.*.*.p p p n $.U U R &.%.%.x p p C $.U U &.&.%.%.*.*.*.*.*.",
"*.*.*.*.*.p p p d U U U 8   .   0 p p V T U &.@ . . . *.*.*.*.*.*.*.*.*.*.p p p n T U R 4 o o O e p p C Y U &.% o o o *.*.*.*.*.",
"*.*.*.*.*.p p p d U U U 8       0 p p V T U &.@       *.*.*.*.*.*.*.*.*.*.p p p n T U R 2     X w p p C Y U &.+       *.*.*.*.*.",
"*.*.*.p p p p p d U U U 7       0 p p V T U &.@     # c *.*.*.*.*.*.*.p p p p p n T U R 2     X w p p C Y U &.+     $ c *.*.*.*.",
"*.*.*.p p p p p a E +.U D 3 ; = q p p h W L R 6 5 - , f *.*.*.*.*.*.*.p p p p p v _ @.U 9 < & * t p p m _ U R 1 > & : f *.*.*.*.",
"*.*.*.p p p p p p y ) U U I p p p p p p y K U U [ i p p *.*.*.*.*.*.*.p p p p p p r  .U U #.i f p p p p u L U R ` s f p *.*.*.*.",
"*.*.*.p p p p p p u S } } { p p p p p p u ] } } ^ u p p *.*.*.*.*.*.*.p p p p p p y Q  . .{ y p p p p p p |  . .^ u p p *.*.*.*.",
"*.*.*.p p p p p p p u y y y p p p p p p p y y y u p p p *.*.*.*.*.*.*.p p p p p p p y y y y p p p p p p p y y y u p p p *.*.*.*.",
"*.*.*.p p p p p p p p p p p p p p p p p p p p p p p p p *.*.*.*.*.*.*.p p p p p p p p p p p p p p p p p p p p p p p p p *.*.*.*.",
"*.*.*.p p p p p p p p p p p p p p p p p p p p p p p p p *.*.*.*.*.*.*.p p p p p p p p p p p p p p p p p p p p p p p p p *.*.*.*.",
"*.*.*.p p p p p p p p p p p p p p p p p p p p p p p p p *.*.*.*.*.*.*.p p p p p p p p p p p p p p p p p p p p p p p p p *.*.*.*.",
"*.*.*.p p p p p p p p p p p p p p p p p p p p p p p p p *.*.*.*.*.*.*.p p p p p p p p p p p p p p p p p p p p p p p p p *.*.*.*.",
"*.*.*.p p p p p p p p p p p p p p p p p p p p p p p p p *.*.*.*.*.*.*.p p p p p p p p p p p p p p p p p p p p p p p p p *.*.*.*.",
"*.*.*.p p p p p p p p p p p p p p p p p p p p p p p p p *.*.*.*.*.*.*.p p p p p p p p p p p p p p p p p p p p p p p p p *.*.*.*.",
"*.*.*.p p p p p p p *.*.p p p p p p p p *.p p p p p p p *.*.*.*.*.*.*.p p p *.*.p p p p p p *.*.*.p p p p p p *.*.p p p *.*.*.*.",
"*.*.*.*.*.p p p *.*.*.*.*.*.p p p p *.*.*.*.*.p p p *.*.*.*.*.*.*.*.*.p p *.*.*.*.*.p p p p *.*.*.p p p p *.*.*.*.*.*.p *.*.*.*.",
"*.*.*.*.*.p p p *.*.*.*.*.*.p p p p *.*.*.*.*.p p p *.*.*.*.*.*.*.*.*.p p *.*.*.*.*.p p p p *.*.*.p p p p *.*.*.*.*.*.p *.*.*.*.",
"*.*.*.*.*.*.*.*.*.*.*.*.*.*.*.*.*.*.*.*.*.*.*.*.*.*.*.*.*.*.*.*.*.*.*.*.*.*.*.*.*.*.*.*.*.*.*.*.*.*.*.*.*.*.*.*.*.*.*.*.*.*.*.*.",
"*.*.*.*.*.*.*.*.*.*.*.*.*.*.*.*.*.*.*.*.*.*.*.*.*.*.*.*.*.*.*.*.*.*.*.*.*.*.*.*.*.*.*.*.*.*.*.*.*.*.*.*.*.*.*.*.*.*.*.*.*.*.*.*.",
"*.*.*.*.*.*.*.*.*.*.*.*.*.*.*.*.*.*.*.*.*.*.*.*.*.*.*.*.*.*.*.*.*.*.*.*.*.*.*.*.*.*.*.*.*.*.*.*.*.*.*.*.*.*.*.*.*.*.*.*.*.*.*.*.",
"*.*.*.*.*.*.*.*.*.*.*.*.*.*.*.*.*.*.*.*.*.*.*.*.*.*.*.*.*.*.*.*.*.*.*.*.*.*.*.*.*.*.*.*.*.*.*.*.*.*.*.*.*.*.*.*.*.*.*.*.*.*.*.*."
};
