/* XPM */
static char *ghost_left[] = {
/* columns rows colors chars-per-pixel */
"64 32 109 2 ",
"   c black",
".  c #1D1D1D",
"X  c gray14",
"o  c #3D252B",
"O  c gray19",
"+  c #473439",
"@  c gray50",
"#  c #9A6372",
"$  c #9A6976",
"%  c #A16878",
"&  c #967B81",
"*  c #C37F92",
"=  c #C47F92",
"-  c gray51",
";  c #8E8F8F",
":  c gray56",
">  c gray57",
",  c #A5A5A5",
"<  c gray65",
"1  c #A7A7A7",
"2  c gray67",
"3  c gray75",
"4  c #C58093",
"5  c #E192A8",
"6  c #E193A9",
"7  c #EB9AB1",
"8  c #EC9BB2",
"9  c #F29BB3",
"0  c #F19CB4",
"q  c #F19DB4",
"w  c #F19DB5",
"e  c #F29CB4",
"r  c #F09EB4",
"t  c #F19EB5",
"y  c #F29EB5",
"u  c #F29EB6",
"i  c #F29FB6",
"p  c #EFA5B9",
"a  c #EFA7BA",
"s  c #E1ABB9",
"d  c #EFA8BB",
"f  c #EEA9BB",
"g  c #EEA9BC",
"h  c #EEACBD",
"j  c #EEACBE",
"k  c #EEADBE",
"l  c #EDAEBF",
"z  c #F1A0B6",
"x  c #F0A1B7",
"c  c #F0A2B7",
"v  c #F0A4B8",
"b  c #F0A6BA",
"n  c #ECB1C0",
"m  c #ECB3C2",
"M  c #EBB5C3",
"N  c #EBB6C3",
"B  c #ECB4C2",
"V  c #EBB7C4",
"C  c #EBB8C4",
"Z  c #EAB8C5",
"A  c #EBB8C5",
"S  c #EAB9C5",
"D  c #EAB9C6",
"F  c #EABBC7",
"G  c #BFC0C0",
"H  c #C0C0C0",
"J  c #CFCECE",
"K  c gray81",
"L  c #D4C0C5",
"P  c #D0D0D0",
"I  c #D5D5D5",
"U  c #D7D7D7",
"Y  c gray86",
"T  c #DFDADB",
"R  c #DFDBDC",
"E  c #DDDDDD",
"W  c #DFDCDC",
"Q  c #DFDCDD",
"!  c #DEDDDD",
"~  c gray87",
"^  c #DEDFDE",
"/  c #DEDFDF",
"(  c #DFDFDF",
")  c #E7C3CC",
"_  c #E7C5CD",
"`  c #E6C6CE",
"'  c #E6C7CE",
"]  c #E8C0CA",
"[  c #E9C0CB",
"{  c #E6C8CF",
"}  c #E6C9CF",
"|  c #E5C9D0",
" . c #E5CAD0",
".. c #E5CAD1",
"X. c #E5CBD1",
"o. c #E4CCD2",
"O. c #E4CED3",
"+. c #E4CFD4",
"@. c #E3D1D5",
"#. c #E2D2D6",
"$. c #E2D3D6",
"%. c #E2D3D7",
"&. c #E2D4D7",
"*. c #E1D5D8",
"=. c #E1D6D8",
"-. c #E0D8DA",
";. c #DDE0DF",
":. c #DEE0E0",
">. c None",
/* pixels */
">.>.>.>.>.>.>.>.>.>.>.>.>.>.>.>.>.>.>.>.>.>.>.>.>.>.>.>.>.>.>.>.>.>.>.>.>.>.>.>.>.>.>.>.>.>.>.>.>.>.>.>.>.>.>.>.>.>.>.>.>.>.>.>.",
">.>.>.>.>.>.>.>.>.>.>.>.>.>.>.>.>.>.>.>.>.>.>.>.>.>.>.>.>.>.>.>.>.>.>.>.>.>.>.>.>.>.>.>.>.>.>.>.>.>.>.>.>.>.>.>.>.>.>.>.>.>.>.>.",
">.>.>.>.>.>.>.>.>.>.>.>.>.>.>.>.>.>.>.>.>.>.>.>.>.>.>.>.>.>.>.>.>.>.>.>.>.>.>.>.>.>.>.>.>.>.>.>.>.>.>.>.>.>.>.>.>.>.>.>.>.>.>.>.",
">.>.>.>.>.>.>.>.>.>.>.>.>.>.>.>.>.>.>.>.>.>.>.>.>.>.>.>.>.>.>.>.>.>.>.>.>.>.>.>.>.>.>.>.>.t t t t t t t >.>.>.>.>.>.>.>.>.>.>.>.",
">.>.>.>.>.>.>.>.>.>.>.>.>.t t t t t t t >.>.>.>.>.>.>.>.>.>.>.>.>.>.>.>.>.>.>.>.>.>.>.>.>.t t t t t t t >.>.>.>.>.>.>.>.>.>.>.>.",
">.>.>.>.>.>.>.>.>.t t t t t t t t t t t t t t >.>.>.>.>.>.>.>.>.>.>.>.>.>.>.>.>.>.t t t t t t t t t t t t t t t >.>.>.>.>.>.>.>.",
">.>.>.>.>.>.>.>.>.t t t t t t t t t t t t t t >.>.>.>.>.>.>.>.>.>.>.>.>.>.>.>.>.>.t t t t t t t t t t t t t t t >.>.>.>.>.>.>.>.",
">.>.>.>.>.>.>.t t t t t t t t t t t t t t t t t t >.>.>.>.>.>.>.>.>.>.>.>.>.>.q q q q t t t t t t t q q q w t t t >.>.>.>.>.>.>.",
">.>.>.>.>.>.p ) ) ) k t t t t t t n ) ) ) z t t t t >.>.>.>.>.>.>.>.>.>.>.>.q o.R R -.q t t t t t t T R R ` w t t t t >.>.>.>.>.",
">.>.>.>.>.t p / ~ ^ S t t t t t t ] ~ ~ ^ x t t t t t >.>.>.>.>.>.>.>.>.>.>.9 O.~ ~ R 9 0 t t t w q ! ~ ~ { e q t t t >.>.>.>.>.",
">.>.>.>.>.V F ^ ~ ~ ' V j t t t N X.~ ~ ~ S A c t t t >.>.>.>.>.>.>.>.>.>.>.*.R ~ ~ ~ *.*.z t t M =.~ ~ ~ R *.X.q t t >.>.>.>.>.",
">.>.>.>.>.^ ^ ~ ~ ~ ~ ^ _ t t q Q ~ ~ ~ ~ ^ ;.f t t t >.>.>.>.>.>.>.>.>.>.>.H H H P ~ ~ ~ z t t s G H 3 Y ~ ~ #.0 t t >.>.>.>.>.",
">.>.>.>.>.X X X O ~ ~ ~ _ t t i + X X - ( ~ / f t t t >.>.>.>.>.>.>.>.>.>.>.      < ~ ~ ~ z t t =       I ~ ~ #.0 t t >.>.>.>.>.",
">.>.>.>.>.      . ~ ~ ~ _ t t i o     @ ( ~ / f t t t >.>.>.>.>.>.>.>.>.>.>.      1 ~ ~ ~ z t t 4       I ~ ~ #.0 t t >.>.>.>.>.",
">.>.>.t i #     . ~ ~ ~ _ t t i o     @ ( ~ / f t t t t >.>.>.>.>.>.>.>.t 8       , ~ / / z t t =       I ~ / $.0 t t t t >.>.>.",
">.>.>.t t * $ ; > ~ @.| C t t i % & : 2 ( .. .p t t t t >.>.>.>.>.>.>.>.t r 5 L K U W d g t t t 7 6 J K E X.f a t t t t t >.>.>.",
">.>.>.t t y b :.( ~ Z w t t t t u [ ( ( ~ x w t t t t t >.>.>.>.>.>.>.>.t t q +.^ ^ Q q t t t t t t ~ ^ ^ } w t t t t t t >.>.>.",
">.>.>.t t t v &.$.%.B t t t t t t D $.$.%.x t t t t t t >.>.>.>.>.>.>.>.t t t l B B m t t t t t t t B B B h t t t t t t t >.>.>.",
">.>.>.t t t t 0 0 0 w t t t t t t w 0 0 0 t t t t t t t >.>.>.>.>.>.>.>.t t t t t t t t t t t t t t t t t t t t t t t t t >.>.>.",
">.>.>.t t t t t t t t t t t t t t t t t t t t t t t t t >.>.>.>.>.>.>.>.t t t t t t t t t t t t t t t t t t t t t t t t t >.>.>.",
">.>.>.t t t t t t t t t t t t t t t t t t t t t t t t t >.>.>.>.>.>.>.>.t t t t t t t t t t t t t t t t t t t t t t t t t >.>.>.",
">.>.>.t t t t t t t t t t t t t t t t t t t t t t t t t >.>.>.>.>.>.>.>.t t t t t t t t t t t t t t t t t t t t t t t t t >.>.>.",
">.>.>.t t t t t t t t t t t t t t t t t t t t t t t t t >.>.>.>.>.>.>.>.t t t t t t t t t t t t t t t t t t t t t t t t t >.>.>.",
">.>.>.t t t t t t t t t t t t t t t t t t t t t t t t t >.>.>.>.>.>.>.>.t t t t t t t t t t t t t t t t t t t t t t t t t >.>.>.",
">.>.>.t t t t t t t t t t t t t t t t t t t t t t t t t >.>.>.>.>.>.>.>.t t t >.t t t t t t t >.>.>.t t t t t t >.t t t t >.>.>.",
">.>.>.t t t t t t t >.>.t t t t t t t t >.t t t t t t t >.>.>.>.>.>.>.>.t t t >.>.t t t t t >.>.>.>.t t t t t t >.>.t t t >.>.>.",
">.>.>.>.>.t t t >.>.>.>.>.>.t t t t >.>.>.>.>.t t t >.>.>.>.>.>.>.>.>.>.t >.>.>.>.>.>.t t t >.>.>.>.t t t t >.>.>.>.>.t t >.>.>.",
">.>.>.>.>.t t t >.>.>.>.>.>.t t t t >.>.>.>.>.t t t >.>.>.>.>.>.>.>.>.>.t >.>.>.>.>.>.t t t >.>.>.>.t t t t >.>.>.>.>.t t >.>.>.",
">.>.>.>.>.>.>.>.>.>.>.>.>.>.>.>.>.>.>.>.>.>.>.>.>.>.>.>.>.>.>.>.>.>.>.>.>.>.>.>.>.>.>.>.>.>.>.>.>.>.>.>.>.>.>.>.>.>.>.>.>.>.>.>.",
">.>.>.>.>.>.>.>.>.>.>.>.>.>.>.>.>.>.>.>.>.>.>.>.>.>.>.>.>.>.>.>.>.>.>.>.>.>.>.>.>.>.>.>.>.>.>.>.>.>.>.>.>.>.>.>.>.>.>.>.>.>.>.>.",
">.>.>.>.>.>.>.>.>.>.>.>.>.>.>.>.>.>.>.>.>.>.>.>.>.>.>.>.>.>.>.>.>.>.>.>.>.>.>.>.>.>.>.>.>.>.>.>.>.>.>.>.>.>.>.>.>.>.>.>.>.>.>.>.",
">.>.>.>.>.>.>.>.>.>.>.>.>.>.>.>.>.>.>.>.>.>.>.>.>.>.>.>.>.>.>.>.>.>.>.>.>.>.>.>.>.>.>.>.>.>.>.>.>.>.>.>.>.>.>.>.>.>.>.>.>.>.>.>."
};
