/* XPM */
static char *red_yellow_frames[] = {
/* columns rows colors chars-per-pixel */
"64 128 245 2 ",
"   c black",
".  c #010101",
"X  c #020202",
"o  c gray2",
"O  c #0A0405",
"+  c #090909",
"@  c #0A0809",
"#  c #1D1D1D",
"$  c gray14",
"%  c gray16",
"&  c #3D252B",
"*  c gray19",
"=  c #3F3F3F",
"-  c #473439",
";  c #4F3139",
":  c #4F323A",
">  c #4F343B",
",  c #414040",
"<  c #414141",
"1  c gray28",
"2  c #484848",
"3  c #494949",
"4  c #505050",
"5  c #5A5A5A",
"6  c #65404A",
"7  c #68414C",
"8  c #794F5B",
"9  c gray39",
"0  c #6D6D6D",
"q  c #6F6F6F",
"w  c gray44",
"e  c gray50",
"r  c #96606F",
"t  c #966170",
"y  c #9A6372",
"u  c #9A6976",
"i  c #A16878",
"p  c #A76B7C",
"a  c #A86C7D",
"s  c #A86D7E",
"d  c #A96D7E",
"f  c #AA6D7E",
"g  c #AA6E7E",
"h  c #AB6F7F",
"j  c #8E7D81",
"k  c #967B81",
"l  c #AC7282",
"z  c #B17384",
"x  c #B77789",
"c  c #B87789",
"v  c #C17E91",
"b  c #C37F92",
"n  c #C47F92",
"m  c gray51",
"M  c #8B8788",
"N  c #8E8F8F",
"B  c gray56",
"V  c #9F8F93",
"C  c gray57",
"Z  c gray59",
"A  c #979797",
"S  c #989898",
"D  c #9A9A9A",
"F  c #9C9899",
"G  c #9C9B9B",
"H  c gray62",
"J  c #9F9F9F",
"K  c #A08F93",
"L  c #A5A5A5",
"P  c gray65",
"I  c #A7A7A7",
"U  c gray66",
"Y  c #AAAAAA",
"T  c gray67",
"R  c #B4B4B4",
"E  c #BBBBBB",
"W  c gray",
"Q  c gray75",
"!  c #C58093",
"~  c #CF869A",
"^  c #CF879B",
"/  c #D2899E",
"(  c #E192A8",
")  c #E193A9",
"_  c #E292A8",
"`  c #EB9AB1",
"'  c #EC9BB1",
"]  c #EC9BB2",
"[  c #EE9CB3",
"{  c #EF9CB3",
"}  c #EF9DB3",
"|  c #EF9DB4",
" . c #F29BB3",
".. c #F19CB4",
"X. c #F09DB4",
"o. c #F19DB4",
"O. c #F19DB5",
"+. c #F29CB4",
"@. c #F29DB5",
"#. c #F09EB4",
"$. c #F09EB5",
"%. c #F19EB5",
"&. c #F19FB5",
"*. c #F29EB5",
"=. c #F19FB6",
"-. c #F29EB6",
";. c #F29FB6",
":. c #F39FB7",
">. c #C3B1B5",
",. c #C0BBBC",
"<. c #EEA0B5",
"1. c #ECA5B8",
"2. c #EFA5B9",
"3. c #EFA7BA",
"4. c #E1ABB9",
"5. c #EFA8BB",
"6. c #EEA9BB",
"7. c #EEA9BC",
"8. c #EEAABC",
"9. c #EEABBC",
"0. c #EEABBD",
"q. c #EEACBD",
"w. c #EEACBE",
"e. c #EEADBE",
"r. c #EDAEBF",
"t. c #EDAFBF",
"y. c #F1A0B6",
"u. c #F0A1B6",
"i. c #F0A1B7",
"p. c #F3A0B7",
"a. c #F0A2B7",
"s. c #F1A2B7",
"d. c #F0A3B8",
"f. c #F2A3B9",
"g. c #F0A4B8",
"h. c #F0A4B9",
"j. c #F0A6BA",
"k. c #F1A8BC",
"l. c #EDB0C0",
"z. c #ECB1C0",
"x. c #ECB2C1",
"c. c #ECB3C2",
"v. c #EBB5C3",
"b. c #EBB6C3",
"n. c #ECB4C2",
"m. c #EBB6C4",
"M. c #EBB7C4",
"N. c #EBB8C4",
"B. c #EAB8C5",
"V. c #EBB8C5",
"C. c #EAB9C5",
"Z. c #EAB9C6",
"A. c #EABAC6",
"S. c #EABBC6",
"D. c #EABBC7",
"F. c #E9BDC8",
"G. c #E9BEC8",
"H. c #E9BEC9",
"J. c #E9BFC9",
"K. c #BFC0C0",
"L. c #C0C0C0",
"P. c gray76",
"I. c gray77",
"U. c gray80",
"Y. c #CDCDCD",
"T. c #CECECE",
"R. c #CFCECE",
"E. c gray81",
"W. c #D4C0C5",
"Q. c #D5C1C6",
"!. c #D0D0D0",
"~. c #D5D5D5",
"^. c gray84",
"/. c #D7D7D7",
"(. c gray86",
"). c #DFDADB",
"_. c #DFDBDC",
"`. c #DBDCDC",
"'. c #DBDDDC",
"]. c gainsboro",
"[. c #DCDDDD",
"{. c #DDDDDD",
"}. c #DFDCDC",
"|. c #DFDCDD",
" X c #DEDDDD",
".X c #DFDDDD",
"XX c #DEDDDE",
"oX c #DFDDDE",
"OX c #DDDEDE",
"+X c #DDDFDF",
"@X c gray87",
"#X c #DEDFDE",
"$X c #DEDFDF",
"%X c #DFDFDF",
"&X c #E7C3CC",
"*X c #E7C4CC",
"=X c #E7C4CD",
"-X c #E7C5CD",
";X c #E7C6CD",
":X c #E6C6CE",
">X c #E6C7CE",
",X c #E6C7CF",
"<X c #E8C0CA",
"1X c #E8C1CA",
"2X c #E9C0CB",
"3X c #E8C1CB",
"4X c #E8C2CB",
"5X c #E6C8CF",
"6X c #E6C9CF",
"7X c #E5C9D0",
"8X c #E5CAD0",
"9X c #E5CAD1",
"0X c #E5CBD1",
"qX c #E6CBD1",
"wX c #E2CDD2",
"eX c #E4CCD2",
"rX c #E4CDD2",
"tX c #E4CDD3",
"yX c #E5CDD3",
"uX c #E4CED3",
"iX c #E3CFD4",
"pX c #E4CFD4",
"aX c #E3D0D5",
"sX c #E3D1D5",
"dX c #E2D2D6",
"fX c #E3D2D6",
"gX c #E2D3D6",
"hX c #E2D3D7",
"jX c #E2D4D7",
"kX c #E1D5D8",
"lX c #E1D6D8",
"zX c #E1D6D9",
"xX c #E0D7D9",
"cX c #E1D7D9",
"vX c #E0D8DA",
"bX c #E0D9DB",
"nX c #E0DADB",
"mX c #E0DBDC",
"MX c #DDE0DF",
"NX c #DDE0E0",
"BX c #DEE0E0",
"VX c #DFE1E0",
"CX c #DFE1E1",
"ZX c gray88",
"AX c None",
/* pixels */
"AXAXAXAXAXAXAXAXAXAXAXAXAXAXAXAXAXAXAXAXAXAXAXAXAXAXAXAXAXAXAXAXAXAXAXAXAXAXAXAXAXAXAXAXAXAXAXAXAXAXAXAXAXAXAXAXAXAXAXAXAXAXAXAX",
"AXAXAXAXAXAXAXAXAXAXAXAXAXAXAXAXAXAXAXAXAXAXAXAXAXAXAXAXAXAXAXAXAXAXAXAXAXAXAXAXAXAXAXAXAXAXAXAXAXAXAXAXAXAXAXAXAXAXAXAXAXAXAXAX",
"AXAXAXAXAXAXAXAXAXAXAXAXAXAXAXAXAXAXAXAXAXAXAXAXAXAXAXAXAXAXAXAXAXAXAXAXAXAXAXAXAXAXAXAXAXAXAXAXAXAXAXAXAXAXAXAXAXAXAXAXAXAXAXAX",
"AXAXAXAXAXAXAXAXAXAXAXAXAX%.%.%.%.%.%.AXAXAXAXAXAXAXAXAXAXAXAXAXAXAXAXAXAXAXAXAXAXAXAXAXAXAXAXAXAXAXAXAXAXAXAXAXAXAXAXAXAXAXAXAX",
"AXAXAXAXAXAXAXAXAXAXAXAXAX%.%.%.%.%.%.%.AXAXAXAXAXAXAXAXAXAXAXAXAXAXAXAXAXAXAXAXAXAXAXAX%.%.%.%.%.%.%.%.AXAXAXAXAXAXAXAXAXAXAXAX",
"AXAXAXAXAXAXAXAXAX%.%.%.%.%.%.%.%.%.%.%.%.%.%.AXAXAXAXAXAXAXAXAXAXAXAXAXAXAXAXAXAX%.%.%.%.%.%.%.%.%.%.%.%.%.%.AXAXAXAXAXAXAXAXAX",
"AXAXAXAXAXAXAXAXAX%.%.%.%.%.%.%.%.%.%.%.%.%.%.AXAXAXAXAXAXAXAXAXAXAXAXAXAXAXAXAXAX%.%.%.%.%.%.%.%.%.%.%.%.%.%.AXAXAXAXAXAXAXAXAX",
"AXAXAXAXAXAXAX%.%.%.%.O.O.O.%.%.%.%.%.%.%.O.O.O.O.AXAXAXAXAXAXAXAXAXAXAXAXAXAX%.%.%.%.%.%.%.%.%.%.%.%.%.%.%.%.%.%.AXAXAXAXAXAXAX",
"AXAXAXAXAXAX%.%.%.%.S.7X7X5X%.%.%.%.%.%.%.,X7X7X<Xo.%.AXAXAXAXAXAXAXAXAXAXAXAX%.%.%.t.n.n.x.%.%.%.%.%.%.%.c.n.n.z.AXAXAXAXAXAXAX",
"AXAXAXAXAX%.%.%.%.O.8X@X@X X%.%.%.%.%.%.O.}.@X@XrXo.%.AXAXAXAXAXAXAXAXAXAX%.%.%.%.o.fX#X#X_.o.%.%.%.%.%.%.XX#X#X0XO.%.AXAXAXAXAX",
"AXAXAXAXAX%.%.%.&.F.gX@X@X XF.F.y.%.%.5.F. X@X@XjXF.F.AXAXAXAXAXAXAXAXAXAX%.%.%.=.0.hX@X@X_.0.q.%.%.%.d.w. X@X@XuX0.q.AXAXAXAXAX",
"AXAXAXAXAX%.%.%.=.@X@X@X{.].].[.a.%.%.n.$X@X@X].].].].AXAXAXAXAXAXAXAXAXAX%.%.%.g.MX@X@X%XZXVXVXy.%.%.C.MX@X@XZXZXVXVXAXAXAXAXAX",
"AXAXAXAXAX%.%.%.=.@X@X@XT   o   ` %.%.n.$X@XZX5 o o o AXAXAXAXAXAXAXAXAXAX%.%.%.g.$X@X%XH = = , | %.%.C.#X@XZX9 = = = AXAXAXAXAX",
"AXAXAXAXAX%.%.%.=.@X@X@XT       ` %.%.n.$X@XZX5       AXAXAXAXAXAXAXAXAXAX%.%.%.g.$X@X%XS     O } %.%.C.#X@XZX4       AXAXAXAXAX",
"AXAXAX%.%.%.%.%.=.@X@X@XY       ` %.%.n.$X@XZX5     6 p.AXAXAXAXAXAXAX%.%.%.%.%.g.$X@X%XS     O } %.%.C.#X@XZX4     7 p.AXAXAXAX",
"AXAXAX%.%.%.%.%.&.*XkX@XI.G g s [ %.%.8.=X X%XI K f x ;.AXAXAXAXAXAXAX%.%.%.%.%.a.0XnX@XR M r t X.%.%.l.0X@X%XZ j r h ;.AXAXAXAX",
"AXAXAX%.%.%.%.%.%.o.8X@X@XoX%.%.%.%.%.%.o.}.@X@XyX@.%.%.AXAXAXAXAXAXAX%.%.%.%.%.%...sX@X@XmX@.;.%.%.%.%.O. X@X%XqX*.;.%.AXAXAXAX",
"AXAXAX%.%.%.%.%.%.O.J.iXiXuX%.%.%.%.%.%.O.tXiXiX3XO.%.%.AXAXAXAXAXAXAX%.%.%.%.%.%.o.>XsXsXuXo.%.%.%.%.%.%.aXsXsX3XO.%.%.AXAXAXAX",
"AXAXAX%.%.%.%.%.%.%.O.o.o.o.%.%.%.%.%.%.%.o.o.o.O.%.%.%.AXAXAXAXAXAXAX%.%.%.%.%.%.%.o.o.o.o.%.%.%.%.%.%.%.o.o.o.O.%.%.%.AXAXAXAX",
"AXAXAX%.%.%.%.%.%.%.%.%.%.%.%.%.%.%.%.%.%.%.%.%.%.%.%.%.AXAXAXAXAXAXAX%.%.%.%.%.%.%.%.%.%.%.%.%.%.%.%.%.%.%.%.%.%.%.%.%.AXAXAXAX",
"AXAXAX%.%.%.%.%.%.%.%.%.%.%.%.%.%.%.%.%.%.%.%.%.%.%.%.%.AXAXAXAXAXAXAX%.%.%.%.%.%.%.%.%.%.%.%.%.%.%.%.%.%.%.%.%.%.%.%.%.AXAXAXAX",
"AXAXAX%.%.%.%.%.%.%.%.%.%.%.%.%.%.%.%.%.%.%.%.%.%.%.%.%.AXAXAXAXAXAXAX%.%.%.%.%.%.%.%.%.%.%.%.%.%.%.%.%.%.%.%.%.%.%.%.%.AXAXAXAX",
"AXAXAX%.%.%.%.%.%.%.%.%.%.%.%.%.%.%.%.%.%.%.%.%.%.%.%.%.AXAXAXAXAXAXAX%.%.%.%.%.%.%.%.%.%.%.%.%.%.%.%.%.%.%.%.%.%.%.%.%.AXAXAXAX",
"AXAXAX%.%.%.%.%.%.%.%.%.%.%.%.%.%.%.%.%.%.%.%.%.%.%.%.%.AXAXAXAXAXAXAX%.%.%.%.%.%.%.%.%.%.%.%.%.%.%.%.%.%.%.%.%.%.%.%.%.AXAXAXAX",
"AXAXAX%.%.%.%.%.%.%.%.%.%.%.%.%.%.%.%.%.%.%.%.%.%.%.%.%.AXAXAXAXAXAXAX%.%.%.%.%.%.%.%.%.%.%.%.%.%.%.%.%.%.%.%.%.%.%.%.%.AXAXAXAX",
"AXAXAX%.%.%.%.%.%.%.AXAX%.%.%.%.%.%.%.%.AX%.%.%.%.%.%.%.AXAXAXAXAXAXAX%.%.%.AXAX%.%.%.%.%.%.AXAXAX%.%.%.%.%.%.AXAX%.%.%.AXAXAXAX",
"AXAXAXAXAX%.%.%.AXAXAXAXAXAX%.%.%.%.AXAXAXAXAX%.%.%.AXAXAXAXAXAXAXAXAX%.%.AXAXAXAXAX%.%.%.%.AXAXAX%.%.%.%.AXAXAXAXAXAX%.AXAXAXAX",
"AXAXAXAXAX%.%.%.AXAXAXAXAXAX%.%.%.%.AXAXAXAXAX%.%.%.AXAXAXAXAXAXAXAXAX%.%.AXAXAXAXAX%.%.%.%.AXAXAX%.%.%.%.AXAXAXAXAXAX%.AXAXAXAX",
"AXAXAXAXAXAXAXAXAXAXAXAXAXAXAXAXAXAXAXAXAXAXAXAXAXAXAXAXAXAXAXAXAXAXAXAXAXAXAXAXAXAXAXAXAXAXAXAXAXAXAXAXAXAXAXAXAXAXAXAXAXAXAXAX",
"AXAXAXAXAXAXAXAXAXAXAXAXAXAXAXAXAXAXAXAXAXAXAXAXAXAXAXAXAXAXAXAXAXAXAXAXAXAXAXAXAXAXAXAXAXAXAXAXAXAXAXAXAXAXAXAXAXAXAXAXAXAXAXAX",
"AXAXAXAXAXAXAXAXAXAXAXAXAXAXAXAXAXAXAXAXAXAXAXAXAXAXAXAXAXAXAXAXAXAXAXAXAXAXAXAXAXAXAXAXAXAXAXAXAXAXAXAXAXAXAXAXAXAXAXAXAXAXAXAX",
"AXAXAXAXAXAXAXAXAXAXAXAXAXAXAXAXAXAXAXAXAXAXAXAXAXAXAXAXAXAXAXAXAXAXAXAXAXAXAXAXAXAXAXAXAXAXAXAXAXAXAXAXAXAXAXAXAXAXAXAXAXAXAXAX",
"AXAXAXAXAXAXAXAXAXAXAXAXAXAXAXAXAXAXAXAXAXAXAXAXAXAXAXAXAXAXAXAXAXAXAXAXAXAXAXAXAXAXAXAXAXAXAXAXAXAXAXAXAXAXAXAXAXAXAXAXAXAXAXAX",
"AXAXAXAXAXAXAXAXAXAXAXAXAXAXAXAXAXAXAXAXAXAXAXAXAXAXAXAXAXAXAXAXAXAXAXAXAXAXAXAXAXAXAXAXAXAXAXAXAXAXAXAXAXAXAXAXAXAXAXAXAXAXAXAX",
"AXAXAXAXAXAXAXAXAXAXAXAXAXAXAXAXAXAXAXAXAXAXAXAXAXAXAXAXAXAXAXAXAXAXAXAXAXAXAXAXAXAXAXAXAXAXAXAXAXAXAXAXAXAXAXAXAXAXAXAXAXAXAXAX",
"AXAXAXAXAXAXAXAXAXAXAXAXAXAXAXAXAXAXAXAXAXAXAXAXAXAXAXAXAXAXAXAXAXAXAXAXAXAXAXAXAXAXAXAXAX%.%.%.%.%.%.%.AXAXAXAXAXAXAXAXAXAXAXAX",
"AXAXAXAXAXAXAXAXAXAXAXAXAX%.%.%.%.%.%.%.AXAXAXAXAXAXAXAXAXAXAXAXAXAXAXAXAXAXAXAXAXAXAXAXAX%.%.%.%.%.%.%.AXAXAXAXAXAXAXAXAXAXAXAX",
"AXAXAXAXAXAXAXAXAX%.%.%.%.%.%.%.%.%.%.%.%.%.%.AXAXAXAXAXAXAXAXAXAXAXAXAXAXAXAXAXAX%.%.%.%.%.%.%.%.%.%.%.%.%.%.%.AXAXAXAXAXAXAXAX",
"AXAXAXAXAXAXAXAXAX%.%.%.%.%.%.%.%.%.%.%.%.%.%.AXAXAXAXAXAXAXAXAXAXAXAXAXAXAXAXAXAX%.%.%.%.%.%.%.%.%.%.%.%.%.%.%.AXAXAXAXAXAXAXAX",
"AXAXAXAXAXAXAX%.%.%.%.%.%.%.%.%.%.%.%.%.%.%.%.%.%.AXAXAXAXAXAXAXAXAXAXAXAXAXAXo.o.o.o.%.%.%.%.%.%.%.o.o.o.O.%.%.%.AXAXAXAXAXAXAX",
"AXAXAXAXAXAX2.&X&X&Xe.%.%.%.%.%.%.z.&X&X&Xy.%.%.%.%.AXAXAXAXAXAXAXAXAXAXAXAXo.eX_._.vXo.%.%.%.%.%.%.)._._.:XO.%.%.%.%.AXAXAXAXAX",
"AXAXAXAXAX%.2.$X@X#XC.%.%.%.%.%.%.<X@X@X#Xi.%.%.%.%.%.AXAXAXAXAXAXAXAXAXAXAX .uX@X@X_. ...%.%.%.O.o. X@X@X5X+.o.%.%.%.AXAXAXAXAX",
"AXAXAXAXAXM.D.#X@X@X>XM.w.%.%.%.b.0X@X@X@XC.V.a.%.%.%.AXAXAXAXAXAXAXAXAXAXAXkX_.@X@X@XkXkXy.%.%.v.lX@X@X@X_.kX0Xo.%.%.AXAXAXAXAX",
"AXAXAXAXAX#X#X@X@X@X@X#X-X%.%.o.|.@X@X@X@X#XMX6.%.%.%.AXAXAXAXAXAXAXAXAXAXAXL.L.L.!.@X@X@Xy.%.%.4.K.L.Q (.@X@XdX..%.%.AXAXAXAXAX",
"AXAXAXAXAX$ $ $ * @X@X@X-X%.%.;.- $ $ m %X@X$X6.%.%.%.AXAXAXAXAXAXAXAXAXAXAX      P @X@X@Xy.%.%.n       ~.@X@XdX..%.%.AXAXAXAXAX",
"AXAXAXAXAX      # @X@X@X-X%.%.;.&     e %X@X$X6.%.%.%.AXAXAXAXAXAXAXAXAXAXAX      I @X@X@Xy.%.%.!       ~.@X@XdX..%.%.AXAXAXAXAX",
"AXAXAX%.;.y     # @X@X@X-X%.%.;.&     e %X@X$X6.%.%.%.%.AXAXAXAXAXAXAXAX%.]       L @X$X$Xy.%.%.n       ~.@X$XgX..%.%.%.%.AXAXAX",
"AXAXAX%.%.b u N C @XsX7XN.%.%.;.i k B T %X9X8X2.%.%.%.%.AXAXAXAXAXAXAXAX%.#.( W.E./.}.5.7.%.%.%.` ) R.E.{.0X6.3.%.%.%.%.%.AXAXAX",
"AXAXAX%.%.*.j.BX%X@XB.O.%.%.%.%.-.2X%X%X@Xi.O.%.%.%.%.%.AXAXAXAXAXAXAXAX%.%.o.pX#X#X|.o.%.%.%.%.%.%.@X#X#X6XO.%.%.%.%.%.%.AXAXAX",
"AXAXAX%.%.%.g.jXgXhXn.%.%.%.%.%.%.Z.gXgXhXi.%.%.%.%.%.%.AXAXAXAXAXAXAXAX%.%.%.r.n.n.c.%.%.%.%.%.%.%.n.n.n.q.%.%.%.%.%.%.%.AXAXAX",
"AXAXAX%.%.%.%.......O.%.%.%.%.%.%.O.......%.%.%.%.%.%.%.AXAXAXAXAXAXAXAX%.%.%.%.%.%.%.%.%.%.%.%.%.%.%.%.%.%.%.%.%.%.%.%.%.AXAXAX",
"AXAXAX%.%.%.%.%.%.%.%.%.%.%.%.%.%.%.%.%.%.%.%.%.%.%.%.%.AXAXAXAXAXAXAXAX%.%.%.%.%.%.%.%.%.%.%.%.%.%.%.%.%.%.%.%.%.%.%.%.%.AXAXAX",
"AXAXAX%.%.%.%.%.%.%.%.%.%.%.%.%.%.%.%.%.%.%.%.%.%.%.%.%.AXAXAXAXAXAXAXAX%.%.%.%.%.%.%.%.%.%.%.%.%.%.%.%.%.%.%.%.%.%.%.%.%.AXAXAX",
"AXAXAX%.%.%.%.%.%.%.%.%.%.%.%.%.%.%.%.%.%.%.%.%.%.%.%.%.AXAXAXAXAXAXAXAX%.%.%.%.%.%.%.%.%.%.%.%.%.%.%.%.%.%.%.%.%.%.%.%.%.AXAXAX",
"AXAXAX%.%.%.%.%.%.%.%.%.%.%.%.%.%.%.%.%.%.%.%.%.%.%.%.%.AXAXAXAXAXAXAXAX%.%.%.%.%.%.%.%.%.%.%.%.%.%.%.%.%.%.%.%.%.%.%.%.%.AXAXAX",
"AXAXAX%.%.%.%.%.%.%.%.%.%.%.%.%.%.%.%.%.%.%.%.%.%.%.%.%.AXAXAXAXAXAXAXAX%.%.%.%.%.%.%.%.%.%.%.%.%.%.%.%.%.%.%.%.%.%.%.%.%.AXAXAX",
"AXAXAX%.%.%.%.%.%.%.%.%.%.%.%.%.%.%.%.%.%.%.%.%.%.%.%.%.AXAXAXAXAXAXAXAX%.%.%.AX%.%.%.%.%.%.%.AXAXAX%.%.%.%.%.%.AX%.%.%.%.AXAXAX",
"AXAXAX%.%.%.%.%.%.%.AXAX%.%.%.%.%.%.%.%.AX%.%.%.%.%.%.%.AXAXAXAXAXAXAXAX%.%.%.AXAX%.%.%.%.%.AXAXAXAX%.%.%.%.%.%.AXAX%.%.%.AXAXAX",
"AXAXAXAXAX%.%.%.AXAXAXAXAXAX%.%.%.%.AXAXAXAXAX%.%.%.AXAXAXAXAXAXAXAXAXAX%.AXAXAXAXAXAX%.%.%.AXAXAXAX%.%.%.%.AXAXAXAXAX%.%.AXAXAX",
"AXAXAXAXAX%.%.%.AXAXAXAXAXAX%.%.%.%.AXAXAXAXAX%.%.%.AXAXAXAXAXAXAXAXAXAX%.AXAXAXAXAXAX%.%.%.AXAXAXAX%.%.%.%.AXAXAXAXAX%.%.AXAXAX",
"AXAXAXAXAXAXAXAXAXAXAXAXAXAXAXAXAXAXAXAXAXAXAXAXAXAXAXAXAXAXAXAXAXAXAXAXAXAXAXAXAXAXAXAXAXAXAXAXAXAXAXAXAXAXAXAXAXAXAXAXAXAXAXAX",
"AXAXAXAXAXAXAXAXAXAXAXAXAXAXAXAXAXAXAXAXAXAXAXAXAXAXAXAXAXAXAXAXAXAXAXAXAXAXAXAXAXAXAXAXAXAXAXAXAXAXAXAXAXAXAXAXAXAXAXAXAXAXAXAX",
"AXAXAXAXAXAXAXAXAXAXAXAXAXAXAXAXAXAXAXAXAXAXAXAXAXAXAXAXAXAXAXAXAXAXAXAXAXAXAXAXAXAXAXAXAXAXAXAXAXAXAXAXAXAXAXAXAXAXAXAXAXAXAXAX",
"AXAXAXAXAXAXAXAXAXAXAXAXAXAXAXAXAXAXAXAXAXAXAXAXAXAXAXAXAXAXAXAXAXAXAXAXAXAXAXAXAXAXAXAXAXAXAXAXAXAXAXAXAXAXAXAXAXAXAXAXAXAXAXAX",
"AXAXAXAXAXAXAXAXAXAXAXAXAXAXAXAXAXAXAXAXAXAXAXAXAXAXAXAXAXAXAXAXAXAXAXAXAXAXAXAXAXAXAXAXAXAXAXAXAXAXAXAXAXAXAXAXAXAXAXAXAXAXAXAX",
"AXAXAXAXAXAXAXAXAXAXAXAXAXAXAXAXAXAXAXAXAXAXAXAXAXAXAXAXAXAXAXAXAXAXAXAXAXAXAXAXAXAXAXAXAXAXAXAXAXAXAXAXAXAXAXAXAXAXAXAXAXAXAXAX",
"AXAXAXAXAXAXAXAXAXAXAXAXAXAXAXAXAXAXAXAXAXAXAXAXAXAXAXAXAXAXAXAXAXAXAXAXAXAXAXAXAXAXAXAXAXAXAXAXAXAXAXAXAXAXAXAXAXAXAXAXAXAXAXAX",
"AXAXAXAXAXAXAXAXAXAXAXAXAX%.%.%.%.%.%.AXAXAXAXAXAXAXAXAXAXAXAXAXAXAXAXAXAXAXAXAXAXAXAXAXAXAXAXAXAXAXAXAXAXAXAXAXAXAXAXAXAXAXAXAX",
"AXAXAXAXAXAXAXAXAXAXAXAXAX%.%.%.%.%.%.%.AXAXAXAXAXAXAXAXAXAXAXAXAXAXAXAXAXAXAXAXAXAXAXAXAX%.%.%.%.%.%.%.AXAXAXAXAXAXAXAXAXAXAXAX",
"AXAXAXAXAXAXAXAXAX%.%.%.%.%.%.%.%.%.%.%.%.%.%.AXAXAXAXAXAXAXAXAXAXAXAXAXAXAXAXAXAXAX%.%.%.%.%.%.%.%.%.%.%.%.%.%.AXAXAXAXAXAXAXAX",
"AXAXAXAXAXAXAXAXAX%.%.%.%.%.%.%.%.%.%.%.%.%.%.AXAXAXAXAXAXAXAXAXAXAXAXAXAXAXAXAXAX%.%.%.%.%.%.%.%.%.%.%.%.%.%.%.AXAXAXAXAXAXAXAX",
"AXAXAXAXAXAXAX%.%.%.%.%.%.%.%.%.%.%.%.%.%.%.%.%.%.AXAXAXAXAXAXAXAXAXAXAXAXAXAXAX%.%.%.%.%.%.%.%.%.%.%.%.%.%.%.%.%.AXAXAXAXAXAXAX",
"AXAXAXAXAXAX%.%.%.%.%.%.%.%.%.%.%.%.%.%.%.%.%.%.%.%.%.AXAXAXAXAXAXAXAXAXAXAXAX%.%.%.%.%.%.%.%.%.%.%.%.%.%.%.%.%.%.AXAXAXAXAXAXAX",
"AXAXAXAXAX%.%.%.%.%.%.%.%.%.%.%.%.%.%.%.%.%.%.%.%.%.%.AXAXAXAXAXAXAXAXAXAXAX%.%.%.%.%.%.%.%.%.%.%.%.%.%.%.%.%.%.%.%.%.AXAXAXAXAX",
"AXAXAXAXAX%.%.%.&.F.F.F.l.%.%.%.%.%.%.5.F.F.G.d.%.%.%.AXAXAXAXAXAXAXAXAXAXAX%.%.%.&.=.=.=.%.%.%.%.%.%.%.=.=.=.=.%.%.%.AXAXAXAXAX",
"AXAXAXAXAX%.%.y.i.@X@X@X:X=.%.%.%.&.y.v.$X@X+X8.=.%.%.AXAXAXAXAXAXAXAXAXAXAX%.O.o.&X@X@X@X=.%.%.%.%.O.+.bX@X@XdX+.%.%.AXAXAXAXAX",
"AXAXAXAXAX%.2.$X@X@X@X@X@X.X%.%.%.<X@X@X@X@X@X@XrXo.%.AXAXAXAXAXAXAXAXAXAXAXO.J.8XkX@X@X@X0Xc.%.%.%.7X8X|.@X@XnX9Xa.%.AXAXAXAXAX",
"AXAXAXAXAX%.2.$X@X@X@X@X@X X%.%.%.<X@X@X@X@X@X@XrXo.%.AXAXAXAXAXAXAXAXAXAXAXo.uX@X@X@X@X@X@XH.%.%.%. X@X@X@X@X@X$Xh.%.AXAXAXAXAX",
"AXAXAX%.%.%.2.$X@X@X@X@X@X X%.%.%.<X@X@X@X@X@X@XrXo.%.%.AXAXAXAXAXAXAXAXAXAXo.uX@X@X@X@X@X@XH.%.%.%. X@X@X@X@X@X$Xh.%.%.AXAXAXAX",
"AXAXAX%.%.%.2.$X{.U U U P..X%.%.%.<X@X!.I U P /.rXo.%.%.AXAXAXAXAXAXAXAX%.%.o.uX@X].(.(.(.@XH.%.%.%. X@X(.(.(.].$Xh.%.%.%.AXAXAX",
"AXAXAX%.%.%.2.$X].X     D oX%.%.%.<X@XW       !.rXo.%.%.AXAXAXAXAXAXAXAX%.%.o.uX@XH       `.H.%.%.%. XZX1     q VXh.%.%.%.AXAXAX",
"AXAXAX%.%.%.d.iXwX@     V uX%.%.%.M.uX>.      Q.1XO.%.%.AXAXAXAXAXAXAXAX%.%.o.uX$XJ       `.H.%.%.%.@XZX3     w CXh.%.%.%.AXAXAX",
"AXAXAX%.%.%.%.o.{       p @.%.%.%.O.o.~       _ O.%.%.%.AXAXAXAXAXAXAXAX%.%.%.u.s.l       <.y.%.%.%.i.f.:     8 f.%.%.%.%.AXAXAX",
"AXAXAX%.%.%.%.%.%.] ] ] [ %.%.%.%.%.%.X.' ] ' $.%.%.%.%.AXAXAXAXAXAXAXAX%.%.%.%.%./ z z z X.%.%.%.%.%.;.c z z v ;.%.%.%.%.AXAXAX",
"AXAXAX%.%.%.%.%.%.%.%.%.%.%.%.%.%.%.%.%.%.%.%.%.%.%.%.%.AXAXAXAXAXAXAXAX%.%.%.%.%.%.%.%.%.%.%.%.%.%.%.%.%.%.%.%.%.%.%.%.%.AXAXAX",
"AXAXAX%.%.%.%.%.%.%.%.%.%.%.%.%.%.%.%.%.%.%.%.%.%.%.%.%.AXAXAXAXAXAXAXAX%.%.%.%.%.%.%.%.%.%.%.%.%.%.%.%.%.%.%.%.%.%.%.%.%.AXAXAX",
"AXAXAX%.%.%.%.%.%.%.%.%.%.%.%.%.%.%.%.%.%.%.%.%.%.%.%.%.AXAXAXAXAXAXAXAX%.%.%.%.%.%.%.%.%.%.%.%.%.%.%.%.%.%.%.%.%.%.%.%.%.AXAXAX",
"AXAXAX%.%.%.%.%.%.%.%.%.%.%.%.%.%.%.%.%.%.%.%.%.%.%.%.%.AXAXAXAXAXAXAXAX%.%.%.%.%.%.%.%.%.%.%.%.%.%.%.%.%.%.%.%.%.%.%.%.%.AXAXAX",
"AXAXAX%.%.%.%.%.%.%.%.%.%.%.%.%.%.%.%.%.%.%.%.%.%.%.%.%.AXAXAXAXAXAXAXAX%.%.%.%.%.%.%.%.%.%.%.%.%.%.%.%.%.%.%.%.%.%.%.%.%.AXAXAX",
"AXAXAX%.%.%.%.%.%.%.AXAX%.%.%.%.%.%.%.%.AX%.%.%.%.%.%.%.AXAXAXAXAXAXAXAX%.%.%.AXAX%.%.%.%.%.%.AXAXAX%.%.%.%.%.%.AXAX%.%.%.AXAXAX",
"AXAXAXAXAX%.%.%.AXAXAXAXAXAX%.%.%.%.AXAXAXAXAX%.%.%.AXAXAXAXAXAXAXAXAXAX%.%.AXAXAX%.%.%.%.%.AXAXAXAX%.%.%.%.%.%.AXAX%.%.%.AXAXAX",
"AXAXAXAXAX%.%.%.AXAXAXAXAXAX%.%.%.%.AXAXAXAXAX%.%.%.AXAXAXAXAXAXAXAXAXAX%.AXAXAXAXAXAX%.%.%.AXAXAXAX%.%.%.%.AXAXAXAXAX%.%.AXAXAX",
"AXAXAXAXAXAXAXAXAXAXAXAXAXAXAXAXAXAXAXAXAXAXAXAXAXAXAXAXAXAXAXAXAXAXAXAX%.AXAXAXAXAXAX%.%.%.AXAXAXAX%.%.%.AXAXAXAXAXAX%.%.AXAXAX",
"AXAXAXAXAXAXAXAXAXAXAXAXAXAXAXAXAXAXAXAXAXAXAXAXAXAXAXAXAXAXAXAXAXAXAXAXAXAXAXAXAXAXAXAXAXAXAXAXAXAXAXAXAXAXAXAXAXAXAXAXAXAXAXAX",
"AXAXAXAXAXAXAXAXAXAXAXAXAXAXAXAXAXAXAXAXAXAXAXAXAXAXAXAXAXAXAXAXAXAXAXAXAXAXAXAXAXAXAXAXAXAXAXAXAXAXAXAXAXAXAXAXAXAXAXAXAXAXAXAX",
"AXAXAXAXAXAXAXAXAXAXAXAXAXAXAXAXAXAXAXAXAXAXAXAXAXAXAXAXAXAXAXAXAXAXAXAXAXAXAXAXAXAXAXAXAXAXAXAXAXAXAXAXAXAXAXAXAXAXAXAXAXAXAXAX",
"AXAXAXAXAXAXAXAXAXAXAXAXAXAXAXAXAXAXAXAXAXAXAXAXAXAXAXAXAXAXAXAXAXAXAXAXAXAXAXAXAXAXAXAXAXAXAXAXAXAXAXAXAXAXAXAXAXAXAXAXAXAXAXAX",
"AXAXAXAXAXAXAXAXAXAXAXAXAXAXAXAXAXAXAXAXAXAXAXAXAXAXAXAXAXAXAXAXAXAXAXAXAXAXAXAXAXAXAXAXAXAXAXAXAXAXAXAXAXAXAXAXAXAXAXAXAXAXAXAX",
"AXAXAXAXAXAXAXAXAXAXAXAXAXAXAXAXAXAXAXAXAXAXAXAXAXAXAXAXAXAXAXAXAXAXAXAXAXAXAXAXAXAXAXAXAXAXAXAXAXAXAXAXAXAXAXAXAXAXAXAXAXAXAXAX",
"AXAXAXAXAXAXAXAXAXAXAXAXAXAXAXAXAXAXAXAXAXAXAXAXAXAXAXAXAXAXAXAXAXAXAXAXAXAXAXAXAXAXAXAXAX%.%.%.%.%.%.%.AXAXAXAXAXAXAXAXAXAXAXAX",
"AXAXAXAXAXAXAXAXAXAXAXAXAX%.%.%.%.%.%.%.AXAXAXAXAXAXAXAXAXAXAXAXAXAXAXAXAXAXAXAXAXAXAXAXAX#.%.%.%.%.%.%.AXAXAXAXAXAXAXAXAXAXAXAX",
"AXAXAXAXAXAXAXAXAX      d %.%.%.%.%.%.^       AXAXAXAXAXAXAXAXAXAXAXAXAXAXAXAXAXAX        [ %.%.%.%.%.:.;       AXAXAXAXAXAXAXAX",
"AXAXAXAXAXAXAXAXAX      a @.%.%.%.O.o.~     . AXAXAXAXAXAXAXAXAXAXAXAXAXAXAXAXAXAX2       1.a.%.%.%.3.k.>     % AXAXAXAXAXAXAXAX",
"AXAXAXAXAXAXAX@X].+     F bX%.%.%.G.).,.      E.@XAXAXAXAXAXAXAXAXAXAXAXAXAXAX@X@XH       '.J.%.%.%.@XCX<     0 ZXAXAXAXAXAXAXAX",
"AXAXAXAXAXAXAX@X{.S S S E .X%.%.%.<X@XY.A S Z ^.kXAXAXAXAXAXAXAXAXAXAXAXAXAXo.aX@X~.U.U.U.OXH.%.%.%. X@XT.U.U.!.$X2.%.AXAXAXAXAX",
"AXAXAXAXAX%.2.$X@X%X%X%X@X X%.%.%.<X@X@X%X%X%X@XrXo.%.AXAXAXAXAXAXAXAXAXAXAXo.uX@X@X@X@X@X@XH.%.%.%. X@X@X@X@X@X$Xh.%.AXAXAXAXAX",
"AXAXAXAXAX%.2.$X@X@X@X@X@X X%.%.%.<X@X@X@X@X@X@XrXo.%.AXAXAXAXAXAXAXAXAXAXAXo.uX@X@X@X@X@X@XH.%.%.%. X@X@X@X@X@X$Xh.%.AXAXAXAXAX",
"AXAXAXAXAX%.2.MX#X@X@X@X@XXX%.%.%.<X$X#X@X@X@X#XtXo.%.AXAXAXAXAXAXAXAXAXAXAXo.7XcX_.@X@X@XvXA.%.%.%.zXcXXX@X@X.XvXd.%.AXAXAXAXAX",
"AXAXAXAXAX%.%.d.g.@X@X@X:Xa.%.%.%.y.d.m.#X@X$Xw.i.%.%.AXAXAXAXAXAXAXAXAXAXAX%.o...&X@X@X@X%.O.%.%.%... .bX@X@XdX .%.%.AXAXAXAXAX",
"AXAXAXAXAX%.%.%.=.$X$X$X;X%.%.%.%.%.%.n.MX$XNX7.%.%.%.AXAXAXAXAXAXAXAXAXAXAX%.%.%.4X|.|.|.y.%.%.%.%.%...xX|.|.aXo.%.%.AXAXAXAXAX",
"AXAXAX%.%.%.%.%.%.9.9.9.2.%.%.%.%.%.%.a.0.9.0.y.%.%.%.%.AXAXAXAXAXAXAXAX%.%.%.%.%.%.O.O.O.%.%.%.%.%.%.%.O.O.O.%.%.%.%.%.%.AXAXAX",
"AXAXAX%.%.%.%.%.%.%.%.%.%.%.%.%.%.%.%.%.%.%.%.%.%.%.%.%.AXAXAXAXAXAXAXAX%.%.%.%.%.%.%.%.%.%.%.%.%.%.%.%.%.%.%.%.%.%.%.%.%.AXAXAX",
"AXAXAX%.%.%.%.%.%.%.%.%.%.%.%.%.%.%.%.%.%.%.%.%.%.%.%.%.AXAXAXAXAXAXAXAX%.%.%.%.%.%.%.%.%.%.%.%.%.%.%.%.%.%.%.%.%.%.%.%.%.AXAXAX",
"AXAXAX%.%.%.%.%.%.%.%.%.%.%.%.%.%.%.%.%.%.%.%.%.%.%.%.%.AXAXAXAXAXAXAXAX%.%.%.%.%.%.%.%.%.%.%.%.%.%.%.%.%.%.%.%.%.%.%.%.%.AXAXAX",
"AXAXAX%.%.%.%.%.%.%.%.%.%.%.%.%.%.%.%.%.%.%.%.%.%.%.%.%.AXAXAXAXAXAXAXAX%.%.%.%.%.%.%.%.%.%.%.%.%.%.%.%.%.%.%.%.%.%.%.%.%.AXAXAX",
"AXAXAX%.%.%.%.%.%.%.%.%.%.%.%.%.%.%.%.%.%.%.%.%.%.%.%.%.AXAXAXAXAXAXAXAX%.%.%.%.%.%.%.%.%.%.%.%.%.%.%.%.%.%.%.%.%.%.%.%.%.AXAXAX",
"AXAXAX%.%.%.%.%.%.%.%.%.%.%.%.%.%.%.%.%.%.%.%.%.%.%.%.%.AXAXAXAXAXAXAXAX%.%.%.%.%.%.%.%.%.%.%.%.%.%.%.%.%.%.%.%.%.%.%.%.%.AXAXAX",
"AXAXAX%.%.%.%.%.%.%.%.%.%.%.%.%.%.%.%.%.%.%.%.%.%.%.%.%.AXAXAXAXAXAXAXAX%.%.%.%.%.%.%.%.%.%.%.%.%.%.%.%.%.%.%.%.%.%.%.%.%.AXAXAX",
"AXAXAX%.%.%.%.%.%.%.%.%.%.%.%.%.%.%.%.%.%.%.%.%.%.%.%.%.AXAXAXAXAXAXAXAX%.%.%.%.%.%.%.%.%.%.%.%.%.%.%.%.%.%.%.%.%.%.%.%.%.AXAXAX",
"AXAXAX%.%.%.%.%.%.%.%.%.%.%.%.%.%.%.%.%.%.%.%.%.%.%.%.%.AXAXAXAXAXAXAXAX%.%.%.%.%.%.%.%.%.%.%.%.%.%.%.%.%.%.%.%.%.%.%.%.%.AXAXAX",
"AXAXAX%.%.%.%.%.%.%.%.%.%.%.%.%.%.%.%.%.%.%.%.%.%.%.%.%.AXAXAXAXAXAXAXAX%.%.%.%.%.%.%.%.%.%.%.%.%.%.%.%.%.%.%.%.%.%.%.%.%.AXAXAX",
"AXAXAX%.%.%.%.%.%.%.AXAX%.%.%.%.%.%.%.%.AX%.%.%.%.%.%.%.AXAXAXAXAXAXAXAX%.%.%.AXAX%.%.%.%.%.AXAXAXAX%.%.%.%.%.%.AXAX%.%.%.AXAXAX",
"AXAXAXAXAX%.%.%.AXAXAXAXAXAX%.%.%.%.AXAXAXAXAX%.%.%.AXAXAXAXAXAXAXAXAXAX%.AXAXAXAXAXAX%.%.%.AXAXAXAX%.%.%.%.AXAXAXAXAX%.%.AXAXAX",
"AXAXAXAXAX%.%.%.AXAXAXAXAXAX%.%.%.%.AXAXAXAXAX%.%.%.AXAXAXAXAXAXAXAXAXAX%.AXAXAXAXAXAX%.%.%.AXAXAXAX%.%.%.%.AXAXAXAXAX%.%.AXAXAX",
"AXAXAXAXAXAXAXAXAXAXAXAXAXAXAXAXAXAXAXAXAXAXAXAXAXAXAXAXAXAXAXAXAXAXAXAXAXAXAXAXAXAXAXAXAXAXAXAXAXAXAXAXAXAXAXAXAXAXAXAXAXAXAXAX",
"AXAXAXAXAXAXAXAXAXAXAXAXAXAXAXAXAXAXAXAXAXAXAXAXAXAXAXAXAXAXAXAXAXAXAXAXAXAXAXAXAXAXAXAXAXAXAXAXAXAXAXAXAXAXAXAXAXAXAXAXAXAXAXAX",
"AXAXAXAXAXAXAXAXAXAXAXAXAXAXAXAXAXAXAXAXAXAXAXAXAXAXAXAXAXAXAXAXAXAXAXAXAXAXAXAXAXAXAXAXAXAXAXAXAXAXAXAXAXAXAXAXAXAXAXAXAXAXAXAX",
"AXAXAXAXAXAXAXAXAXAXAXAXAXAXAXAXAXAXAXAXAXAXAXAXAXAXAXAXAXAXAXAXAXAXAXAXAXAXAXAXAXAXAXAXAXAXAXAXAXAXAXAXAXAXAXAXAXAXAXAXAXAXAXAX"
};
