/* XPM */
static char *ghost_down[] = {
/* columns rows colors chars-per-pixel */
"64 32 116 2 ",
"   c black",
".  c #002708",
"X  c #092E14",
"o  c #004A19",
"O  c #154F27",
"+  c #006B27",
"@  c #006F2F",
"#  c #007331",
"$  c #007A35",
"%  c #22703A",
"&  c gray25",
"*  c #414341",
"=  c #444444",
"-  c #464646",
";  c #6B6F6C",
":  c #717171",
">  c gray45",
",  c #747474",
"<  c #00853A",
"1  c #008F3F",
"2  c #009636",
"3  c #009638",
"4  c #009738",
"5  c #00953A",
"6  c #00973B",
"7  c #00983B",
"8  c #00983C",
"9  c #00983E",
"0  c #00983F",
"q  c #009040",
"w  c #009240",
"e  c #009442",
"r  c #009840",
"t  c #009841",
"y  c #009942",
"u  c #009943",
"i  c #009844",
"p  c #009944",
"a  c #019944",
"s  c #009A44",
"d  c #079945",
"f  c #089945",
"g  c #0B9946",
"h  c #0C9946",
"j  c #0D9946",
"k  c #0F9A47",
"l  c #139A48",
"z  c #199A49",
"x  c #1C9A4A",
"c  c #1E9B4B",
"v  c #209B4B",
"b  c #299C4F",
"n  c #329B53",
"m  c #319D53",
"M  c #329D53",
"N  c #329D54",
"B  c #339E54",
"V  c #399E57",
"C  c #3C9F59",
"Z  c #3E9F5A",
"A  c #5AA56D",
"S  c #6DAA7B",
"D  c #76AE83",
"F  c #7BAF87",
"G  c #7EB089",
"H  c #959A96",
"J  c #9F9F9F",
"K  c #90B798",
"L  c #97BA9E",
"P  c #9BBCA1",
"I  c #9BBCA2",
"U  c #A0A0A0",
"Y  c gray63",
"T  c gray",
"R  c #A4C0AA",
"E  c #A6C1AB",
"W  c #B0C6B4",
"Q  c #B5C8B9",
"!  c #B6C9BA",
"~  c #B7C9BA",
"^  c #B8CABB",
"/  c #B9CABC",
"(  c #BDCCC0",
")  c #BECDC1",
"_  c #C1C1C1",
"`  c #C6C6C6",
"'  c #CECECE",
"]  c #C4D0C7",
"[  c #C6D1C8",
"{  c #CCD4CD",
"}  c #CDD4CE",
"|  c #CED5CF",
" . c #CFD6D1",
".. c #D1D8D2",
"X. c #D2D8D3",
"o. c #D5D9D6",
"O. c #D7DAD7",
"+. c #D8DAD8",
"@. c #D9DBD9",
"#. c #DADBDA",
"$. c gray86",
"%. c #DADCDB",
"&. c #DBDCDB",
"*. c gainsboro",
"=. c #DCDDDC",
"-. c #DDDCDD",
";. c #DDDDDD",
":. c gray87",
">. c #DFDFDF",
",. c #E0DFDF",
"<. c #E0DFE0",
"1. c gray88",
"2. c #E1E0E1",
"3. c #E1E1E1",
"4. c #E2E1E2",
"5. c None",
/* pixels */
"5.5.5.5.5.5.5.5.5.5.5.5.5.5.5.5.5.5.5.5.5.5.5.5.5.5.5.5.5.5.5.5.5.5.5.5.5.5.5.5.5.5.5.5.5.5.5.5.5.5.5.5.5.5.5.5.5.5.5.5.5.5.5.5.",
"5.5.5.5.5.5.5.5.5.5.5.5.5.5.5.5.5.5.5.5.5.5.5.5.5.5.5.5.5.5.5.5.5.5.5.5.5.5.5.5.5.5.5.5.5.5.5.5.5.5.5.5.5.5.5.5.5.5.5.5.5.5.5.5.",
"5.5.5.5.5.5.5.5.5.5.5.5.5.5.5.5.5.5.5.5.5.5.5.5.5.5.5.5.5.5.5.5.5.5.5.5.5.5.5.5.5.5.5.5.5.5.5.5.5.5.5.5.5.5.5.5.5.5.5.5.5.5.5.5.",
"5.5.5.5.5.5.5.5.5.5.5.5.5.5.5.5.5.5.5.5.5.5.5.5.5.5.5.5.5.5.5.5.5.5.5.5.5.5.5.5.5.5.5.5.5.5.5.5.5.5.5.5.5.5.5.5.5.5.5.5.5.5.5.5.",
"5.5.5.5.5.5.5.5.5.5.5.5.5.p p p p p p p 5.5.5.5.5.5.5.5.5.5.5.5.5.5.5.5.5.5.5.5.5.5.5.5.5.p p p p p p p 5.5.5.5.5.5.5.5.5.5.5.5.",
"5.5.5.5.5.5.5.5.5.p p p p p p p p p p p p p p p 5.5.5.5.5.5.5.5.5.5.5.5.5.5.5.5.5.5.p p p p p p p p p p p p p p 5.5.5.5.5.5.5.5.",
"5.5.5.5.5.5.5.5.5.p p p p p p p p p p p p p p p 5.5.5.5.5.5.5.5.5.5.5.5.5.5.5.5.5.p p p p p p p p p p p p p p p 5.5.5.5.5.5.5.5.",
"5.5.5.5.5.5.5.p p p p p p p p p p p p p p p p p p 5.5.5.5.5.5.5.5.5.5.5.5.5.5.5.p p p p p p p p p p p p p p p p p 5.5.5.5.5.5.5.",
"5.5.5.5.5.5.5.p p p p p p p p p p p p p p p p p p 5.5.5.5.5.5.5.5.5.5.5.5.5.5.p p p p p p p p p p p p p p p p p p 5.5.5.5.5.5.5.",
"5.5.5.5.5.5.p p p p p p p p p p p p p p p p p p p p p 5.5.5.5.5.5.5.5.5.5.5.p p p p p p p p p p p p p p p p p p p p p 5.5.5.5.5.",
"5.5.5.5.5.5.p p p A F F F k p p p p p y D F F S y p p 5.5.5.5.5.5.5.5.5.5.5.p p p l c c c a p p p p p p x c c z p p p 5.5.5.5.5.",
"5.5.5.5.5.5.p t 9 E <.,.<.z y p p p 0 2 O.,.,.[ 2 p p 5.5.5.5.5.5.5.5.5.5.5.p t 0 R :.:.:.x y p p p r 3 o.:.:.] 4 p p 5.5.5.5.5.",
"5.5.5.5.5.5.0 / @.=.:.:.:.#.L p p h +.@.:.:.:.;.%.C p 5.5.5.5.5.5.5.5.5.5.5.t P ! { :.:.:.^ G p p f Q Q &.:.:.o.~ m p 5.5.5.5.5.",
"5.5.5.5.5.5.0 ( :.:.:.:.:.:.P p p j ;.:.:.:.:.:.,.Z p 5.5.5.5.5.5.5.5.5.5.5.0 ( :.:.:.:.:.:.P p p j ;.:.:.:.:.:.,.Z p 5.5.5.5.5.",
"5.5.5.5.p p 0 ( :.:.:.:.:.:.P p p j ;.:.:.:.:.:.,.Z p p p 5.5.5.5.5.5.5.5.5.0 ( :.:.:.:.:.:.P p p j ;.:.:.:.:.:.,.Z p p 5.5.5.5.",
"5.5.5.5.p p 0 ( :.' T T T :.P p p j ;.>._ T T ` <.Z p p p 5.5.5.5.5.5.5.p p 0 ( :.;.$.$.$.:.P p p j ;.:.$.$.$.*.,.Z p p p 5.5.5.",
"5.5.5.5.p p 0 ( :.J       *.P p p j ;.1.&     : 3.Z p p p 5.5.5.5.5.5.5.p p 0 ( :.U       *.P p p j ;.1.=     > 3.Z p p p 5.5.5.",
"5.5.5.5.p p 0 W  .H       } K p p g | ..*     ; X.V p p p 5.5.5.5.5.5.5.p p 9 ) >.Y       -.I p p j :.2.-     , 4.Z p p p 5.5.5.",
"5.5.5.5.p p a 9 6 +       5 r p p p 6 8 .     o 7 u p p p 5.5.5.5.5.5.5.p p p b N %       n v p p a M B X     O B d p p p 5.5.5.",
"5.5.5.5.p p p p p e 1 1 1 p p p p p p p q 1 1 w p p p p p 5.5.5.5.5.5.5.p p p p p < @ @ @ i p p p p p s # @ @ $ s p p p p 5.5.5.",
"5.5.5.5.p p p p p p p p p p p p p p p p p p p p p p p p p 5.5.5.5.5.5.5.p p p p p p p p p p p p p p p p p p p p p p p p p 5.5.5.",
"5.5.5.5.p p p p p p p p p p p p p p p p p p p p p p p p p 5.5.5.5.5.5.5.p p p p p p p p p p p p p p p p p p p p p p p p p 5.5.5.",
"5.5.5.5.p p p p p p p p p p p p p p p p p p p p p p p p p 5.5.5.5.5.5.5.p p p p p p p p p p p p p p p p p p p p p p p p p 5.5.5.",
"5.5.5.5.p p p p p p p p p p p p p p p p p p p p p p p p p 5.5.5.5.5.5.5.p p p p p p p p p p p p p p p p p p p p p p p p p 5.5.5.",
"5.5.5.5.p p p p p p p p p p p p p p p p p p p p p p p p p 5.5.5.5.5.5.5.p p p p p p p p p p p p p p p p p p p p p p p p p 5.5.5.",
"5.5.5.5.p p p p p p p 5.p p p p p p p p 5.5.p p p p p p p 5.5.5.5.5.5.5.p p p 5.5.p p p p p p 5.5.5.p p p p p p 5.5.p p p 5.5.5.",
"5.5.5.5.5.5.p p p 5.5.5.5.5.p p p p 5.5.5.5.5.5.p p p 5.5.5.5.5.5.5.5.5.p p 5.5.5.p p p p p 5.5.5.5.p p p p p 5.5.5.p p p 5.5.5.",
"5.5.5.5.5.5.p p p 5.5.5.5.5.p p p p 5.5.5.5.5.5.p p p 5.5.5.5.5.5.5.5.5.p 5.5.5.5.5.5.p p p 5.5.5.5.p p p p 5.5.5.5.5.p p 5.5.5.",
"5.5.5.5.5.5.5.5.5.5.5.5.5.5.5.5.5.5.5.5.5.5.5.5.5.5.5.5.5.5.5.5.5.5.5.5.p 5.5.5.5.5.5.p p p 5.5.5.5.p p p 5.5.5.5.5.5.p p 5.5.5.",
"5.5.5.5.5.5.5.5.5.5.5.5.5.5.5.5.5.5.5.5.5.5.5.5.5.5.5.5.5.5.5.5.5.5.5.5.5.5.5.5.5.5.5.5.5.5.5.5.5.5.5.5.5.5.5.5.5.5.5.5.5.5.5.5.",
"5.5.5.5.5.5.5.5.5.5.5.5.5.5.5.5.5.5.5.5.5.5.5.5.5.5.5.5.5.5.5.5.5.5.5.5.5.5.5.5.5.5.5.5.5.5.5.5.5.5.5.5.5.5.5.5.5.5.5.5.5.5.5.5.",
"5.5.5.5.5.5.5.5.5.5.5.5.5.5.5.5.5.5.5.5.5.5.5.5.5.5.5.5.5.5.5.5.5.5.5.5.5.5.5.5.5.5.5.5.5.5.5.5.5.5.5.5.5.5.5.5.5.5.5.5.5.5.5.5."
};
