/* XPM */
static char *ghost_left[] = {
/* columns rows colors chars-per-pixel */
"64 32 124 2 ",
"   c black",
".  c #010000",
"X  c #003A13",
"o  c #023A16",
"O  c #007B32",
"+  c #007B35",
"@  c #007C36",
"#  c #4B524D",
"$  c #555555",
"%  c gray35",
"&  c #5B5B5B",
"*  c #5F5F5F",
"=  c #605F60",
"-  c #008038",
";  c #008D3A",
":  c #009635",
">  c #009738",
",  c #00973B",
"<  c #00973C",
"1  c #00973D",
"2  c #00983D",
"3  c #00983E",
"4  c #00983F",
"5  c #00993F",
"6  c #0B8F41",
"7  c #009542",
"8  c #009643",
"9  c #009743",
"0  c #009840",
"q  c #009841",
"w  c #009842",
"e  c #009942",
"r  c #009943",
"t  c #009944",
"y  c #019944",
"u  c #039945",
"i  c #009A44",
"p  c #049945",
"a  c #079945",
"s  c #099945",
"d  c #0C9946",
"f  c #0D9946",
"g  c #0D9B47",
"h  c #3A874F",
"j  c #219B4C",
"k  c #229B4C",
"l  c #259B4D",
"z  c #339D54",
"x  c #49A161",
"c  c #50A265",
"v  c #50A366",
"b  c #52A367",
"n  c #54A368",
"m  c #56A46A",
"M  c #58A56C",
"N  c #5AA56D",
"B  c #5CA56E",
"V  c #5FA670",
"C  c #65A875",
"Z  c #6DAA7B",
"A  c #74AD80",
"S  c #77AE83",
"D  c #7AA984",
"F  c #79AF85",
"G  c #7AAF85",
"H  c #7EB089",
"J  c #80B18A",
"K  c #81B18B",
"L  c #83B28D",
"P  c #91B899",
"I  c #A4A4A4",
"U  c #A5A5A5",
"Y  c #AFAFAF",
"T  c gray69",
"R  c #B0BEB3",
"E  c gray75",
"W  c #ABC3B0",
"Q  c #ACC4B1",
"!  c #AFC5B3",
"~  c #B1C6B5",
"^  c #B6C9B9",
"/  c #B6C9BA",
"(  c #B7C9BB",
")  c #B8CABC",
"_  c #B9CABD",
"`  c #BCCCBF",
"'  c #BECDC1",
"]  c #BFCEC2",
"[  c #C0C0C0",
"{  c #C1CEC4",
"}  c #CECECE",
"|  c gray81",
" . c #C5D0C7",
".. c #C7D1C9",
"X. c #CDD4CE",
"o. c #CDD5CE",
"O. c #CED5CF",
"+. c #D0D0D0",
"@. c #D0D6D1",
"#. c #D5D5D5",
"$. c gray84",
"%. c #D7D7D7",
"&. c #D3D8D4",
"*. c #D5D9D6",
"=. c #D7DAD7",
"-. c #D7DAD8",
";. c #D8DBD9",
":. c #D9DBD9",
">. c #DADCDA",
",. c #DADCDB",
"<. c #DBDCDB",
"1. c gainsboro",
"2. c #DDDDDD",
"3. c #DDDEDD",
"4. c gray87",
"5. c #DFDEDF",
"6. c #DFDFDF",
"7. c #E0DFDF",
"8. c #E0DFE0",
"9. c gray88",
"0. c #E1E0E1",
"q. c #E2E1E2",
"w. c #E3E2E3",
"e. c None",
/* pixels */
"e.e.e.e.e.e.e.e.e.e.e.e.e.e.e.e.e.e.e.e.e.e.e.e.e.e.e.e.e.e.e.e.e.e.e.e.e.e.e.e.e.e.e.e.e.e.e.e.e.e.e.e.e.e.e.e.e.e.e.e.e.e.e.e.",
"e.e.e.e.e.e.e.e.e.e.e.e.e.e.e.e.e.e.e.e.e.e.e.e.e.e.e.e.e.e.e.e.e.e.e.e.e.e.e.e.e.e.e.e.e.e.e.e.e.e.e.e.e.e.e.e.e.e.e.e.e.e.e.e.",
"e.e.e.e.e.e.e.e.e.e.e.e.e.e.e.e.e.e.e.e.e.e.e.e.e.e.e.e.e.e.e.e.e.e.e.e.e.e.e.e.e.e.e.e.e.e.e.e.e.e.e.e.e.e.e.e.e.e.e.e.e.e.e.e.",
"e.e.e.e.e.e.e.e.e.e.e.e.e.e.e.e.e.e.e.e.e.e.e.e.e.e.e.e.e.e.e.e.e.e.e.e.e.e.e.e.e.e.e.e.e.t t t t t t t e.e.e.e.e.e.e.e.e.e.e.e.",
"e.e.e.e.e.e.e.e.e.e.e.e.e.t t t t t t t e.e.e.e.e.e.e.e.e.e.e.e.e.e.e.e.e.e.e.e.e.e.e.e.e.t t t t t t t e.e.e.e.e.e.e.e.e.e.e.e.",
"e.e.e.e.e.e.e.e.e.e.t t t t t t t t t t t t t t e.e.e.e.e.e.e.e.e.e.e.e.e.e.e.e.e.t t t t t t t t t t t t t t t e.e.e.e.e.e.e.e.",
"e.e.e.e.e.e.e.e.e.t t t t t t t t t t t t t t t e.e.e.e.e.e.e.e.e.e.e.e.e.e.e.e.e.t t t t t t t t t t t t t t t e.e.e.e.e.e.e.e.",
"e.e.e.e.e.e.e.t t t t t t t t t t t t t t t t t t e.e.e.e.e.e.e.e.e.e.e.e.e.e.3 3 3 3 t t t t t t t 3 3 3 q t t t e.e.e.e.e.e.e.",
"e.e.e.e.e.e.e.A G G S r t t t t t u F G G V r t t e.e.e.e.e.e.e.e.e.e.e.e.e.4 _ ;.;.&.4 t t t t t d =.;.;.W w t t t t e.e.e.e.e.",
"e.e.e.e.e.e.4 ' 7.7.<.4 t t t t t f 4.7.7.~ q t t t t e.e.e.e.e.e.e.e.e.e.e.: ` 4.4.:.: , t t t q 3 2.4.4.! > 2 y t t e.e.e.e.e.",
"e.e.e.e.e.e.c { 4.4.>.v n a t t z m 2.4.4./ b x r t t e.e.e.e.e.e.e.e.e.e.e.X.:.4.4.3.X.o.j t t L O.4.4.4.-.X.^ 3 t t e.e.e.e.e.",
"e.e.e.e.e.e.q.0.9.6.4.8.8.l t t P w.9.9.4.5.8...< t t e.e.e.e.e.e.e.e.e.e.e.[ [ [ +.4.4.4.l t t D [ [ E 1.4.4. .1 t t e.e.e.e.e.",
"e.e.e.e.e.e.* * * T 4.4.4.l t t h = * & %.4.4. .1 t t e.e.e.e.e.e.e.e.e.e.e.      I 4.4.4.l t t O       #.4.4. .1 t t e.e.e.e.e.",
"e.e.e.e.e.e.      U 4.4.4.l t t @       $.4.4. .1 t t e.e.e.e.e.e.e.e.e.e.e.      U 4.4.4.l t t @       $.4.4. .1 t t e.e.e.e.e.",
"e.e.e.e.t 7       U 4.4.4.l t t @       $.4.4. .1 t t t t e.e.e.e.e.e.e.t 8 .     I 4.8.8.l t t +       #.5.8...< t t t t e.e.e.",
"e.e.e.e.t 9 X # % Y 3.@.@.k t t - o % $ %.;.@.) 3 t t t t e.e.e.e.e.e.e.t t ; R | %.>.M B s t t 7 6 } | 2.( N v r t t t t e.e.e.",
"e.e.e.e.t t 5 ] 9.6.:.: , t t t i g 6.9.4.! > 2 y t t t t e.e.e.e.e.e.e.t t 3 ' 6.6.,.4 t t t t t f 4.6.6.~ q t t t t t t e.e.e.",
"e.e.e.e.t t 4 _ >.>.*.4 t t t t t d ;.>.>.Q q t t t t t t e.e.e.e.e.e.e.t t e Z K K H r t t t t t p J K K C r t t t t t t e.e.e.",
"e.e.e.e.t t t q 0 0 0 t t t t t t t 0 0 0 w t t t t t t t e.e.e.e.e.e.e.t t t t t t t t t t t t t t t t t t t t t t t t t e.e.e.",
"e.e.e.e.t t t t t t t t t t t t t t t t t t t t t t t t t e.e.e.e.e.e.e.t t t t t t t t t t t t t t t t t t t t t t t t t e.e.e.",
"e.e.e.e.t t t t t t t t t t t t t t t t t t t t t t t t t e.e.e.e.e.e.e.t t t t t t t t t t t t t t t t t t t t t t t t t e.e.e.",
"e.e.e.e.t t t t t t t t t t t t t t t t t t t t t t t t t e.e.e.e.e.e.e.t t t t t t t t t t t t t t t t t t t t t t t t t e.e.e.",
"e.e.e.e.t t t t t t t t t t t t t t t t t t t t t t t t t e.e.e.e.e.e.e.t t t t t t t t t t t t t t t t t t t t t t t t t e.e.e.",
"e.e.e.e.t t t t t t t t t t t t t t t t t t t t t t t t t e.e.e.e.e.e.e.t t t t t t t t t t t t t t t t t t t t t t t t t e.e.e.",
"e.e.e.e.t t t t t t t t t t t t t t t t t t t t t t t t t e.e.e.e.e.e.e.t t t e.t t t t t t t e.e.e.t t t t t t e.t t t t e.e.e.",
"e.e.e.e.t t t t t t t e.t t t t t t t t e.e.t t t t t t t e.e.e.e.e.e.e.t t t e.e.t t t t t e.e.e.e.t t t t t t e.e.t t t e.e.e.",
"e.e.e.e.e.e.t t t e.e.e.e.e.t t t t e.e.e.e.e.t t t t e.e.e.e.e.e.e.e.e.t e.e.e.e.e.e.t t t e.e.e.e.t t t t e.e.e.e.e.t t e.e.e.",
"e.e.e.e.e.e.t t t e.e.e.e.e.t t t t e.e.e.e.e.e.t t t e.e.e.e.e.e.e.e.e.t e.e.e.e.e.e.t t t e.e.e.e.t t t t e.e.e.e.e.t t e.e.e.",
"e.e.e.e.e.e.t t t e.e.e.e.e.e.t t t e.e.e.e.e.e.t t e.e.e.e.e.e.e.e.e.e.e.e.e.e.e.e.e.e.e.e.e.e.e.e.e.e.e.e.e.e.e.e.e.e.e.e.e.e.",
"e.e.e.e.e.e.e.e.e.e.e.e.e.e.e.e.e.e.e.e.e.e.e.e.e.e.e.e.e.e.e.e.e.e.e.e.e.e.e.e.e.e.e.e.e.e.e.e.e.e.e.e.e.e.e.e.e.e.e.e.e.e.e.e.",
"e.e.e.e.e.e.e.e.e.e.e.e.e.e.e.e.e.e.e.e.e.e.e.e.e.e.e.e.e.e.e.e.e.e.e.e.e.e.e.e.e.e.e.e.e.e.e.e.e.e.e.e.e.e.e.e.e.e.e.e.e.e.e.e.",
"e.e.e.e.e.e.e.e.e.e.e.e.e.e.e.e.e.e.e.e.e.e.e.e.e.e.e.e.e.e.e.e.e.e.e.e.e.e.e.e.e.e.e.e.e.e.e.e.e.e.e.e.e.e.e.e.e.e.e.e.e.e.e.e."
};
