/* XPM */
static char *ghost_right[] = {
/* columns rows colors chars-per-pixel */
"64 32 132 2 ",
"   c black",
".  c #001705",
"X  c #222222",
"o  c gray14",
"O  c #252525",
"+  c #353535",
"@  c #3F3F3F",
"#  c #403D3F",
"$  c #005C21",
"%  c #005C26",
"&  c #006026",
"*  c #006028",
"=  c #006D2E",
"-  c #006E2F",
";  c #2A723F",
":  c #396644",
">  c #008038",
",  c #008239",
"<  c #008B3D",
"1  c #009738",
"2  c #00973B",
"3  c #00973C",
"4  c #00973D",
"5  c #00983C",
"6  c #00983D",
"7  c #00983E",
"8  c #00983F",
"9  c #009341",
"0  c #009840",
"q  c #009841",
"w  c #009842",
"e  c #009942",
"r  c #009943",
"t  c #009944",
"y  c #019944",
"u  c #009A44",
"i  c #179A48",
"p  c #218643",
"a  c #2A9C50",
"s  c #2C9C50",
"d  c #319D53",
"f  c #339D54",
"g  c #349D54",
"h  c #359D55",
"j  c #389E57",
"k  c #3D9F59",
"l  c #3D9F5A",
"z  c #3E9F5A",
"x  c #6F8874",
"c  c #54A469",
"v  c #5BA56D",
"b  c #60A772",
"n  c #61A772",
"m  c #62A773",
"M  c #63A874",
"N  c #66A876",
"B  c #67A976",
"V  c #6FAB7D",
"C  c #70AC7E",
"Z  c #71AC7F",
"A  c #74AD80",
"S  c #79AF85",
"D  c #7AAF85",
"F  c #7DB088",
"G  c #7EB089",
"H  c #7EB189",
"J  c #7FB189",
"K  c #838683",
"L  c #898888",
"P  c gray56",
"I  c gray59",
"U  c #80B18A",
"Y  c #83B28D",
"T  c #84B28E",
"R  c #8DB696",
"E  c #94B99C",
"W  c #96BA9E",
"Q  c #9BBCA1",
"!  c #9DBDA3",
"~  c #9EBEA5",
"^  c #A1A0A1",
"/  c gray64",
"(  c #A1BFA7",
")  c #A2BFA8",
"_  c gray69",
"`  c #A4C0A9",
"'  c #A5C1AB",
"]  c #A8C2AD",
"[  c #B0C6B4",
"{  c #B3C6B6",
"}  c #B7C9BA",
"|  c #B7C9BB",
" . c #B8CABB",
".. c #B8CABC",
"X. c #BBCBBE",
"o. c #BCCCBF",
"O. c #BDCCC0",
"+. c #BECDC1",
"@. c #BFCDC1",
"#. c #C5C5C5",
"$. c #C1CEC4",
"%. c #C5D1C7",
"&. c #C6D1C8",
"*. c #C7D1C9",
"=. c #C7D2C9",
"-. c #C8D2CA",
";. c #CBD3CC",
":. c #D2D2D2",
">. c LightGray",
",. c gray83",
"<. c #D7D7D7",
"1. c #D4D9D5",
"2. c #D5D9D6",
"3. c #D6D9D6",
"4. c #D6D9D7",
"5. c #D6DAD7",
"6. c gray86",
"7. c #DCDBDB",
"8. c #DCDBDC",
"9. c #DDDDDD",
"0. c gray87",
"q. c #DFDEDF",
"w. c #DFDFDF",
"e. c #E0DFDF",
"r. c #E0DFE0",
"t. c gray88",
"y. c #E1E0E1",
"u. c #E1E1E1",
"i. c #E2E1E1",
"p. c #E2E1E2",
"a. c #E3E2E3",
"s. c None",
/* pixels */
"s.s.s.s.s.s.s.s.s.s.s.s.s.s.s.s.s.s.s.s.s.s.s.s.s.s.s.s.s.s.s.s.s.s.s.s.s.s.s.s.s.s.s.s.s.s.s.s.s.s.s.s.s.s.s.s.s.s.s.s.s.s.s.s.",
"s.s.s.s.s.s.s.s.s.s.s.s.s.s.s.s.s.s.s.s.s.s.s.s.s.s.s.s.s.s.s.s.s.s.s.s.s.s.s.s.s.s.s.s.s.s.s.s.s.s.s.s.s.s.s.s.s.s.s.s.s.s.s.s.",
"s.s.s.s.s.s.s.s.s.s.s.s.s.s.s.s.s.s.s.s.s.s.s.s.s.s.s.s.s.s.s.s.s.s.s.s.s.s.s.s.s.s.s.s.s.s.s.s.s.s.s.s.s.s.s.s.s.s.s.s.s.s.s.s.",
"s.s.s.s.s.s.s.s.s.s.s.s.s.t t t t t t t s.s.s.s.s.s.s.s.s.s.s.s.s.s.s.s.s.s.s.s.s.s.s.s.s.s.s.s.s.s.s.s.s.s.s.s.s.s.s.s.s.s.s.s.",
"s.s.s.s.s.s.s.s.s.s.s.s.s.t t t t t t t s.s.s.s.s.s.s.s.s.s.s.s.s.s.s.s.s.s.s.s.s.s.s.s.s.t t t t t t t s.s.s.s.s.s.s.s.s.s.s.s.",
"s.s.s.s.s.s.s.s.s.t t t t t t t t t t t t t t t s.s.s.s.s.s.s.s.s.s.s.s.s.s.s.s.s.t t t t t t t t t t t t t t s.s.s.s.s.s.s.s.s.",
"s.s.s.s.s.s.s.s.s.t t t t t t t t t t t t t t t s.s.s.s.s.s.s.s.s.s.s.s.s.s.s.s.s.t t t t t t t t t t t t t t s.s.s.s.s.s.s.s.s.",
"s.s.s.s.s.s.s.t t t t 0 0 0 e t t t t t t e 0 0 0 s.s.s.s.s.s.s.s.s.s.s.s.s.s.t t t t t t t t t t t t t t t t t t s.s.s.s.s.s.s.",
"s.s.s.s.s.s.t t t t a  .} } H t t t t t t S | } | k t s.s.s.s.s.s.s.s.s.s.s.s.t t t l U J U g t t t t t e C J J F s.s.s.s.s.s.s.",
"s.s.s.s.s.s.t t t t h w.0.0.Q t t t t t t E q.0.e.z t s.s.s.s.s.s.s.s.s.s.s.t t t t Z y.w.y.n t t t t t 3 =.w.w.1.2 t s.s.s.s.s.",
"s.s.s.s.s.s.t t t A ( q.0.0.O.! J e t q W X.0.0.q.) ! s.s.s.s.s.s.s.s.s.s.s.t t r v R w.0.r.T B j t t i M ;.0.0.2.m N s.s.s.s.s.",
"s.s.s.s.s.s.t t r ' 0.0.0.6.6.8.{ q t 3 4.0.0.9.6.7.8.s.s.s.s.s.s.s.s.s.s.s.t t 3 -.w.0.0.t.u.a.Y t t z y.0.0.w.t.p.i.s.s.s.s.s.",
"s.s.s.s.s.s.t t r ' 0.0.0.X     & u t 3 3.0.0.#.      s.s.s.s.s.s.s.s.s.s.s.t t 4 &.0.0.,.+ @ # p t t k e.0.w.I @ @ @ s.s.s.s.s.",
"s.s.s.s.s.s.t t r ' 0.0.0.O     * u t 3 3.0.0.#.      s.s.s.s.s.s.s.s.s.s.s.t t 4 &.0.0.>.      , t t k e.0.w.P       s.s.s.s.s.",
"s.s.s.s.t t t t r ' 0.0.0.o     * u t 3 3.0.0.#.      < t s.s.s.s.s.s.s.t t t t 4 &.0.0.>.      , t t k e.0.w.P     . u s.s.s.s.",
"s.s.s.s.t t t t r D ] q.0./ x - > t t 0 ~ @.0.:.^ ; = 9 t s.s.s.s.s.s.s.t t t t 8 ` $.q.<.L : % < t t d ..5.w._ K $ * t s.s.s.s.",
"s.s.s.s.t t t t t r g w.0.q.Q t t t t t r E q.0.r.z t t t s.s.s.s.s.s.s.t t t t t q V r.0.y.b u t t t t 1 &.0.w.1.5 u t s.s.s.s.",
"s.s.s.s.t t t t t t s +.O.O.Y t t t t t t G O.O.+.f t t t s.s.s.s.s.s.s.t t t t t t M *.%.*.c t t t t t 7 [ %.%.o.6 t t s.s.s.s.",
"s.s.s.s.t t t t t t t 7 7 7 w t t t t t t e 7 7 7 t t t t s.s.s.s.s.s.s.t t t t t t r 6 6 6 r t t t t t y 8 6 6 7 y t t s.s.s.s.",
"s.s.s.s.t t t t t t t t t t t t t t t t t t t t t t t t t s.s.s.s.s.s.s.t t t t t t t t t t t t t t t t t t t t t t t t s.s.s.s.",
"s.s.s.s.t t t t t t t t t t t t t t t t t t t t t t t t t s.s.s.s.s.s.s.t t t t t t t t t t t t t t t t t t t t t t t t s.s.s.s.",
"s.s.s.s.t t t t t t t t t t t t t t t t t t t t t t t t t s.s.s.s.s.s.s.t t t t t t t t t t t t t t t t t t t t t t t t s.s.s.s.",
"s.s.s.s.t t t t t t t t t t t t t t t t t t t t t t t t t s.s.s.s.s.s.s.t t t t t t t t t t t t t t t t t t t t t t t t s.s.s.s.",
"s.s.s.s.t t t t t t t t t t t t t t t t t t t t t t t t t s.s.s.s.s.s.s.t t t t t t t t t t t t t t t t t t t t t t t t s.s.s.s.",
"s.s.s.s.t t t t t t t t t t t t t t t t t t t t t t t t t s.s.s.s.s.s.s.t t t t t t t t t t t t t t t t t t t t t t t t s.s.s.s.",
"s.s.s.s.t t t t t t t s.t t t t t t t t s.s.t t t t t t t s.s.s.s.s.s.s.t t s.s.s.t t t t t s.s.s.s.t t t t t s.s.s.t t s.s.s.s.",
"s.s.s.s.s.s.t t t s.s.s.s.s.t t t t s.s.s.s.s.s.t t t s.s.s.s.s.s.s.s.s.t s.s.s.s.s.s.t t t s.s.s.s.t t t s.s.s.s.s.s.t s.s.s.s.",
"s.s.s.s.s.s.t t t s.s.s.s.s.t t t t s.s.s.s.s.s.t t t s.s.s.s.s.s.s.s.s.t s.s.s.s.s.s.t t t s.s.s.s.t t t s.s.s.s.s.s.t s.s.s.s.",
"s.s.s.s.s.s.s.s.s.s.s.s.s.s.s.s.s.s.s.s.s.s.s.s.s.s.s.s.s.s.s.s.s.s.s.s.s.s.s.s.s.s.s.s.s.s.s.s.s.s.s.s.s.s.s.s.s.s.s.s.s.s.s.s.",
"s.s.s.s.s.s.s.s.s.s.s.s.s.s.s.s.s.s.s.s.s.s.s.s.s.s.s.s.s.s.s.s.s.s.s.s.s.s.s.s.s.s.s.s.s.s.s.s.s.s.s.s.s.s.s.s.s.s.s.s.s.s.s.s.",
"s.s.s.s.s.s.s.s.s.s.s.s.s.s.s.s.s.s.s.s.s.s.s.s.s.s.s.s.s.s.s.s.s.s.s.s.s.s.s.s.s.s.s.s.s.s.s.s.s.s.s.s.s.s.s.s.s.s.s.s.s.s.s.s.",
"s.s.s.s.s.s.s.s.s.s.s.s.s.s.s.s.s.s.s.s.s.s.s.s.s.s.s.s.s.s.s.s.s.s.s.s.s.s.s.s.s.s.s.s.s.s.s.s.s.s.s.s.s.s.s.s.s.s.s.s.s.s.s.s."
};
