/* XPM */
static char *ghost_up[] = {
/* columns rows colors chars-per-pixel */
"64 32 110 2 ",
"   c black",
".  c #002D0E",
"X  c #002D0F",
"o  c #003212",
"O  c #13311B",
"+  c gray17",
"@  c #383F39",
"#  c #3E3E3E",
"$  c gray29",
"%  c gray32",
"&  c #626262",
"*  c #686868",
"=  c #717171",
"-  c #009531",
";  c #009532",
":  c #00973A",
">  c #00973B",
",  c #00973C",
"<  c #00973D",
"1  c #00963F",
"2  c #00983D",
"3  c #00983E",
"4  c #00983F",
"5  c #009743",
"6  c #009840",
"7  c #009940",
"8  c #009841",
"9  c #009842",
"0  c #009942",
"q  c #009843",
"w  c #009943",
"e  c #009944",
"r  c #019944",
"t  c #009A45",
"y  c #049945",
"u  c #089945",
"i  c #0B9946",
"p  c #0D9946",
"a  c #189A49",
"s  c #219B4C",
"d  c #249B4D",
"f  c #259B4D",
"g  c #359D55",
"h  c #3A9E58",
"j  c #3D9F5A",
"k  c #3E9F5A",
"l  c #44A05D",
"z  c #4FA164",
"x  c #4FA265",
"c  c #51A466",
"v  c #5BA56E",
"b  c #71AC7E",
"n  c #79AF85",
"m  c #7FB18A",
"M  c #868686",
"N  c gray56",
"B  c #83B28D",
"V  c #84B38E",
"C  c #85B38F",
"Z  c #89B492",
"A  c #91B899",
"S  c #9BBCA1",
"D  c #9BBCA2",
"F  c #9CBDA3",
"G  c #9DBDA4",
"H  c #A0A0A0",
"J  c #A9A9A9",
"K  c #A2BFA8",
"L  c #A4C0A9",
"P  c #A5C1AB",
"I  c #B2C7B6",
"U  c #B6C7B9",
"Y  c #B6C9BA",
"T  c #B9CBBC",
"R  c #BACBBD",
"E  c #BCCCBF",
"W  c #BDCCC0",
"Q  c #BECDC1",
"!  c #C1CFC4",
"~  c #C2CFC4",
"^  c gray80",
"/  c #CECECE",
"(  c #C4D0C7",
")  c #C5D0C7",
"_  c #CDD5CF",
"`  c gray82",
"'  c #D0D6D1",
"]  c #D1D7D2",
"[  c #D2D7D3",
"{  c #D5D5D5",
"}  c #D5D9D6",
"|  c #D6D9D6",
" . c #D8DBD8",
".. c #D8DBD9",
"X. c #D9DBDA",
"o. c #DADCDB",
"O. c #DBDCDB",
"+. c gainsboro",
"@. c #DDDDDD",
"#. c #DEDDDE",
"$. c gray87",
"%. c #DFDEDE",
"&. c #DFDEDF",
"*. c #DFDFDF",
"=. c #E0DFDF",
"-. c gray88",
";. c #E1E0E1",
":. c #E1E1E1",
">. c #E2E1E2",
",. c None",
/* pixels */
",.,.,.,.,.,.,.,.,.,.,.,.,.,.,.,.,.,.,.,.,.,.,.,.,.,.,.,.,.,.,.,.,.,.,.,.,.,.,.,.,.,.,.,.,.,.,.,.,.,.,.,.,.,.,.,.,.,.,.,.,.,.,.,.",
",.,.,.,.,.,.,.,.,.,.,.,.,.,.,.,.,.,.,.,.,.,.,.,.,.,.,.,.,.,.,.,.,.,.,.,.,.,.,.,.,.,.,.,.,.,.,.,.,.,.,.,.,.,.,.,.,.,.,.,.,.,.,.,.",
",.,.,.,.,.,.,.,.,.,.,.,.,.,.,.,.,.,.,.,.,.,.,.,.,.,.,.,.,.,.,.,.,.,.,.,.,.,.,.,.,.,.,.,.,.,.,.,.,.,.,.,.,.,.,.,.,.,.,.,.,.,.,.,.",
",.,.,.,.,.,.,.,.,.,.,.,.,.,.,.,.,.,.,.,.,.,.,.,.,.,.,.,.,.,.,.,.,.,.,.,.,.,.,.,.,.,.,.,.,.e e e e e e e ,.,.,.,.,.,.,.,.,.,.,.,.",
",.,.,.,.,.,.,.,.,.,.,.,.,.e e e e e e e ,.,.,.,.,.,.,.,.,.,.,.,.,.,.,.,.,.,.,.,.,.,.,.,.,.e e e e e e e ,.,.,.,.,.,.,.,.,.,.,.,.",
",.,.,.,.,.,.,.,.,.,.      q e e e e e t o       ,.,.,.,.,.,.,.,.,.,.,.,.,.,.,.,.,.        5 e e e e e t X       ,.,.,.,.,.,.,.,.",
",.,.,.,.,.,.,.,.,.        1 0 e e e 6 7 .       ,.,.,.,.,.,.,.,.,.,.,.,.,.,.,.,.,.$       z g e e r x c O     + ,.,.,.,.,.,.,.,.",
",.,.,.,.,.,.,.,.$.N       U m e e u Y T @     & :.,.,.,.,.,.,.,.,.,.,.,.,.,.,.&.$.H       #.F e e p %.>.#     = -.,.,.,.,.,.,.,.",
",.,.,.,.,.,.,.X.$.J % % % +.S e e p @.-.* % % M -.,.,.,.,.,.,.,.,.,.,.,.,.,.2 ! $.{ ^ ^ ^ $.S e e p @.$./ ^ ^ ` =.l e ,.,.,.,.,.",
",.,.,.,.,.,.4 E $.*.-.-.-.$.S e e p @.$.-.-.-.-.=.j e ,.,.,.,.,.,.,.,.,.,.,.4 W $.$.$.$.$.$.S e e p @.$.$.$.$.$.=.k e ,.,.,.,.,.",
",.,.,.,.,.,.4 W $.$.$.$.$.$.S e e p @.$.$.$.$.$.=.k e ,.,.,.,.,.,.,.,.,.,.,.4 W $.$.$.$.$.$.S e e p @.$.$.$.$.$.=.k e ,.,.,.,.,.",
",.,.,.,.,.,.3 Q *.&.$.$.$.=.D e e p $.*.$.$.$.$.;.k e ,.,.,.,.,.,.,.,.,.,.,.4 I ]  .$.$.$.[ A e e i ' ] @.$.$.O.[ h e ,.,.,.,.,.",
",.,.,.,.,.,.0 b C R $.$.$.Z v e e y V B ..$.$._ V s e ,.,.,.,.,.,.,.,.,.,.,.r 3 : L $.$.$.i 6 e e e > - } $.$.( ; w e ,.,.,.,.,.",
",.,.,.,.,.,.e e w P $.$.$.f e e e e e , | $.$.) < e e ,.,.,.,.,.,.,.,.,.,.,.e e w K O.o.O.d e e e e e , [ o.o.~ < e e ,.,.,.,.,.",
",.,.,.,.e e e e w n L L L a e e e e e 6 G L L A 6 e e e ,.,.,.,.,.,.,.,.e e e e e 0 8 8 8 e e e e e e e 8 8 8 9 e e e e e ,.,.,.",
",.,.,.,.e e e e e e w w w e e e e e e e w w w w e e e e e ,.,.,.,.,.,.,.e e e e e e e e e e e e e e e e e e e e e e e e e ,.,.,.",
",.,.,.,.e e e e e e e e e e e e e e e e e e e e e e e e e ,.,.,.,.,.,.,.e e e e e e e e e e e e e e e e e e e e e e e e e ,.,.,.",
",.,.,.,.e e e e e e e e e e e e e e e e e e e e e e e e e ,.,.,.,.,.,.,.e e e e e e e e e e e e e e e e e e e e e e e e e ,.,.,.",
",.,.,.,.e e e e e e e e e e e e e e e e e e e e e e e e e ,.,.,.,.,.,.,.e e e e e e e e e e e e e e e e e e e e e e e e e ,.,.,.",
",.,.,.,.e e e e e e e e e e e e e e e e e e e e e e e e e ,.,.,.,.,.,.,.e e e e e e e e e e e e e e e e e e e e e e e e e ,.,.,.",
",.,.,.,.e e e e e e e e e e e e e e e e e e e e e e e e e ,.,.,.,.,.,.,.e e e e e e e e e e e e e e e e e e e e e e e e e ,.,.,.",
",.,.,.,.e e e e e e e e e e e e e e e e e e e e e e e e e ,.,.,.,.,.,.,.e e e e e e e e e e e e e e e e e e e e e e e e e ,.,.,.",
",.,.,.,.e e e e e e e e e e e e e e e e e e e e e e e e e ,.,.,.,.,.,.,.e e e e e e e e e e e e e e e e e e e e e e e e e ,.,.,.",
",.,.,.,.e e e e e e e e e e e e e e e e e e e e e e e e e ,.,.,.,.,.,.,.e e e e e e e e e e e e e e e e e e e e e e e e e ,.,.,.",
",.,.,.,.e e e e e e e e e e e e e e e e e e e e e e e e e ,.,.,.,.,.,.,.e e e e e e e e e e e e e e e e e e e e e e e e e ,.,.,.",
",.,.,.,.e e e e e e e ,.e e e e e e e e ,.,.e e e e e e e ,.,.,.,.,.,.,.e e e ,.,.e e e e e ,.,.,.,.e e e e e e ,.,.e e e ,.,.,.",
",.,.,.,.e e e e e e e ,.,.e e e e e e e ,.,.e e e e e e ,.,.,.,.,.,.,.,.e ,.,.,.,.,.,.e e e ,.,.,.,.e e e e ,.,.,.,.,.e e ,.,.,.",
",.,.,.,.,.,.e e e ,.,.,.,.,.e e e e ,.,.,.,.,.,.e e e ,.,.,.,.,.,.,.,.,.e ,.,.,.,.,.,.e e e ,.,.,.,.e e e e ,.,.,.,.,.e e ,.,.,.",
",.,.,.,.,.,.e e e ,.,.,.,.,.,.e e e ,.,.,.,.,.,.e e ,.,.,.,.,.,.,.,.,.,.,.,.,.,.,.,.,.,.,.,.,.,.,.,.,.,.,.,.,.,.,.,.,.,.,.,.,.,.",
",.,.,.,.,.,.,.,.,.,.,.,.,.,.,.,.,.,.,.,.,.,.,.,.,.,.,.,.,.,.,.,.,.,.,.,.,.,.,.,.,.,.,.,.,.,.,.,.,.,.,.,.,.,.,.,.,.,.,.,.,.,.,.,.",
",.,.,.,.,.,.,.,.,.,.,.,.,.,.,.,.,.,.,.,.,.,.,.,.,.,.,.,.,.,.,.,.,.,.,.,.,.,.,.,.,.,.,.,.,.,.,.,.,.,.,.,.,.,.,.,.,.,.,.,.,.,.,.,.",
",.,.,.,.,.,.,.,.,.,.,.,.,.,.,.,.,.,.,.,.,.,.,.,.,.,.,.,.,.,.,.,.,.,.,.,.,.,.,.,.,.,.,.,.,.,.,.,.,.,.,.,.,.,.,.,.,.,.,.,.,.,.,.,."
};
