/* XPM */
static char *red_yellow_frames[] = {
/* columns rows colors chars-per-pixel */
"64 128 107 2 ",
"   c #000000",
".  c #001705",
"X  c #002708",
"o  c #002D0F",
"O  c #092E14",
"+  c #003212",
"@  c #013A14",
"#  c #13311B",
"$  c #242424",
"%  c gray17",
"&  c #353535",
"*  c #3E3F3E",
"=  c #403D3F",
"-  c #004A19",
";  c #154F27",
":  c #005C24",
">  c #006026",
",  c #006B27",
"<  c #006028",
"1  c #006F2F",
"2  c #007331",
"3  c #007B35",
"4  c #22703A",
"5  c #2A723F",
"6  c #396644",
"7  c #434343",
"8  c gray29",
"9  c #4B524D",
"0  c #535353",
"q  c #5D5D5D",
"w  c #605F60",
"e  c #626262",
"r  c #6A6C6A",
"t  c #727272",
"y  c #008239",
"u  c #008E3E",
"i  c #009634",
"p  c #00973C",
"a  c #00983E",
"s  c #0B8F41",
"d  c #009442",
"f  c #009944",
"g  c #0C9946",
"h  c #159A48",
"j  c #1C9B4A",
"k  c #218643",
"l  c #3A874F",
"z  c #249B4D",
"x  c #299C4F",
"c  c #2B9C50",
"v  c #339D54",
"b  c #399E57",
"n  c #3E9F5A",
"m  c #44A05D",
"M  c #6F8874",
"N  c #4DA163",
"B  c #51A366",
"V  c #55A469",
"C  c #5AA56D",
"Z  c #5FA670",
"A  c #61A772",
"S  c #65A875",
"D  c #6EAA7C",
"F  c #71AC7E",
"G  c #75AE82",
"H  c #7AAF86",
"J  c #7EB189",
"K  c #848684",
"L  c #8E8D8D",
"P  c gray59",
"I  c #959A96",
"U  c #9F9F9F",
"Y  c #82B28C",
"T  c #8BB594",
"R  c #90B798",
"E  c #93B99B",
"W  c #9BBCA2",
"Q  c #A3A3A3",
"!  c #ACACAC",
"~  c #A1BFA7",
"^  c #A2BFA8",
"/  c gray69",
"(  c #B0BEB3",
")  c #BEBEBE",
"_  c #A5C0AA",
"`  c #A8C2AD",
"'  c #ADC4B2",
"]  c #B1C6B5",
"[  c #B6C7B9",
"{  c #B6C9BA",
"}  c #BACBBD",
"|  c #BDCCC0",
" . c #C2C2C2",
".. c #C1CFC4",
"X. c #CDCDCD",
"o. c #C5D0C7",
"O. c #C7D1C9",
"+. c #CCD4CE",
"@. c #CFD6D1",
"#. c #D3D5D4",
"$. c #D5D9D6",
"%. c #D7DAD8",
"&. c #DDDEDE",
"*. c #E0DFDF",
"=. c #E0DFE0",
"-. c #E1E0E1",
";. c None",
/* pixels */
";.;.;.;.;.;.;.;.;.;.;.;.;.;.;.;.;.;.;.;.;.;.;.;.;.;.;.;.;.;.;.;.;.;.;.;.;.;.;.;.;.;.;.;.;.;.;.;.;.;.;.;.;.;.;.;.;.;.;.;.;.;.;.;.",
";.;.;.;.;.;.;.;.;.;.;.;.;.;.;.;.;.;.;.;.;.;.;.;.;.;.;.;.;.;.;.;.;.;.;.;.;.;.;.;.;.;.;.;.;.;.;.;.;.;.;.;.;.;.;.;.;.;.;.;.;.;.;.;.",
";.;.;.;.;.;.;.;.;.;.;.;.;.;.;.;.;.;.;.;.;.;.;.;.;.;.;.;.;.;.;.;.;.;.;.;.;.;.;.;.;.;.;.;.;.;.;.;.;.;.;.;.;.;.;.;.;.;.;.;.;.;.;.;.",
";.;.;.;.;.;.;.;.;.;.;.;.;.f f f f f f f ;.;.;.;.;.;.;.;.;.;.;.;.;.;.;.;.;.;.;.;.;.;.;.;.;.;.;.;.;.;.;.;.;.;.;.;.;.;.;.;.;.;.;.;.",
";.;.;.;.;.;.;.;.;.;.;.;.;.f f f f f f f ;.;.;.;.;.;.;.;.;.;.;.;.;.;.;.;.;.;.;.;.;.;.;.;.;.f f f f f f f ;.;.;.;.;.;.;.;.;.;.;.;.",
";.;.;.;.;.;.;.;.;.f f f f f f f f f f f f f f f ;.;.;.;.;.;.;.;.;.;.;.;.;.;.;.;.;.f f f f f f f f f f f f f f ;.;.;.;.;.;.;.;.;.",
";.;.;.;.;.;.;.;.;.f f f f f f f f f f f f f f f ;.;.;.;.;.;.;.;.;.;.;.;.;.;.;.;.;.f f f f f f f f f f f f f f ;.;.;.;.;.;.;.;.;.",
";.;.;.;.;.;.;.f f f f a a f f f f f f f f f f a f ;.;.;.;.;.;.;.;.;.;.;.;.;.;.f f f f f f f f f f f f f f f f f f ;.;.;.;.;.;.;.",
";.;.;.;.;.;.f f f f c } { { Y f f f f f f H { { { n f ;.;.;.;.;.;.;.;.;.;.;.;.f f f n Y J Y v f f f f f f D Y J J ;.;.;.;.;.;.;.",
";.;.;.;.;.;.f f f f v &.&.*.W d f f f f f E =.&.*.n f ;.;.;.;.;.;.;.;.;.;.;.f f f f F -.&.-.A f f f f f p O.&.*.$.p f ;.;.;.;.;.",
";.;.;.;.;.;.f f f G ^ =.&.&.| W J f f d E | &.*.&.~ W ;.;.;.;.;.;.;.;.;.;.;.f f f C T -.&.-.Y D b f f h S +.&.&.%.S S ;.;.;.;.;.",
";.;.;.;.;.;.f f f _ &.&.&.&.%.&.] f f p %.&.*.=.&.&.&.;.;.;.;.;.;.;.;.;.;.;.f f p O.*.&.&.-.-.-.Y f f n -.&.=.=.*.-.-.;.;.;.;.;.",
";.;.;.;.;.;.f f f _ &.&.&.$     > f f a %.&.&. .      ;.;.;.;.;.;.;.;.;.;.;.f f p O.&.&.#.& = = k f f n -.=.=.I * * * ;.;.;.;.;.",
";.;.;.;.;.;.f f f _ *.&.&.$     > f f p %.&.&. .      ;.;.;.;.;.;.;.;.;.;.;.f f p O.&.&.#.      y f f n =.&.-.L       ;.;.;.;.;.",
";.;.;.;.f f f f f _ *.&.*.$     < f f p %.*.&. .      u f ;.;.;.;.;.;.;.f f f f p O.=.&.$.      y d f n =.&.&.L     . f ;.;.;.;.",
";.;.;.;.f f f f f H ` &.&.Q M 2 y f f a W | &.#.Q 5 1 d f ;.;.;.;.;.;.;.f f f f a _ ..=.%.K 6 > d d f v } %.&./ K : > f ;.;.;.;.",
";.;.;.;.f f f f f f v *.=.=.W f f f f f f E *.*.*.n f f f ;.;.;.;.;.;.;.f f f f f f D -.*.=.Z f f f f f i O.*.*.%.a f f ;.;.;.;.",
";.;.;.;.f f f f f f c | | | Y f f f f f f J } | ..v f f f ;.;.;.;.;.;.;.f f f f f f S O.O.O.V f f f f f a ' o.o.} a f f ;.;.;.;.",
";.;.;.;.f f f f f f f a p d f f f f f f f f a f p f f f f ;.;.;.;.;.;.;.f f f f f f f a a a f f f f f f f f a a a f f f ;.;.;.;.",
";.;.;.;.f f f f f f f f f f f f f f f f f f f f f f f f f ;.;.;.;.;.;.;.f f f f f f f f f f f f f f f f f f f f f f f f ;.;.;.;.",
";.;.;.;.f f f f f f f f f f f f f f f f f f f f f f f f f ;.;.;.;.;.;.;.f f f f f f f f f f f f f f f f f f f f f f f f ;.;.;.;.",
";.;.;.;.f f f f f f f f f f f f f f f f f f f f f f f f f ;.;.;.;.;.;.;.f f f f f f f f f f f f f f f f f f f f f f f f ;.;.;.;.",
";.;.;.;.f f f f f f f f f f f f f f f f f f f f f f f f f ;.;.;.;.;.;.;.f f f f f f f f f f f f f f f f f f f f f f f f ;.;.;.;.",
";.;.;.;.f f f f f f f f f f f f f f f f f f f f f f f f f ;.;.;.;.;.;.;.f f f f f f f f f f f f f f f f f f f f f f f f ;.;.;.;.",
";.;.;.;.f f f f f f f f f f f f f f f f f f f f f f f f f ;.;.;.;.;.;.;.f f f f f f f f f f f f f f f f f f f f f f f f ;.;.;.;.",
";.;.;.;.f f f f f f f ;.f f f f f f f f ;.;.f f f f f f f ;.;.;.;.;.;.;.f f ;.;.;.f f f f f ;.;.;.;.f f f f f ;.;.;.f f ;.;.;.;.",
";.;.;.;.;.;.f f f ;.;.;.;.;.f f f f ;.;.;.;.;.;.f f f ;.;.;.;.;.;.;.;.;.f ;.;.;.;.;.;.f f f ;.;.;.;.f f f ;.;.;.;.;.;.f ;.;.;.;.",
";.;.;.;.;.;.f f f ;.;.;.;.;.f f f f ;.;.;.;.;.;.f f f ;.;.;.;.;.;.;.;.;.f ;.;.;.;.;.;.f f f ;.;.;.;.f f f ;.;.;.;.;.;.f ;.;.;.;.",
";.;.;.;.;.;.;.;.;.;.;.;.;.;.;.;.;.;.;.;.;.;.;.;.;.;.;.;.;.;.;.;.;.;.;.;.;.;.;.;.;.;.;.;.;.;.;.;.;.;.;.;.;.;.;.;.;.;.;.;.;.;.;.;.",
";.;.;.;.;.;.;.;.;.;.;.;.;.;.;.;.;.;.;.;.;.;.;.;.;.;.;.;.;.;.;.;.;.;.;.;.;.;.;.;.;.;.;.;.;.;.;.;.;.;.;.;.;.;.;.;.;.;.;.;.;.;.;.;.",
";.;.;.;.;.;.;.;.;.;.;.;.;.;.;.;.;.;.;.;.;.;.;.;.;.;.;.;.;.;.;.;.;.;.;.;.;.;.;.;.;.;.;.;.;.;.;.;.;.;.;.;.;.;.;.;.;.;.;.;.;.;.;.;.",
";.;.;.;.;.;.;.;.;.;.;.;.;.;.;.;.;.;.;.;.;.;.;.;.;.;.;.;.;.;.;.;.;.;.;.;.;.;.;.;.;.;.;.;.;.;.;.;.;.;.;.;.;.;.;.;.;.;.;.;.;.;.;.;.",
";.;.;.;.;.;.;.;.;.;.;.;.;.;.;.;.;.;.;.;.;.;.;.;.;.;.;.;.;.;.;.;.;.;.;.;.;.;.;.;.;.;.;.;.;.;.;.;.;.;.;.;.;.;.;.;.;.;.;.;.;.;.;.;.",
";.;.;.;.;.;.;.;.;.;.;.;.;.;.;.;.;.;.;.;.;.;.;.;.;.;.;.;.;.;.;.;.;.;.;.;.;.;.;.;.;.;.;.;.;.;.;.;.;.;.;.;.;.;.;.;.;.;.;.;.;.;.;.;.",
";.;.;.;.;.;.;.;.;.;.;.;.;.;.;.;.;.;.;.;.;.;.;.;.;.;.;.;.;.;.;.;.;.;.;.;.;.;.;.;.;.;.;.;.;.;.;.;.;.;.;.;.;.;.;.;.;.;.;.;.;.;.;.;.",
";.;.;.;.;.;.;.;.;.;.;.;.;.;.;.;.;.;.;.;.;.;.;.;.;.;.;.;.;.;.;.;.;.;.;.;.;.;.;.;.;.;.;.;.;.f f f f f f f ;.;.;.;.;.;.;.;.;.;.;.;.",
";.;.;.;.;.;.;.;.;.;.;.;.;.f f f f f f f ;.;.;.;.;.;.;.;.;.;.;.;.;.;.;.;.;.;.;.;.;.;.;.;.;.f f f f f f f ;.;.;.;.;.;.;.;.;.;.;.;.",
";.;.;.;.;.;.;.;.;.;.f f f f f f f f f f f f f f ;.;.;.;.;.;.;.;.;.;.;.;.;.;.;.;.;.f f f f f f f f f f f f f f f ;.;.;.;.;.;.;.;.",
";.;.;.;.;.;.;.;.;.f f f f f f f f f f f f f f f ;.;.;.;.;.;.;.;.;.;.;.;.;.;.;.;.;.f f f f f f f f f f f f f f f ;.;.;.;.;.;.;.;.",
";.;.;.;.;.;.;.f f f f f f f f f f f f f f f f f f ;.;.;.;.;.;.;.;.;.;.;.;.;.;.a a a a f f f f f f f a a a f f f f ;.;.;.;.;.;.;.",
";.;.;.;.;.;.;.G J H G f f f f f f f H H H A f f f ;.;.;.;.;.;.;.;.;.;.;.;.;.a } %.&.$.d f f f f d g %.%.%.' d f f f f ;.;.;.;.;.",
";.;.;.;.;.;.a | *.=.&.f f f f f f g &.-.*.] f f f f f ;.;.;.;.;.;.;.;.;.;.;.i | &.&.%.i p f f f d p &.&.=.' p p f f f ;.;.;.;.;.",
";.;.;.;.;.;.B ..*.&.%.N B g f f v V &.=.&.{ B N f f f ;.;.;.;.;.;.;.;.;.;.;.+.%.&.&.&.X.+.z f f Y @.&.&.&.%.+.{ f f f ;.;.;.;.;.",
";.;.;.;.;.;.-.-.=.*.*.=.-.z f f E -.=.=.&.&.=.O.a f f ;.;.;.;.;.;.;.;.;.;.;.)  .| X.&.=.&.z f f G  . . .&.&.&.o.p f f ;.;.;.;.;.",
";.;.;.;.;.;.w w w / &.*.&.z f f l w w q %.&.&.o.a f f ;.;.;.;.;.;.;.;.;.;.;.      Q *.&.&.z f f 3       #.=.&.O.p f f ;.;.;.;.;.",
";.;.;.;.;.;.      Q &.&.*.z f f 3       $.&.&.o.a f f ;.;.;.;.;.;.;.;.;.;.;.      Q &.&.*.z f f 3       $.&.&.O.p f f ;.;.;.;.;.",
";.;.;.;.f d       Q *.&.&.z f f 3       $.*.&.o.a f f f f ;.;.;.;.;.;.;.f d       Q &.&.=.z f f 3       #.=.=.O.p f f f f ;.;.;.",
";.;.;.;.f f @ 9 q / &.@.#.z f f 3 @ q 0 %.%.@.} a f f f f ;.;.;.;.;.;.;.f f u ( #.%.&.C C g f f d s X.X.&.[ C B f f f f f ;.;.;.",
";.;.;.;.f f a | -.&.%.i p f f f f g *.*.*.' i a f f f f f ;.;.;.;.;.;.;.f f a | =.=.&.a f f f f f g &.=.&.] f f f f f f f ;.;.;.",
";.;.;.;.f f f } %.&.%.a f f f f f g %.&.%.' f f f f f f f ;.;.;.;.;.;.;.f f f D Y Y H f f f f f f f Y Y Y S f f f f f f f ;.;.;.",
";.;.;.;.f f f f f a f f f f f f f f f a a f f f f f f f f ;.;.;.;.;.;.;.f f f f f f f f f f f f f f f f f f f f f f f f f ;.;.;.",
";.;.;.;.f f f f f f f f f f f f f f f f f f f f f f f f f ;.;.;.;.;.;.;.f f f f f f f f f f f f f f f f f f f f f f f f f ;.;.;.",
";.;.;.;.f f f f f f f f f f f f f f f f f f f f f f f f f ;.;.;.;.;.;.;.f f f f f f f f f f f f f f f f f f f f f f f f f ;.;.;.",
";.;.;.;.f f f f f f f f f f f f f f f f f f f f f f f f f ;.;.;.;.;.;.;.f f f f f f f f f f f f f f f f f f f f f f f f f ;.;.;.",
";.;.;.;.f f f f f f f f f f f f f f f f f f f f f f f f f ;.;.;.;.;.;.;.f f f f f f f f f f f f f f f f f f f f f f f f f ;.;.;.",
";.;.;.;.f f f f f f f f f f f f f f f f f f f f f f f f f ;.;.;.;.;.;.;.f f f f f f f f f f f f f f f f f f f f f f f f f ;.;.;.",
";.;.;.;.f f f f f f f f f f f f f f f f f f f f f f f f f ;.;.;.;.;.;.;.f f f ;.f f f f f f f ;.;.;.f f f f f f ;.f f f f ;.;.;.",
";.;.;.;.f f f f f f f ;.f f f f f f f f ;.;.f f f f f f f ;.;.;.;.;.;.;.f f f ;.;.f f f f f ;.;.;.;.f f f f f f ;.;.f f f ;.;.;.",
";.;.;.;.;.;.f f f ;.;.;.;.;.f f f f ;.;.;.;.;.f f f f ;.;.;.;.;.;.;.;.;.f ;.;.;.;.;.;.f f f ;.;.;.;.f f f f ;.;.;.;.;.f f ;.;.;.",
";.;.;.;.;.;.f f f ;.;.;.;.;.f f f f ;.;.;.;.;.;.f f f ;.;.;.;.;.;.;.;.;.f ;.;.;.;.;.;.f f f ;.;.;.;.f f f f ;.;.;.;.;.f f ;.;.;.",
";.;.;.;.;.;.f f f ;.;.;.;.;.;.f f f ;.;.;.;.;.;.f f ;.;.;.;.;.;.;.;.;.;.;.;.;.;.;.;.;.;.;.;.;.;.;.;.;.;.;.;.;.;.;.;.;.;.;.;.;.;.",
";.;.;.;.;.;.;.;.;.;.;.;.;.;.;.;.;.;.;.;.;.;.;.;.;.;.;.;.;.;.;.;.;.;.;.;.;.;.;.;.;.;.;.;.;.;.;.;.;.;.;.;.;.;.;.;.;.;.;.;.;.;.;.;.",
";.;.;.;.;.;.;.;.;.;.;.;.;.;.;.;.;.;.;.;.;.;.;.;.;.;.;.;.;.;.;.;.;.;.;.;.;.;.;.;.;.;.;.;.;.;.;.;.;.;.;.;.;.;.;.;.;.;.;.;.;.;.;.;.",
";.;.;.;.;.;.;.;.;.;.;.;.;.;.;.;.;.;.;.;.;.;.;.;.;.;.;.;.;.;.;.;.;.;.;.;.;.;.;.;.;.;.;.;.;.;.;.;.;.;.;.;.;.;.;.;.;.;.;.;.;.;.;.;.",
";.;.;.;.;.;.;.;.;.;.;.;.;.;.;.;.;.;.;.;.;.;.;.;.;.;.;.;.;.;.;.;.;.;.;.;.;.;.;.;.;.;.;.;.;.;.;.;.;.;.;.;.;.;.;.;.;.;.;.;.;.;.;.;.",
";.;.;.;.;.;.;.;.;.;.;.;.;.;.;.;.;.;.;.;.;.;.;.;.;.;.;.;.;.;.;.;.;.;.;.;.;.;.;.;.;.;.;.;.;.;.;.;.;.;.;.;.;.;.;.;.;.;.;.;.;.;.;.;.",
";.;.;.;.;.;.;.;.;.;.;.;.;.;.;.;.;.;.;.;.;.;.;.;.;.;.;.;.;.;.;.;.;.;.;.;.;.;.;.;.;.;.;.;.;.;.;.;.;.;.;.;.;.;.;.;.;.;.;.;.;.;.;.;.",
";.;.;.;.;.;.;.;.;.;.;.;.;.;.;.;.;.;.;.;.;.;.;.;.;.;.;.;.;.;.;.;.;.;.;.;.;.;.;.;.;.;.;.;.;.;.;.;.;.;.;.;.;.;.;.;.;.;.;.;.;.;.;.;.",
";.;.;.;.;.;.;.;.;.;.;.;.;.f f f f f f f ;.;.;.;.;.;.;.;.;.;.;.;.;.;.;.;.;.;.;.;.;.;.;.;.;.f f f f f f f ;.;.;.;.;.;.;.;.;.;.;.;.",
";.;.;.;.;.;.;.;.;.f f f f f f f f f f f f f f f ;.;.;.;.;.;.;.;.;.;.;.;.;.;.;.;.;.;.f f f f f f f f f f f f f f ;.;.;.;.;.;.;.;.",
";.;.;.;.;.;.;.;.;.f f f f f f f f f f f f f f f ;.;.;.;.;.;.;.;.;.;.;.;.;.;.;.;.;.f f f f f f f f f f f f f f f ;.;.;.;.;.;.;.;.",
";.;.;.;.;.;.;.f f f f f f f f f f f f f f f f f f ;.;.;.;.;.;.;.;.;.;.;.;.;.;.;.f f f f f f f f f f f f f f f f f ;.;.;.;.;.;.;.",
";.;.;.;.;.;.;.f f f f f f f f f f f f f f f f f f ;.;.;.;.;.;.;.;.;.;.;.;.;.;.f f f f f f f f f f f f f f f f f f ;.;.;.;.;.;.;.",
";.;.;.;.;.;.f f f f f f f f f f f f f f f f f f f f f ;.;.;.;.;.;.;.;.;.;.;.f f f f f f f f f f f f f f f f f f f f f ;.;.;.;.;.",
";.;.;.;.;.;.f f f C H H H g f f f f f f G H H D f f f ;.;.;.;.;.;.;.;.;.;.;.f f f g z j z f f f f f f f j j j j f f f ;.;.;.;.;.",
";.;.;.;.;.;.f f p ` *.*.=.j f f f f f i %.*.-.O.i f f ;.;.;.;.;.;.;.;.;.;.;.f f f _ &.&.&.j f f f f f i %.=.&.o.p f f ;.;.;.;.;.",
";.;.;.;.;.;.a } %.&.&.&.&.&.E f f g %.&.&.*.&.&.&.b f ;.;.;.;.;.;.;.;.;.;.;.f E [ +.&.&.*.{ Y f f f [ [ %.&.&.%.{ v f ;.;.;.;.;.",
";.;.;.;.;.;.p | &.*.&.*.&.*.~ f f g &.&.&.&.&.&.-.n f ;.;.;.;.;.;.;.;.;.;.;.a ..&.&.&.&.&.&.W f f g &.&.=.&.&.&.*.n f ;.;.;.;.;.",
";.;.;.;.f f f } &.&.*.&.&.&.W f f g &.&.&.&.&.*.-.n f f f ;.;.;.;.;.;.;.;.;.a ..&.&.*.&.&.&.W d f g &.&.&.&.&.&.-.n f f ;.;.;.;.",
";.;.;.;.f f a | &.X.) ) ) &.E f f g &.&. .)  . .-.n f f f ;.;.;.;.;.;.;.f f p } &.&.&.%.&.*.W f f g &.&.&.&.%.&.-.m f f f ;.;.;.",
";.;.;.;.f f a } *.U       &.W d f g &.-.*     t -.n f f f ;.;.;.;.;.;.;.f f f | &.Q       &.W f f g =.-.7     t -.n f f f ;.;.;.",
";.;.;.;.f f a ] #.I       @.R f f g +.#.7     r #.b f f f ;.;.;.;.;.;.;.f f a | *.U       &.W f f g &.-.8     t -.m f f f ;.;.;.",
";.;.;.;.f f f f p ,       p f f f f p f X     - p f f f f ;.;.;.;.;.;.;.f f f c v 4       v j f f f v v O     ; v f f f f ;.;.;.",
";.;.;.;.f f f f f d u p u f f f f f f f d u u d f f f f f ;.;.;.;.;.;.;.f f f f f y 1 1 1 f f f f f f f 2 1 1 3 f f f f f ;.;.;.",
";.;.;.;.f f f f f f f f f f f f f f f f f f f f f f f f f ;.;.;.;.;.;.;.f f f f f f f f f f f f f f f f f f f f f f f f f ;.;.;.",
";.;.;.;.f f f f f f f f f f f f f f f f f f f f f f f f f ;.;.;.;.;.;.;.f f f f f f f f f f f f f f f f f f f f f f f f f ;.;.;.",
";.;.;.;.f f f f f f f f f f f f f f f f f f f f f f f f f ;.;.;.;.;.;.;.f f f f f f f f f f f f f f f f f f f f f f f f f ;.;.;.",
";.;.;.;.f f f f f f f f f f f f f f f f f f f f f f f f f ;.;.;.;.;.;.;.f f f f f f f f f f f f f f f f f f f f f f f f f ;.;.;.",
";.;.;.;.f f f f f f f f f f f f f f f f f f f f f f f f f ;.;.;.;.;.;.;.f f f f f f f f f f f f f f f f f f f f f f f f f ;.;.;.",
";.;.;.;.f f f f f f f ;.f f f f f f f f ;.;.f f f f f f f ;.;.;.;.;.;.;.f f f ;.;.f f f f f f ;.;.;.f f f f f f ;.;.f f f ;.;.;.",
";.;.;.;.;.;.f f f ;.;.;.;.;.f f f f ;.;.;.;.;.;.f f f ;.;.;.;.;.;.;.;.;.f f ;.;.;.f f f f f ;.;.;.;.f f f f f ;.;.;.f f f ;.;.;.",
";.;.;.;.;.;.f f f ;.;.;.;.;.f f f f ;.;.;.;.;.;.f f f ;.;.;.;.;.;.;.;.;.f ;.;.;.;.;.;.f f f ;.;.;.;.f f f f ;.;.;.;.;.f f ;.;.;.",
";.;.;.;.;.;.;.;.;.;.;.;.;.;.;.;.;.;.;.;.;.;.;.;.;.;.;.;.;.;.;.;.;.;.;.;.f ;.;.;.;.;.;.f f f ;.;.;.;.f f f ;.;.;.;.;.;.f f ;.;.;.",
";.;.;.;.;.;.;.;.;.;.;.;.;.;.;.;.;.;.;.;.;.;.;.;.;.;.;.;.;.;.;.;.;.;.;.;.;.;.;.;.;.;.;.;.;.;.;.;.;.;.;.;.;.;.;.;.;.;.;.;.;.;.;.;.",
";.;.;.;.;.;.;.;.;.;.;.;.;.;.;.;.;.;.;.;.;.;.;.;.;.;.;.;.;.;.;.;.;.;.;.;.;.;.;.;.;.;.;.;.;.;.;.;.;.;.;.;.;.;.;.;.;.;.;.;.;.;.;.;.",
";.;.;.;.;.;.;.;.;.;.;.;.;.;.;.;.;.;.;.;.;.;.;.;.;.;.;.;.;.;.;.;.;.;.;.;.;.;.;.;.;.;.;.;.;.;.;.;.;.;.;.;.;.;.;.;.;.;.;.;.;.;.;.;.",
";.;.;.;.;.;.;.;.;.;.;.;.;.;.;.;.;.;.;.;.;.;.;.;.;.;.;.;.;.;.;.;.;.;.;.;.;.;.;.;.;.;.;.;.;.;.;.;.;.;.;.;.;.;.;.;.;.;.;.;.;.;.;.;.",
";.;.;.;.;.;.;.;.;.;.;.;.;.;.;.;.;.;.;.;.;.;.;.;.;.;.;.;.;.;.;.;.;.;.;.;.;.;.;.;.;.;.;.;.;.;.;.;.;.;.;.;.;.;.;.;.;.;.;.;.;.;.;.;.",
";.;.;.;.;.;.;.;.;.;.;.;.;.;.;.;.;.;.;.;.;.;.;.;.;.;.;.;.;.;.;.;.;.;.;.;.;.;.;.;.;.;.;.;.;.;.;.;.;.;.;.;.;.;.;.;.;.;.;.;.;.;.;.;.",
";.;.;.;.;.;.;.;.;.;.;.;.;.;.;.;.;.;.;.;.;.;.;.;.;.;.;.;.;.;.;.;.;.;.;.;.;.;.;.;.;.;.;.;.;.f f f f f f f ;.;.;.;.;.;.;.;.;.;.;.;.",
";.;.;.;.;.;.;.;.;.;.;.;.;.f f f f f f f ;.;.;.;.;.;.;.;.;.;.;.;.;.;.;.;.;.;.;.;.;.;.;.;.;.f f f f f f f ;.;.;.;.;.;.;.;.;.;.;.;.",
";.;.;.;.;.;.;.;.;.;.      f f f f f f f +       ;.;.;.;.;.;.;.;.;.;.;.;.;.;.;.;.;.        d f f f f f f +       ;.;.;.;.;.;.;.;.",
";.;.;.;.;.;.;.;.;.        p f f f f f f o       ;.;.;.;.;.;.;.;.;.;.;.;.;.;.;.;.;.8       N v f f f B B #     % ;.;.;.;.;.;.;.;.",
";.;.;.;.;.;.;.;.=.L       { Y f f g { { *     e -.;.;.;.;.;.;.;.;.;.;.;.;.;.;.&.&.Q       &.W f f g *.-.=     t -.;.;.;.;.;.;.;.",
";.;.;.;.;.;.;.&.&.! 0 0 0 &.E f f g &.-.r 0 0 K -.;.;.;.;.;.;.;.;.;.;.;.;.;.p o.&.#.X.X.X.&.W f f g &.*.X.X.X.#.*.m d ;.;.;.;.;.",
";.;.;.;.;.;.a } &.&.-.&.-.&.W f f g &.&.*.-.-.-.-.n f ;.;.;.;.;.;.;.;.;.;.;.f | &.&.&.&.&.=.W f f g &.&.&.&.&.&.*.n f ;.;.;.;.;.",
";.;.;.;.;.;.f | &.&.&.&.*.&.W f f g &.&.&.&.&.&.*.n f ;.;.;.;.;.;.;.;.;.;.;.a | &.=.&.=.&.&.W f f g &.&.&.&.&.&.=.n f ;.;.;.;.;.",
";.;.;.;.;.;.a | =.=.&.&.&.-.W f f g &.*.&.&.&.*.-.n f ;.;.;.;.;.;.;.;.;.;.;.a ] #.%.&.&.&.#.E f f g @.#.&.&.&.&.#.b f ;.;.;.;.;.",
";.;.;.;.;.;.f F Y } &.*.&.T C f f f Y Y %.-.&.+.Y z f ;.;.;.;.;.;.;.;.;.;.;.f p p _ &.&.=.g f f f f p i %.&.&...i f f ;.;.;.;.;.",
";.;.;.;.;.;.f f f _ &.&.&.z f f f f f p $.&.&.o.a f f ;.;.;.;.;.;.;.;.;.;.;.f f f _ %.&.&.x f f f f f p +.&.&...p f f ;.;.;.;.;.",
";.;.;.;.f f f f f H _ _ _ h f f f f f f W _ _ R f f f f ;.;.;.;.;.;.;.;.f f f f f f a f f f f f f f f f f a f a f f f f f ;.;.;.",
";.;.;.;.f f f f f f f f f f f f f f f f f f f f f f f f f ;.;.;.;.;.;.;.f f f f f f f f f f f f f f f f f f f f f f f f f ;.;.;.",
";.;.;.;.f f f f f f f f f f f f f f f f f f f f f f f f f ;.;.;.;.;.;.;.f f f f f f f f f f f f f f f f f f f f f f f f f ;.;.;.",
";.;.;.;.f f f f f f f f f f f f f f f f f f f f f f f f f ;.;.;.;.;.;.;.f f f f f f f f f f f f f f f f f f f f f f f f f ;.;.;.",
";.;.;.;.f f f f f f f f f f f f f f f f f f f f f f f f f ;.;.;.;.;.;.;.f f f f f f f f f f f f f f f f f f f f f f f f f ;.;.;.",
";.;.;.;.f f f f f f f f f f f f f f f f f f f f f f f f f ;.;.;.;.;.;.;.f f f f f f f f f f f f f f f f f f f f f f f f f ;.;.;.",
";.;.;.;.f f f f f f f f f f f f f f f f f f f f f f f f f ;.;.;.;.;.;.;.f f f f f f f f f f f f f f f f f f f f f f f f f ;.;.;.",
";.;.;.;.f f f f f f f f f f f f f f f f f f f f f f f f f ;.;.;.;.;.;.;.f f f f f f f f f f f f f f f f f f f f f f f f f ;.;.;.",
";.;.;.;.f f f f f f f f f f f f f f f f f f f f f f f f f ;.;.;.;.;.;.;.f f f f f f f f f f f f f f f f f f f f f f f f f ;.;.;.",
";.;.;.;.f f f f f f f f f f f f f f f f f f f f f f f f f ;.;.;.;.;.;.;.f f f f f f f f f f f f f f f f f f f f f f f f f ;.;.;.",
";.;.;.;.f f f f f f f f f f f f f f f f f f f f f f f f f ;.;.;.;.;.;.;.f f f f f f f f f f f f f f f f f f f f f f f f f ;.;.;.",
";.;.;.;.f f f f f f f ;.f f f f f f f f ;.;.f f f f f f f ;.;.;.;.;.;.;.f f f ;.;.f f f f f ;.;.;.;.f f f f f f ;.;.f f f ;.;.;.",
";.;.;.;.f f f f f f f ;.;.f f f f f f f ;.;.f f f f f f ;.;.;.;.;.;.;.;.f ;.;.;.;.;.;.f f f ;.;.;.;.f f f f ;.;.;.;.;.f f ;.;.;.",
";.;.;.;.;.;.f f f ;.;.;.;.;.f f f f ;.;.;.;.;.;.f f f ;.;.;.;.;.;.;.;.;.f ;.;.;.;.;.;.f f f ;.;.;.;.f f f f ;.;.;.;.;.f f ;.;.;.",
";.;.;.;.;.;.f f f ;.;.;.;.;.;.f f f ;.;.;.;.;.;.f f ;.;.;.;.;.;.;.;.;.;.;.;.;.;.;.;.;.;.;.;.;.;.;.;.;.;.;.;.;.;.;.;.;.;.;.;.;.;.",
";.;.;.;.;.;.;.;.;.;.;.;.;.;.;.;.;.;.;.;.;.;.;.;.;.;.;.;.;.;.;.;.;.;.;.;.;.;.;.;.;.;.;.;.;.;.;.;.;.;.;.;.;.;.;.;.;.;.;.;.;.;.;.;.",
";.;.;.;.;.;.;.;.;.;.;.;.;.;.;.;.;.;.;.;.;.;.;.;.;.;.;.;.;.;.;.;.;.;.;.;.;.;.;.;.;.;.;.;.;.;.;.;.;.;.;.;.;.;.;.;.;.;.;.;.;.;.;.;.",
";.;.;.;.;.;.;.;.;.;.;.;.;.;.;.;.;.;.;.;.;.;.;.;.;.;.;.;.;.;.;.;.;.;.;.;.;.;.;.;.;.;.;.;.;.;.;.;.;.;.;.;.;.;.;.;.;.;.;.;.;.;.;.;."
};
