/* XPM */
static char *ghost_right[] = {
/* columns rows colors chars-per-pixel */
"64 32 137 2 ",
"   c black",
".  c #4D0002",
"X  c #4F0002",
"o  c #610003",
"O  c #660000",
"+  c #660609",
"@  c #565656",
"#  c #535959",
"$  c #585858",
"%  c #635455",
"&  c #606060",
"*  c #656565",
"=  c #6A6A6A",
"-  c gray42",
";  c gray50",
":  c #800005",
">  c #A90000",
",  c #A7000A",
"<  c #B1000B",
"1  c #A9171C",
"2  c #DB0010",
"3  c #DB0011",
"4  c #DD0011",
"5  c #DF0011",
"6  c #DE171F",
"7  c #E60000",
"8  c #E60002",
"9  c #E60005",
"0  c #E80000",
"q  c #E60008",
"w  c #E60009",
"e  c #E6000A",
"r  c #E6000B",
"t  c #E6000C",
"y  c #E6000E",
"u  c #E6000F",
"i  c #E10011",
"p  c #E60010",
"a  c #E60011",
"s  c #E60012",
"d  c #E70012",
"f  c #E60112",
"g  c #E80012",
"h  c #E90012",
"j  c #E60A18",
"k  c #E61720",
"l  c #E61A22",
"z  c #E61B23",
"x  c #E61C24",
"c  c #E81B24",
"v  c #E6232A",
"b  c #E6242A",
"n  c #E62B30",
"m  c #E63438",
"M  c #E5484B",
"N  c #E54B4E",
"B  c #E54C4F",
"V  c #E54E51",
"C  c #E55658",
"Z  c #E55659",
"A  c #E5585A",
"S  c #E55A5C",
"D  c #E55B5D",
"F  c #E55E60",
"G  c #E56062",
"H  c #E46A6B",
"J  c #E46D6E",
"K  c #E46D6F",
"L  c #E47374",
"P  c #E47476",
"I  c #E4797A",
"U  c #E47A7C",
"Y  c #E47E7F",
"T  c #E47E80",
"R  c #848484",
"E  c #A49090",
"W  c #A2A2A2",
"Q  c #B1B1B1",
"!  c gray71",
"~  c gray72",
"^  c #B9B9B9",
"/  c #BBBBBB",
"(  c gray74",
")  c #E38889",
"_  c #E38B8C",
"`  c #E29B9B",
"'  c #E29C9D",
"]  c #E29D9E",
"[  c #E29F9F",
"{  c #E29FA0",
"}  c #E2A0A1",
"|  c #E2A3A4",
" . c #E2A5A6",
".. c #E2A6A6",
"X. c #E2A8A9",
"o. c #E2A9AA",
"O. c #E2ABAC",
"+. c #E1B0B0",
"@. c #E1B3B3",
"#. c #E1B4B5",
"$. c #E1B7B7",
"%. c #E1BBBC",
"&. c #E1BCBC",
"*. c gray80",
"=. c #DFCECE",
"-. c #DFD1D1",
";. c #DFD1D2",
":. c #DFD6D6",
">. c #DFD6D7",
",. c #DFD7D7",
"<. c #DFD7D8",
"1. c gray86",
"2. c #DED8D8",
"3. c #DED9D9",
"4. c #DEDADA",
"5. c #DEDBDB",
"6. c #DBDDDD",
"7. c gainsboro",
"8. c #DDDDDD",
"9. c #DEDDDD",
"0. c gray87",
"q. c #DEDFDF",
"w. c #DFDFDF",
"e. c #E0C2C2",
"r. c #E0C3C3",
"t. c #E2C3C3",
"y. c #E0C4C5",
"u. c #E0C5C5",
"i. c #E0C6C6",
"p. c #E0CACA",
"a. c #DEE0E0",
"s. c #DEE2E2",
"d. c gray88",
"f. c #E0E1E1",
"g. c #E0E2E2",
"h. c #E0E4E4",
"j. c None",
/* pixels */
"j.j.j.j.j.j.j.j.j.j.j.j.j.j.j.j.j.j.j.j.j.j.j.j.j.j.j.j.j.j.j.j.j.j.j.j.j.j.j.j.j.j.j.j.j.j.j.j.j.j.j.j.j.j.j.j.j.j.j.j.j.j.j.j.",
"j.j.j.j.j.j.j.j.j.j.j.j.j.j.j.j.j.j.j.j.j.j.j.j.j.j.j.j.j.j.j.j.j.j.j.j.j.j.j.j.j.j.j.j.j.j.j.j.j.j.j.j.j.j.j.j.j.j.j.j.j.j.j.j.",
"j.j.j.j.j.j.j.j.j.j.j.j.j.j.j.j.j.j.j.j.j.j.j.j.j.j.j.j.j.j.j.j.j.j.j.j.j.j.j.j.j.j.j.j.j.j.j.j.j.j.j.j.j.j.j.j.j.j.j.j.j.j.j.j.",
"j.j.j.j.j.j.j.j.j.j.j.j.j.s s s s s s j.j.j.j.j.j.j.j.j.j.j.j.j.j.j.j.j.j.j.j.j.j.j.j.j.j.j.j.j.j.j.j.j.j.j.j.j.j.j.j.j.j.j.j.j.",
"j.j.j.j.j.j.j.j.j.j.j.j.j.s s s s s s s j.j.j.j.j.j.j.j.j.j.j.j.j.j.j.j.j.j.j.j.j.j.j.j.j.s s s s s s s j.j.j.j.j.j.j.j.j.j.j.j.",
"j.j.j.j.j.j.j.j.j.s s s s s s s s s s s s s s j.j.j.j.j.j.j.j.j.j.j.j.j.j.j.j.j.j.s s s s s s s s s s s s s s j.j.j.j.j.j.j.j.j.",
"j.j.j.j.j.j.j.j.j.s s s s s s s s s s s s s s j.j.j.j.j.j.j.j.j.j.j.j.j.j.j.j.j.j.s s s s s s s s s s s s s s j.j.j.j.j.j.j.j.j.",
"j.j.j.j.j.j.j.s s s q 7 7 7 s s s s s s s 7 7 7 7 j.j.j.j.j.j.j.j.j.j.j.j.j.j.s s s s s s s s s s s s s s s s s s j.j.j.j.j.j.j.",
"j.j.j.j.j.j.s s s u ) $.$.$.z s s s s s 7 +.$.$.X.7 s j.j.j.j.j.j.j.j.j.j.j.j.s s p G T T Y j s s s s s w U T T I j.j.j.j.j.j.j.",
"j.j.j.j.j.j.s s s t ..0.0.0.v a s s s s 7 :.0.0.y.7 a j.j.j.j.j.j.j.j.j.j.s s s s e O.q.q.q.z s s s s s 7 3.q.q.e.7 s j.j.j.j.j.",
"j.j.j.j.j.j.s s t ` r.0.0.0.{ [ m s s N ] 4.0.0.-.' ] j.j.j.j.j.j.j.j.j.j.s s s a A @.0.0.0.F D k s s n Z 2.0.0.i.C S j.j.j.j.j.",
"j.j.j.j.j.j.s s 8 5.0.0.8.1.1.6.B s s K a.0.0.7.1.1.1.j.j.j.j.j.j.j.j.j.j.s s s y 9.q.0.w.d.g.h.M s s P s.0.0.d.f.g.g.j.j.j.j.j.",
"j.j.j.j.j.j.s s 8 4.0.0.~       2 s s J a.0.d.=       j.j.j.j.j.j.j.j.j.j.s s s y 5.0.0./ @ $ # 6 s s L a.0.d.; $ $ $ j.j.j.j.j.",
"j.j.j.j.j.j.s s 8 4.0.0.^       3 s s J a.0.d.-       j.j.j.j.j.j.j.j.j.j.s s s y 5.0.0.!       4 s s L a.0.d.*       j.j.j.j.j.",
"j.j.j.s s s s s 8 5.0.0.^       3 s s K a.0.d.-     X g j.j.j.j.j.j.j.s s s s s y 5.0.0.!       4 s s L a.0.d.*     . h j.j.j.j.",
"j.j.j.s s s s s r } u.0.*.W 1 , i s s V | 4.w.Q E > < d j.j.j.j.j.j.j.s s s s s u p.>.0.( & + o 5 s s H =.9.d.R % O : g j.j.j.j.",
"j.j.j.s s s s s s w ..0.0.0.b s s s s a 7 :.0.0.u.7 s s j.j.j.j.j.j.j.s s s s s s 7 o.0.w.d.c g s s s q 7 ,.0.d.t.0 g s j.j.j.j.",
"j.j.j.s s s s s s u _ %.%.%.x s s s s s 7 #.%.%. .7 s s j.j.j.j.j.j.j.s s s s s s e ..2.2.<.l s s s s s 7 ;.2.2.&.7 s s j.j.j.j.",
"j.j.j.s s s s s s s 9 7 7 7 s s s s s s f 7 7 7 7 f s s j.j.j.j.j.j.j.s s s s s s s 7 7 7 7 s s s s s s f 7 7 7 7 f s s j.j.j.j.",
"j.j.j.s s s s s s s s s s s s s s s s s s s s s s s s s j.j.j.j.j.j.j.s s s s s s s s s s s s s s s s s s s s s s s s s j.j.j.j.",
"j.j.j.s s s s s s s s s s s s s s s s s s s s s s s s s j.j.j.j.j.j.j.s s s s s s s s s s s s s s s s s s s s s s s s s j.j.j.j.",
"j.j.j.s s s s s s s s s s s s s s s s s s s s s s s s s j.j.j.j.j.j.j.s s s s s s s s s s s s s s s s s s s s s s s s s j.j.j.j.",
"j.j.j.s s s s s s s s s s s s s s s s s s s s s s s s s j.j.j.j.j.j.j.s s s s s s s s s s s s s s s s s s s s s s s s s j.j.j.j.",
"j.j.j.s s s s s s s s s s s s s s s s s s s s s s s s s j.j.j.j.j.j.j.s s s s s s s s s s s s s s s s s s s s s s s s s j.j.j.j.",
"j.j.j.s s s s s s s s s s s s s s s s s s s s s s s s s j.j.j.j.j.j.j.s s s s s s s s s s s s s s s s s s s s s s s s s j.j.j.j.",
"j.j.j.s s s s s s s j.j.s s s s s s s s j.s s s s s s s j.j.j.j.j.j.j.s s s j.j.s s s s s s j.j.j.j.s s s s s j.j.s s s j.j.j.j.",
"j.j.j.j.j.s s s j.j.j.j.j.j.s s s s j.j.j.j.j.s s s j.j.j.j.j.j.j.j.j.s s j.j.j.j.j.s s s s j.j.j.j.s s s j.j.j.j.j.j.s j.j.j.j.",
"j.j.j.j.j.j.s s j.j.j.j.j.j.s s s s j.j.j.j.j.s s s j.j.j.j.j.j.j.j.j.s s j.j.j.j.j.s s s s j.j.j.j.s s s j.j.j.j.j.j.s j.j.j.j.",
"j.j.j.j.j.j.j.j.j.j.j.j.j.j.j.j.j.j.j.j.j.j.j.j.j.j.j.j.j.j.j.j.j.j.j.j.j.j.j.j.j.j.j.s s s j.j.j.j.s s s j.j.j.j.j.j.s j.j.j.j.",
"j.j.j.j.j.j.j.j.j.j.j.j.j.j.j.j.j.j.j.j.j.j.j.j.j.j.j.j.j.j.j.j.j.j.j.j.j.j.j.j.j.j.j.j.j.j.j.j.j.j.j.j.j.j.j.j.j.j.j.j.j.j.j.j.",
"j.j.j.j.j.j.j.j.j.j.j.j.j.j.j.j.j.j.j.j.j.j.j.j.j.j.j.j.j.j.j.j.j.j.j.j.j.j.j.j.j.j.j.j.j.j.j.j.j.j.j.j.j.j.j.j.j.j.j.j.j.j.j.j.",
"j.j.j.j.j.j.j.j.j.j.j.j.j.j.j.j.j.j.j.j.j.j.j.j.j.j.j.j.j.j.j.j.j.j.j.j.j.j.j.j.j.j.j.j.j.j.j.j.j.j.j.j.j.j.j.j.j.j.j.j.j.j.j.j."
};
