/* XPM */
static char *ghost_up[] = {
/* columns rows colors chars-per-pixel */
"64 32 107 2 ",
"   c black",
".  c #000101",
"X  c #010101",
"o  c gray11",
"O  c #2A2A2A",
"+  c #670003",
"@  c #681F21",
"#  c #515151",
"$  c #5F6060",
"%  c #8E0000",
"&  c #8F0007",
"*  c #CF0000",
"=  c #D0000F",
"-  c #DD0011",
";  c #E60000",
":  c #E70000",
">  c #E60001",
",  c #E60002",
"<  c #E60003",
"1  c #E60005",
"2  c #E6000A",
"3  c #E6000D",
"4  c #E6000E",
"5  c #E6000F",
"6  c #E60010",
"7  c #E60011",
"8  c #E40012",
"9  c #E60012",
"0  c #E70012",
"q  c #E60113",
"w  c #E60515",
"e  c #E80012",
"r  c #E60817",
"t  c #E61720",
"y  c #E62128",
"u  c #E62229",
"i  c #E6242A",
"p  c #E62A30",
"a  c #E62E33",
"s  c #E63136",
"d  c #E63237",
"f  c #E53D41",
"g  c #E63D40",
"h  c #DD4D4F",
"j  c #E54246",
"k  c #E54447",
"l  c #E5474A",
"z  c #E5494C",
"x  c #E54E51",
"c  c #E54F52",
"v  c #E55153",
"b  c #E75254",
"n  c #E5595C",
"m  c #E56567",
"M  c #E46B6D",
"N  c #E46C6D",
"B  c #E46C6E",
"V  c #E46D6E",
"C  c #E46E6F",
"Z  c #E47B7C",
"A  c #E47C7D",
"S  c #898282",
"D  c gray55",
"F  c #8E8E8E",
"G  c #929292",
"H  c #AFAFAF",
"J  c #B4B4B4",
"K  c #E38889",
"L  c #E38C8D",
"P  c #E38F90",
"I  c #E39091",
"U  c #C9BEBF",
"Y  c #E1BABA",
"T  c #E1BCBC",
"R  c gray78",
"E  c gray80",
"W  c gray81",
"Q  c #DFCBCC",
"!  c #DFCDCE",
"~  c #DFCECE",
"^  c gray82",
"/  c #D5D7D7",
"(  c #DFD1D1",
")  c #DFD2D2",
"_  c #DFD3D3",
"`  c #DFD4D4",
"'  c #DFD5D5",
"]  c #DFD6D6",
"[  c #D8D8D8",
"{  c #DEDADA",
"}  c #DEDBDB",
"|  c #DDDDDD",
" . c #DEDCDC",
".. c gray87",
"X. c #DEDFDF",
"o. c #DFDFDF",
"O. c #E0C4C5",
"+. c #E0C6C6",
"@. c #E0C7C7",
"#. c #E0C8C9",
"$. c #E0D5D5",
"%. c #DEE0E0",
"&. c #DEE1E1",
"*. c #DEE2E2",
"=. c gray88",
"-. c #E0E4E4",
";. c None",
/* pixels */
";.;.;.;.;.;.;.;.;.;.;.;.;.;.;.;.;.;.;.;.;.;.;.;.;.;.;.;.;.;.;.;.;.;.;.;.;.;.;.;.;.;.;.;.;.;.;.;.;.;.;.;.;.;.;.;.;.;.;.;.;.;.;.;.",
";.;.;.;.;.;.;.;.;.;.;.;.;.;.;.;.;.;.;.;.;.;.;.;.;.;.;.;.;.;.;.;.;.;.;.;.;.;.;.;.;.;.;.;.;.;.;.;.;.;.;.;.;.;.;.;.;.;.;.;.;.;.;.;.",
";.;.;.;.;.;.;.;.;.;.;.;.;.;.;.;.;.;.;.;.;.;.;.;.;.;.;.;.;.;.;.;.;.;.;.;.;.;.;.;.;.;.;.;.;.;.;.;.;.;.;.;.;.;.;.;.;.;.;.;.;.;.;.;.",
";.;.;.;.;.;.;.;.;.;.;.;.;.;.;.;.;.;.;.;.;.;.;.;.;.;.;.;.;.;.;.;.;.;.;.;.;.;.;.;.;.;.;.;.;.9 9 9 9 9 9 9 ;.;.;.;.;.;.;.;.;.;.;.;.",
";.;.;.;.;.;.;.;.;.;.;.;.;.9 9 9 9 9 9 9 ;.;.;.;.;.;.;.;.;.;.;.;.;.;.;.;.;.;.;.;.;.;.;.;.;.0 9 9 9 9 9 8 ;.;.;.;.;.;.;.;.;.;.;.;.",
";.;.;.;.;.;.;.;.;.      & 0 9 9 9 9 9 =       ;.;.;.;.;.;.;.;.;.;.;.;.;.;.;.;.;.;.      + e 9 9 9 9 9 -       ;.;.;.;.;.;.;.;.;.",
";.;.;.;.;.;.;.;.;.      % : 7 9 9 , ; * .   X ;.;.;.;.;.;.;.;.;.;.;.;.;.;.;.;.;.;.o     @ b t 9 9 u v h       ;.;.;.;.;.;.;.;.;.",
";.;.;.;.;.;.;...o.O     S $.y 9 9 K ` U       R ..;.;.;.;.;.;.;.;.;.;.;.;.;.;...=.#     $ -.c 9 9 V *./       J ..;.;.;.;.;.;.;.",
";.;.;.;.;.;.;.....G F F H o.i 9 9 P X.^ D F D ^ _ ;.;.;.;.;.;.;.;.;.;.;.;.;.; } ..W E E W %.x 9 9 N %.| E E E [ ' ; 9 ;.;.;.;.;.",
";.;.;.;.;.;.a X...o.o.o.o...i 9 9 P X...o.o.o...O.; 9 ;.;.;.;.;.;.;.;.;.;.;.> { ..........%.x 9 9 N %...........` ; 9 ;.;.;.;.;.",
";.;.;.;.;.;.a X.............i 9 9 P X...........O.; 9 ;.;.;.;.;.;.;.;.;.;.;.> { ..........%.x 9 9 N %...........` ; 9 ;.;.;.;.;.",
";.;.;.;.;.;.a &.%.......X.%.i 9 9 I &.X.......X.+.; 9 ;.;.;.;.;.;.;.;.;.;.;.< ! (  ..... ._ z 9 9 m _ ) ......] @.; 9 ;.;.;.;.;.",
";.;.;.;.;.;.r l k } ....T j w 9 9 p l A %...%.Z f 6 9 ;.;.;.;.;.;.;.;.;.;.;.9 ; ; ( ....Q ; 4 9 9 2 ; g %...X.L ; q 9 ;.;.;.;.;.",
";.;.;.;.;.;.9 9 ,  .%.%.Y ; 9 9 9 9 9 C *.%.*.B 9 9 9 ;.;.;.;.;.;.;.;.;.;.;.9 9 ; ~ { { #.; 9 9 9 9 9 k  .{ } L 9 9 9 ;.;.;.;.;.",
";.;.;.9 9 9 9 9 5 M V V n 4 9 9 9 9 9 d C V C s 9 9 9 9 ;.;.;.;.;.;.;.;.9 9 9 9 9 1 , , 1 9 9 9 9 9 9 7 , , , 3 9 9 9 9 ;.;.;.;.",
";.;.;.9 9 9 9 9 9 9 9 9 9 9 9 9 9 9 9 9 9 9 9 9 9 9 9 9 ;.;.;.;.;.;.;.;.9 9 9 9 9 9 9 9 9 9 9 9 9 9 9 9 9 9 9 9 9 9 9 9 ;.;.;.;.",
";.;.;.9 9 9 9 9 9 9 9 9 9 9 9 9 9 9 9 9 9 9 9 9 9 9 9 9 ;.;.;.;.;.;.;.;.9 9 9 9 9 9 9 9 9 9 9 9 9 9 9 9 9 9 9 9 9 9 9 9 ;.;.;.;.",
";.;.;.9 9 9 9 9 9 9 9 9 9 9 9 9 9 9 9 9 9 9 9 9 9 9 9 9 ;.;.;.;.;.;.;.;.9 9 9 9 9 9 9 9 9 9 9 9 9 9 9 9 9 9 9 9 9 9 9 9 ;.;.;.;.",
";.;.;.9 9 9 9 9 9 9 9 9 9 9 9 9 9 9 9 9 9 9 9 9 9 9 9 9 ;.;.;.;.;.;.;.;.9 9 9 9 9 9 9 9 9 9 9 9 9 9 9 9 9 9 9 9 9 9 9 9 ;.;.;.;.",
";.;.;.9 9 9 9 9 9 9 9 9 9 9 9 9 9 9 9 9 9 9 9 9 9 9 9 9 ;.;.;.;.;.;.;.;.9 9 9 9 9 9 9 9 9 9 9 9 9 9 9 9 9 9 9 9 9 9 9 9 ;.;.;.;.",
";.;.;.9 9 9 9 9 9 9 9 9 9 9 9 9 9 9 9 9 9 9 9 9 9 9 9 9 ;.;.;.;.;.;.;.;.9 9 9 9 9 9 9 9 9 9 9 9 9 9 9 9 9 9 9 9 9 9 9 9 ;.;.;.;.",
";.;.;.9 9 9 9 9 9 9 9 9 9 9 9 9 9 9 9 9 9 9 9 9 9 9 9 9 ;.;.;.;.;.;.;.;.9 9 9 9 9 9 9 9 9 9 9 9 9 9 9 9 9 9 9 9 9 9 9 9 ;.;.;.;.",
";.;.;.9 9 9 9 9 9 9 9 9 9 9 9 9 9 9 9 9 9 9 9 9 9 9 9 9 ;.;.;.;.;.;.;.;.9 9 9 9 9 9 9 9 9 9 9 9 9 9 9 9 9 9 9 9 9 9 9 9 ;.;.;.;.",
";.;.;.9 9 9 9 9 9 9 9 9 9 9 9 9 9 9 9 9 9 9 9 9 9 9 9 9 ;.;.;.;.;.;.;.;.9 9 9 9 9 9 9 9 9 9 9 9 9 9 9 9 9 9 9 9 9 9 9 9 ;.;.;.;.",
";.;.;.9 9 9 9 9 9 9 9 9 9 9 9 9 9 9 9 9 9 9 9 9 9 9 9 9 ;.;.;.;.;.;.;.;.9 9 9 9 9 9 9 9 9 9 9 9 9 9 9 9 9 9 9 9 9 9 9 9 ;.;.;.;.",
";.;.;.9 9 9 9 9 9 9 ;.;.9 9 9 9 9 9 9 9 ;.9 9 9 9 9 9 9 ;.;.;.;.;.;.;.;.9 9 ;.;.9 9 9 9 9 9 ;.;.;.;.9 9 9 9 9 ;.;.;.9 9 ;.;.;.;.",
";.;.;.;.;.9 9 9 9 ;.;.;.;.;.9 9 9 9 ;.;.;.;.;.9 9 9 ;.;.;.;.;.;.;.;.;.;.9 ;.;.;.;.;.;.9 9 9 ;.;.;.;.9 9 9 ;.;.;.;.;.;.9 ;.;.;.;.",
";.;.;.;.;.;.9 9 ;.;.;.;.;.;.9 9 9 9 ;.;.;.;.;.9 9 9 ;.;.;.;.;.;.;.;.;.;.9 ;.;.;.;.;.;.9 9 9 ;.;.;.;.9 9 9 ;.;.;.;.;.;.9 ;.;.;.;.",
";.;.;.;.;.;.;.;.;.;.;.;.;.;.;.;.;.;.;.;.;.;.;.;.;.9 ;.;.;.;.;.;.;.;.;.;.;.;.;.;.;.;.;.;.;.;.;.;.;.;.;.;.;.;.;.;.;.;.;.;.;.;.;.;.",
";.;.;.;.;.;.;.;.;.;.;.;.;.;.;.;.;.;.;.;.;.;.;.;.;.;.;.;.;.;.;.;.;.;.;.;.;.;.;.;.;.;.;.;.;.;.;.;.;.;.;.;.;.;.;.;.;.;.;.;.;.;.;.;.",
";.;.;.;.;.;.;.;.;.;.;.;.;.;.;.;.;.;.;.;.;.;.;.;.;.;.;.;.;.;.;.;.;.;.;.;.;.;.;.;.;.;.;.;.;.;.;.;.;.;.;.;.;.;.;.;.;.;.;.;.;.;.;.;.",
";.;.;.;.;.;.;.;.;.;.;.;.;.;.;.;.;.;.;.;.;.;.;.;.;.;.;.;.;.;.;.;.;.;.;.;.;.;.;.;.;.;.;.;.;.;.;.;.;.;.;.;.;.;.;.;.;.;.;.;.;.;.;.;."
};
