/* XPM */
static char *ghost_left[] = {
/* columns rows colors chars-per-pixel */
"64 32 132 2 ",
"   c black",
".  c gray18",
"X  c #323232",
"o  c gray24",
"O  c #3F3F3F",
"+  c #500002",
"@  c #760000",
"#  c #750004",
"$  c #780005",
"%  c #5D2F30",
"&  c gray27",
"*  c #6D6D6D",
"=  c gray46",
"-  c #960008",
";  c #89171A",
":  c #A6000A",
">  c #C0000D",
",  c #C4000E",
"<  c #D60000",
"1  c #DA0010",
"2  c #E60000",
"3  c #E70000",
"4  c #E60001",
"5  c #E60002",
"6  c #E60006",
"7  c #E6000C",
"8  c #E6000D",
"9  c #E6000E",
"0  c #E6000F",
"q  c #E20011",
"w  c #E60010",
"e  c #E60011",
"r  c #E60012",
"t  c #E70012",
"y  c #E60113",
"u  c #E80011",
"i  c #E80012",
"p  c #E80113",
"a  c #E62A2F",
"s  c #E62E33",
"d  c #E72E33",
"f  c #E6383C",
"g  c #E63A3E",
"h  c #E63C3F",
"j  c #E63C40",
"k  c #E53F43",
"l  c #875354",
"z  c #E54043",
"x  c #E54548",
"c  c #E55456",
"v  c #E5595B",
"b  c #E55A5C",
"n  c #E55C5E",
"m  c #D56465",
"M  c #E56466",
"N  c #E56869",
"B  c #E4686A",
"V  c #E4696A",
"C  c #E46A6B",
"Z  c #E46A6C",
"A  c #E46B6D",
"S  c #E46C6E",
"D  c #E46D6F",
"F  c #E47071",
"G  c #E47879",
"H  c #E47D7F",
"J  c #E47E80",
"K  c #E47F80",
"L  c #838383",
"P  c #848585",
"I  c #9D9D9D",
"U  c gray75",
"Y  c #E48182",
"T  c #E48283",
"R  c #E48384",
"E  c #E38586",
"W  c #E48485",
"Q  c #E3898A",
"!  c #E38F8F",
"~  c #E38F90",
"^  c #E39091",
"/  c #E49091",
"(  c #E39394",
")  c #E29B9C",
"_  c #E29D9E",
"`  c #E29E9E",
"'  c #E29E9F",
"]  c #E29F9F",
"[  c #CAAAAA",
"{  c #E2A0A1",
"}  c #E2AAAB",
"|  c #E1B4B5",
" . c #E1B5B6",
".. c #E1B8B9",
"X. c #E1B9B9",
"o. c #E1BABA",
"O. c #E1BABB",
"+. c #E1BBBC",
"@. c #E1BCBC",
"#. c #E0BDBD",
"$. c #E0BFBF",
"%. c #E0BFC0",
"&. c #C0C0C0",
"*. c gray76",
"=. c #CFCCCC",
"-. c gray81",
";. c #DFCCCC",
":. c #DFCDCD",
">. c #DFCECE",
",. c #DFCFCF",
"<. c #CFD1D1",
"1. c #D0D0D0",
"2. c gray82",
"3. c #DFD1D1",
"4. c #DFD5D5",
"5. c #DADADA",
"6. c gray86",
"7. c #DED8D8",
"8. c #DED8D9",
"9. c #DEDADA",
"0. c gainsboro",
"q. c #DEDCDC",
"w. c #DEDDDD",
"e. c gray87",
"r. c #DEDFDF",
"t. c #DFDFDF",
"y. c #E0D6D6",
"u. c #DEE0E0",
"i. c #DFE0E0",
"p. c #DEE1E1",
"a. c gray88",
"s. c None",
/* pixels */
"s.s.s.s.s.s.s.s.s.s.s.s.s.s.s.s.s.s.s.s.s.s.s.s.s.s.s.s.s.s.s.s.s.s.s.s.s.s.s.s.s.s.s.s.s.s.s.s.s.s.s.s.s.s.s.s.s.s.s.s.s.s.s.s.",
"s.s.s.s.s.s.s.s.s.s.s.s.s.s.s.s.s.s.s.s.s.s.s.s.s.s.s.s.s.s.s.s.s.s.s.s.s.s.s.s.s.s.s.s.s.s.s.s.s.s.s.s.s.s.s.s.s.s.s.s.s.s.s.s.",
"s.s.s.s.s.s.s.s.s.s.s.s.s.s.s.s.s.s.s.s.s.s.s.s.s.s.s.s.s.s.s.s.s.s.s.s.s.s.s.s.s.s.s.s.s.s.s.s.s.s.s.s.s.s.s.s.s.s.s.s.s.s.s.s.",
"s.s.s.s.s.s.s.s.s.s.s.s.s.s.s.s.s.s.s.s.s.s.s.s.s.s.s.s.s.s.s.s.s.s.s.s.s.s.s.s.s.s.s.s.s.r r r r r r r s.s.s.s.s.s.s.s.s.s.s.s.",
"s.s.s.s.s.s.s.s.s.s.s.s.s.r r r r r r r s.s.s.s.s.s.s.s.s.s.s.s.s.s.s.s.s.s.s.s.s.s.s.s.r r r r r r r r s.s.s.s.s.s.s.s.s.s.s.s.",
"s.s.s.s.s.s.s.s.s.r r r r r r r r r r r r r r s.s.s.s.s.s.s.s.s.s.s.s.s.s.s.s.s.s.r r r r r r r r r r r r r r s.s.s.s.s.s.s.s.s.",
"s.s.s.s.s.s.s.s.s.r r r r r r r r r r r r r r s.s.s.s.s.s.s.s.s.s.s.s.s.s.s.s.s.s.r r r r r r r r r r r r r r r s.s.s.s.s.s.s.s.",
"s.s.s.s.s.s.s.e e e e r r r r r r r e e e r r r r s.s.s.s.s.s.s.s.s.s.s.s.s.s.2 2 2 2 r r r r r r 8 2 2 2 8 r r r s.s.s.s.s.s.s.",
"s.s.s.s.s.s.s._ _ _ F e r r r r r M ` _ ' s r r r s.s.s.s.s.s.s.s.s.s.s.s.s.4 4.7.7.| 2 r r r r r V 9.7.9.C r r r r r s.s.s.s.s.",
"s.s.s.s.s.s.s r.e.r.{ w r r r r r ~ r.e.u.x r r r r r s.s.s.s.s.s.s.s.s.s.s.2 9.e.e...2 2 y r y 2 N u.e.u.B 2 5 r r r s.s.s.s.s.",
"s.s.s.s.s.s.R r.e.e.| H N 7 r 6 G } r.e.r.Q K g r r r s.s.s.s.s.s.s.s.s.s.s.:.w.e.e.8.:.@.2 r 2  .3.e.e.e.3.>.R r r r s.s.s.s.s.",
"s.s.s.s.s.s.i.t.t.e.r.r.o.2 r 2 y.i.t.t.e.r.p.S r r r s.s.s.s.s.s.s.s.s.s.s.&.&.U 5.e.e.;.2 r 3 [ &.&.*.t.e.r.! r r r s.s.s.s.s.",
"s.s.s.s.s.s.X X . 6.e.e.X.2 r u % X X = a.e.u.A r r r s.s.s.s.s.s.s.s.s.s.s.      2.e.e.;.2 r p @     O a.e.r.! r r r s.s.s.s.s.",
"s.s.s.s.s.s.      5.e.e.X.2 r i +     * a.e.u.A r r r s.s.s.s.s.s.s.s.s.s.s.      2.e.e.;.2 r i $     & a.e.r.! r r r s.s.s.s.s.",
"s.s.s.r r :       5.e.e.X.2 r i +     * a.e.u.A r r r r s.s.s.s.s.s.s.s.r ,       2.r.u.>.2 r i #     o a.u.p.^ r r r r s.s.s.s.",
"s.s.s.r r > ; P L 0.:.+.) 5 r t - l P I i.$.#.b r r r r s.s.s.s.s.s.s.s.r q < =.-.0.%.v c 8 r r 1 m <.1.u.E n f r r r r s.s.s.s.",
"s.s.s.r r t d i.t.e.] 2 2 r r r t / i.t.u.z 2 9 r r r r s.s.s.s.s.s.s.s.r r 2 q.r.r.O.2 r r r r r S p.r.p.D r r r r r r s.s.s.s.",
"s.s.s.r r r a >.:.>.( w r r r r r W >.:.,.k r r r r r r s.s.s.s.s.s.s.s.r r 9 J Y Y Z 7 r r r r r h T Y T j r r r r r r s.s.s.s.",
"s.s.s.r r r e 2 2 2 2 r r r r r r 5 2 2 2 0 r r r r r r s.s.s.s.s.s.s.s.r r r r r r r r r r r r r r r r r r r r r r r r s.s.s.s.",
"s.s.s.r r r r r r r r r r r r r r r r r r r r r r r r r s.s.s.s.s.s.s.s.r r r r r r r r r r r r r r r r r r r r r r r r s.s.s.s.",
"s.s.s.r r r r r r r r r r r r r r r r r r r r r r r r r s.s.s.s.s.s.s.s.r r r r r r r r r r r r r r r r r r r r r r r r s.s.s.s.",
"s.s.s.r r r r r r r r r r r r r r r r r r r r r r r r r s.s.s.s.s.s.s.s.r r r r r r r r r r r r r r r r r r r r r r r r s.s.s.s.",
"s.s.s.r r r r r r r r r r r r r r r r r r r r r r r r r s.s.s.s.s.s.s.s.r r r r r r r r r r r r r r r r r r r r r r r r s.s.s.s.",
"s.s.s.r r r r r r r r r r r r r r r r r r r r r r r r r s.s.s.s.s.s.s.s.r r r r r r r r r r r r r r r r r r r r r r r r s.s.s.s.",
"s.s.s.r r r r r r r r r r r r r r r r r r r r r r r r r s.s.s.s.s.s.s.s.r r r s.r r r r r r r s.s.r r r r r r r s.r r r s.s.s.s.",
"s.s.s.r r r r r r r s.s.r r r r r r r r s.r r r r r r r s.s.s.s.s.s.s.s.r r s.s.s.r r r r r s.s.s.s.r r r r r s.s.s.r r s.s.s.s.",
"s.s.s.s.s.r r r s.s.s.s.s.s.r r r r s.s.s.s.s.r r r s.s.s.s.s.s.s.s.s.s.r s.s.s.s.s.s.r r r s.s.s.s.r r r s.s.s.s.s.s.r s.s.s.s.",
"s.s.s.s.s.s.r r s.s.s.s.s.s.r r r r s.s.s.s.s.r r r s.s.s.s.s.s.s.s.s.s.r s.s.s.s.s.s.r r r s.s.s.s.r r r s.s.s.s.s.s.r s.s.s.s.",
"s.s.s.s.s.s.s.s.s.s.s.s.s.s.s.s.s.s.s.s.s.s.s.s.s.s.s.s.s.s.s.s.s.s.s.s.s.s.s.s.s.s.s.s.s.s.s.s.s.s.s.s.s.s.s.s.s.s.s.s.s.s.s.s.",
"s.s.s.s.s.s.s.s.s.s.s.s.s.s.s.s.s.s.s.s.s.s.s.s.s.s.s.s.s.s.s.s.s.s.s.s.s.s.s.s.s.s.s.s.s.s.s.s.s.s.s.s.s.s.s.s.s.s.s.s.s.s.s.s.",
"s.s.s.s.s.s.s.s.s.s.s.s.s.s.s.s.s.s.s.s.s.s.s.s.s.s.s.s.s.s.s.s.s.s.s.s.s.s.s.s.s.s.s.s.s.s.s.s.s.s.s.s.s.s.s.s.s.s.s.s.s.s.s.s.",
"s.s.s.s.s.s.s.s.s.s.s.s.s.s.s.s.s.s.s.s.s.s.s.s.s.s.s.s.s.s.s.s.s.s.s.s.s.s.s.s.s.s.s.s.s.s.s.s.s.s.s.s.s.s.s.s.s.s.s.s.s.s.s.s."
};
