/* XPM */
static char *ghost_down[] = {
/* columns rows colors chars-per-pixel */
"64 32 124 2 ",
"   c black",
".  c #000100",
"X  c #220000",
"o  c #2D2727",
"O  c #282828",
"+  c #590D0F",
"@  c #671113",
"#  c #555555",
"$  c #565757",
"%  c gray39",
"&  c #646565",
"*  c #8B0000",
"=  c #A7000A",
"-  c #A8000A",
";  c #B2000B",
":  c #B5000C",
">  c #BA272B",
",  c #CF0000",
"<  c #D00000",
"1  c #D2000F",
"2  c #DF0011",
"3  c #E60000",
"4  c #E70000",
"5  c #E60001",
"6  c #E60004",
"7  c #E60007",
"8  c #E60008",
"9  c #E6000A",
"0  c #E6000D",
"q  c #E6000F",
"w  c #E10011",
"e  c #E20011",
"r  c #E60010",
"t  c #E60011",
"y  c #E50012",
"u  c #E60012",
"i  c #E70012",
"p  c #E60112",
"a  c #E60414",
"s  c #E60515",
"d  c #E60A18",
"f  c #E60B18",
"g  c #E60D1A",
"h  c #E60F1B",
"j  c #E6131D",
"k  c #E61B23",
"l  c #E61C24",
"z  c #E61E25",
"x  c #E61E26",
"c  c #DD3034",
"v  c #E6232A",
"b  c #E6242A",
"n  c #E6282D",
"m  c #E62E33",
"M  c #E62F34",
"N  c #E63136",
"B  c #E63337",
"V  c #E83337",
"C  c #E83338",
"Z  c #E53F42",
"A  c #8A7979",
"S  c #E54145",
"D  c #E54246",
"F  c #E54347",
"G  c #E54E51",
"H  c #E54F51",
"J  c #E55759",
"K  c #E46C6D",
"L  c #E46C6E",
"P  c #E46D6E",
"I  c #E46E70",
"U  c #E47577",
"Y  c #E47E7F",
"T  c #888888",
"R  c #AFAFAF",
"E  c gray69",
"W  c #B2B2B2",
"Q  c #B4B4B4",
"!  c #B4B5B5",
"~  c #E38C8D",
"^  c #E38D8E",
"/  c #E38E8F",
"(  c #E38F90",
")  c #CAB1B2",
"_  c #CAB2B2",
"`  c #E1ADAE",
"'  c #E1AEAF",
"]  c #E1B3B3",
"[  c #E1B5B6",
"{  c #E1B7B7",
"}  c #E1B8B8",
"|  c #E1BABA",
" . c #C1C1C1",
".. c #C8C8C8",
"X. c gray79",
"o. c #DFCBCC",
"O. c #D5D5D5",
"+. c gray84",
"@. c #D6D7D7",
"#. c #DFD1D1",
"$. c #DFD4D4",
"%. c #DFD5D5",
"&. c gray86",
"*. c #DFD8D8",
"=. c #DED9D9",
"-. c #DEDADA",
";. c #DEDBDB",
":. c gainsboro",
">. c #DDDDDD",
",. c #DEDDDD",
"<. c gray87",
"1. c #DEDFDF",
"2. c #DFDFDF",
"3. c #E0C3C3",
"4. c #E0C4C5",
"5. c #E0C6C6",
"6. c #E1C6C6",
"7. c #DEE0E0",
"8. c #DEE1E1",
"9. c gray88",
"0. c #E0E1E1",
"q. c #E0E2E2",
"w. c #E0E3E3",
"e. c None",
/* pixels */
"e.e.e.e.e.e.e.e.e.e.e.e.e.e.e.e.e.e.e.e.e.e.e.e.e.e.e.e.e.e.e.e.e.e.e.e.e.e.e.e.e.e.e.e.e.e.e.e.e.e.e.e.e.e.e.e.e.e.e.e.e.e.e.e.",
"e.e.e.e.e.e.e.e.e.e.e.e.e.e.e.e.e.e.e.e.e.e.e.e.e.e.e.e.e.e.e.e.e.e.e.e.e.e.e.e.e.e.e.e.e.e.e.e.e.e.e.e.e.e.e.e.e.e.e.e.e.e.e.e.",
"e.e.e.e.e.e.e.e.e.e.e.e.e.e.e.e.e.e.e.e.e.e.e.e.e.e.e.e.e.e.e.e.e.e.e.e.e.e.e.e.e.e.e.e.e.e.e.e.e.e.e.e.e.e.e.e.e.e.e.e.e.e.e.e.",
"e.e.e.e.e.e.e.e.e.e.e.e.e.u u u u u u e.e.e.e.e.e.e.e.e.e.e.e.e.e.e.e.e.e.e.e.e.e.e.e.e.e.e.e.e.e.e.e.e.e.e.e.e.e.e.e.e.e.e.e.e.",
"e.e.e.e.e.e.e.e.e.e.e.e.e.u u u u u u u e.e.e.e.e.e.e.e.e.e.e.e.e.e.e.e.e.e.e.e.e.e.e.e.e.u u u u u u u e.e.e.e.e.e.e.e.e.e.e.e.",
"e.e.e.e.e.e.e.e.e.u u u u u u u u u u u u u u e.e.e.e.e.e.e.e.e.e.e.e.e.e.e.e.e.e.u u u u u u u u u u u u u u e.e.e.e.e.e.e.e.e.",
"e.e.e.e.e.e.e.e.e.u u u u u u u u u u u u u u e.e.e.e.e.e.e.e.e.e.e.e.e.e.e.e.e.e.u u u u u u u u u u u u u u e.e.e.e.e.e.e.e.e.",
"e.e.e.e.e.e.e.u u u u u u u u u u u u u u u u u u e.e.e.e.e.e.e.e.e.e.e.e.e.e.u u u u u u u u u u u u u u u u u u e.e.e.e.e.e.e.",
"e.e.e.e.e.e.u u u u u u u u u u u u u u u u u u u u u e.e.e.e.e.e.e.e.e.e.e.e.u u u u u u u u u u u u u u u u u u e.e.e.e.e.e.e.",
"e.e.e.e.e.e.u u u u u u u u u u u u u u u u u u u u u e.e.e.e.e.e.e.e.e.e.e.u u u u u u u u u u u u u u u u u u u u u e.e.e.e.e.",
"e.e.e.e.e.e.u u 0 ~ / / U 9 u u u u u F ( / ( D u u u e.e.e.e.e.e.e.e.e.e.e.u u t l z z k t u u u u u a x z x h u u u e.e.e.e.e.",
"e.e.e.e.e.e.p g q ;.1.1.| 7 u u u s g I 8.1.8.P d u u e.e.e.e.e.e.e.e.e.e.e.u 3 3 #.<.<.o.3 r u u q 3 S 7.<.1.^ 3 u u e.e.e.e.e.",
"e.e.e.e.e.e.m ,.,.<.<.<.<.,.v u u / ,.,.<.<.<.,.3.3 u e.e.e.e.e.e.e.e.e.e.e.8 ] [ =.<.<.*.{ Z u u J } | 1.<.<.5.` 3 u e.e.e.e.e.",
"e.e.e.e.e.e.m 1.<.<.<.<.<.<.b u u ( 1.<.<.<.<.<.4.3 u e.e.e.e.e.e.e.e.e.e.e.5 -.<.<.<.<.<.7.G u u K 7.<.<.<.<.<.$.3 u e.e.e.e.e.",
"e.e.e.u u u m 1.<.<.<.<.<.<.b u u ( 1.<.<.<.<.<.4.3 u u e.e.e.e.e.e.e.e.e.u 5 -.<.<.<.<.<.7.G u u K 7.<.<.<.<.<.$.3 u e.e.e.e.e.",
"e.e.e.u u u m 1.<.W E E  .1.b u u ( 1.O.R E R +.4.3 u u e.e.e.e.e.e.e.e.u u 3 -.<.&.&.&.:.7.G u u K 7.<.&.&.&.>.$.3 u u e.e.e.e.",
"e.e.e.u u u m 1.2.O     T 2.b u u ( 1...      X.4.3 u u e.e.e.e.e.e.e.e.u u 3 -.9.#     % q.G u u K 7.+.      Q $.3 u u e.e.e.e.",
"e.e.e.u u u n 5.6.o     A 6.x u u Y 5.)       _ ' 3 u u e.e.e.e.e.e.e.e.u u 3 ;.0.$     & w.H u u L 8.@.      ! %.3 u u e.e.e.e.",
"e.e.e.u u u t 3 4 X     * 4 t u u 6 3 , .   . < 3 p u u e.e.e.e.e.e.e.e.u u t N V +     @ C f u u j B c       > M t u u e.e.e.e.",
"e.e.e.u u u u u u 2 2 2 w u u u u u u y 2 2 2 y u u u u e.e.e.e.e.e.e.e.u u u u i ; - - : i u u u u u e = - - 1 u u u u e.e.e.e.",
"e.e.e.u u u u u u u u u u u u u u u u u u u u u u u u u e.e.e.e.e.e.e.e.u u u u u u u u u u u u u u u u u u u u u u u u e.e.e.e.",
"e.e.e.u u u u u u u u u u u u u u u u u u u u u u u u u e.e.e.e.e.e.e.e.u u u u u u u u u u u u u u u u u u u u u u u u e.e.e.e.",
"e.e.e.u u u u u u u u u u u u u u u u u u u u u u u u u e.e.e.e.e.e.e.e.u u u u u u u u u u u u u u u u u u u u u u u u e.e.e.e.",
"e.e.e.u u u u u u u u u u u u u u u u u u u u u u u u u e.e.e.e.e.e.e.e.u u u u u u u u u u u u u u u u u u u u u u u u e.e.e.e.",
"e.e.e.u u u u u u u u u u u u u u u u u u u u u u u u u e.e.e.e.e.e.e.e.u u u u u u u u u u u u u u u u u u u u u u u u e.e.e.e.",
"e.e.e.u u u u u u u e.e.u u u u u u u u e.u u u u u u u e.e.e.e.e.e.e.e.u u e.e.u u u u u u e.e.e.e.u u u u u e.e.u u u e.e.e.e.",
"e.e.e.e.e.u u u e.e.e.e.e.e.u u u u e.e.e.e.e.u u u e.e.e.e.e.e.e.e.e.e.u u e.e.e.u u u u u e.e.e.e.u u u u u e.e.e.u u e.e.e.e.",
"e.e.e.e.e.e.u u e.e.e.e.e.e.u u u u e.e.e.e.e.u u u e.e.e.e.e.e.e.e.e.e.u e.e.e.e.e.e.u u u e.e.e.e.u u u e.e.e.e.e.e.u e.e.e.e.",
"e.e.e.e.e.e.e.e.e.e.e.e.e.e.e.e.e.e.e.e.e.e.e.e.e.e.e.e.e.e.e.e.e.e.e.e.u e.e.e.e.e.e.u u u e.e.e.e.u u u e.e.e.e.e.e.u e.e.e.e.",
"e.e.e.e.e.e.e.e.e.e.e.e.e.e.e.e.e.e.e.e.e.e.e.e.e.e.e.e.e.e.e.e.e.e.e.e.e.e.e.e.e.e.e.e.e.e.e.e.e.e.e.e.e.e.e.e.e.e.e.e.e.e.e.e.",
"e.e.e.e.e.e.e.e.e.e.e.e.e.e.e.e.e.e.e.e.e.e.e.e.e.e.e.e.e.e.e.e.e.e.e.e.e.e.e.e.e.e.e.e.e.e.e.e.e.e.e.e.e.e.e.e.e.e.e.e.e.e.e.e.",
"e.e.e.e.e.e.e.e.e.e.e.e.e.e.e.e.e.e.e.e.e.e.e.e.e.e.e.e.e.e.e.e.e.e.e.e.e.e.e.e.e.e.e.e.e.e.e.e.e.e.e.e.e.e.e.e.e.e.e.e.e.e.e.e."
};
