/* XPM */
static char *red_ghost_frames[] = {
/* columns rows colors chars-per-pixel */
"64 128 120 2 ",
"   c #000000",
".  c gray11",
"X  c #220000",
"o  c #2D2727",
"O  c #2B2B2B",
"+  c #323232",
"@  c #3E3E3E",
"#  c #4E0002",
"$  c #500002",
"%  c #590D0F",
"&  c #650002",
"*  c #660609",
"=  c #760002",
"-  c #780005",
";  c #671113",
":  c #681F21",
">  c #5D2F30",
",  c gray27",
"<  c #555555",
"1  c #535959",
"2  c #585858",
"3  c #635455",
"4  c #5F6060",
"5  c #636464",
"6  c #6C6C6C",
"7  c gray46",
"8  c gray50",
"9  c #800005",
"0  c #8D0002",
"q  c #960008",
"w  c #89171A",
"e  c #A90000",
"r  c #A7000A",
"t  c #A8000A",
"y  c #B3000B",
"u  c #A9171C",
"i  c #BA272B",
"p  c #CF0000",
"a  c #C2000E",
"s  c #D30000",
"d  c #D1000F",
"f  c #DD0011",
"g  c #DE171F",
"h  c #E60000",
"j  c #E80000",
"k  c #E6000C",
"l  c #E60012",
"z  c #E80012",
"x  c #E60817",
"c  c #E60C19",
"v  c #E6131D",
"b  c #E61720",
"n  c #E61D24",
"m  c #E81B24",
"M  c #DD3034",
"N  c #E6232A",
"B  c #E6292E",
"V  c #E62E33",
"C  c #E63237",
"Z  c #E83337",
"A  c #E63438",
"S  c #E83338",
"D  c #E63A3E",
"F  c #E53E41",
"G  c #875354",
"H  c #8A7979",
"J  c #DD4D4F",
"K  c #E54246",
"L  c #E54649",
"P  c #E54A4D",
"I  c #E54E51",
"U  c #E65254",
"Y  c #E55659",
"T  c #E55A5C",
"R  c #E55E60",
"E  c #D56465",
"W  c #E56365",
"Q  c #E46C6D",
"!  c #E46E70",
"~  c #E47374",
"^  c #E47B7D",
"/  c #E47E80",
"(  c #848484",
")  c #898282",
"_  c #8C8C8C",
"`  c #929292",
"'  c #9D9D9D",
"]  c #A49090",
"[  c #A2A2A2",
"{  c #AFAFAF",
"}  c #B3B3B3",
"|  c #BBBBBB",
" . c #E48283",
".. c #E38C8D",
"X. c #E38F90",
"o. c #E39192",
"O. c #E29D9E",
"+. c #E29FA0",
"@. c #CAAAAA",
"#. c #CAB2B2",
"$. c #C9BEBF",
"%. c #E2A4A4",
"&. c #E2ABAC",
"*. c #E1B5B5",
"=. c #E1BBBB",
"-. c #E0BFC0",
";. c #C1C1C1",
":. c #CCCCCC",
">. c #DFCDCD",
",. c #CFD1D1",
"<. c #D3D3D3",
"1. c #DFD4D4",
"2. c #DFD7D8",
"3. c #DEDDDD",
"4. c #E0C5C5",
"5. c #E0C9CA",
"6. c #E0D6D6",
"7. c #DEE0E0",
"8. c #E0E1E1",
"9. c None",
/* pixels */
"9.9.9.9.9.9.9.9.9.9.9.9.9.9.9.9.9.9.9.9.9.9.9.9.9.9.9.9.9.9.9.9.9.9.9.9.9.9.9.9.9.9.9.9.9.9.9.9.9.9.9.9.9.9.9.9.9.9.9.9.9.9.9.9.",
"9.9.9.9.9.9.9.9.9.9.9.9.9.9.9.9.9.9.9.9.9.9.9.9.9.9.9.9.9.9.9.9.9.9.9.9.9.9.9.9.9.9.9.9.9.9.9.9.9.9.9.9.9.9.9.9.9.9.9.9.9.9.9.9.",
"9.9.9.9.9.9.9.9.9.9.9.9.9.9.9.9.9.9.9.9.9.9.9.9.9.9.9.9.9.9.9.9.9.9.9.9.9.9.9.9.9.9.9.9.9.9.9.9.9.9.9.9.9.9.9.9.9.9.9.9.9.9.9.9.",
"9.9.9.9.9.9.9.9.9.9.9.9.9.l l l l l l 9.9.9.9.9.9.9.9.9.9.9.9.9.9.9.9.9.9.9.9.9.9.9.9.9.9.9.9.9.9.9.9.9.9.9.9.9.9.9.9.9.9.9.9.9.",
"9.9.9.9.9.9.9.9.9.9.9.9.9.l l l l l l l 9.9.9.9.9.9.9.9.9.9.9.9.9.9.9.9.9.9.9.9.9.9.9.9.9.l l l l l l l 9.9.9.9.9.9.9.9.9.9.9.9.",
"9.9.9.9.9.9.9.9.9.l l l l l l l l l l l l l l 9.9.9.9.9.9.9.9.9.9.9.9.9.9.9.9.9.9.l l l l l l l l l l l l l l 9.9.9.9.9.9.9.9.9.",
"9.9.9.9.9.9.9.9.9.l l l l l l l l l l l l l l 9.9.9.9.9.9.9.9.9.9.9.9.9.9.9.9.9.9.l l l l l l l l l l l l l l 9.9.9.9.9.9.9.9.9.",
"9.9.9.9.9.9.9.l l k k h h h l l l l l l l h h h h 9.9.9.9.9.9.9.9.9.9.9.9.9.9.l l l l l l l l l l l l l l l l l l 9.9.9.9.9.9.9.",
"9.9.9.9.9.9.l l l k ..*.*.*.n l l l l l h &.*.=.&.h l 9.9.9.9.9.9.9.9.9.9.9.9.l l k W / / / c l l l l l k ^ ^ ^ ^ 9.9.9.9.9.9.9.",
"9.9.9.9.9.9.l l l k %.3.3.3.N l l l l l h 2.3.3.4.h l 9.9.9.9.9.9.9.9.9.9.l l l l k &.3.7.3.m l l l l l h 3.7.3.>.h l 9.9.9.9.9.",
"9.9.9.9.9.9.l l k O.4.3.3.3.%.O.A l l P +.3.3.3.1.O.O.9.9.9.9.9.9.9.9.9.9.l l l l Y *.3.3.3.W T m l l V Y 2.7.7.4.Y T 9.9.9.9.9.",
"9.9.9.9.9.9.l l h 3.3.3.3.3.2.3.P l l Q 7.3.7.2.2.2.3.9.9.9.9.9.9.9.9.9.9.l l l k 3.7.3.3.8.8.8.L l l ~ 7.3.3.7.8.8.8.9.9.9.9.9.",
"9.9.9.9.9.9.l l h 2.3.3.|       f l l ! 7.3.8.6       9.9.9.9.9.9.9.9.9.9.l l l k 2.7.3.| 2 2 1 g l l ~ 7.3.8.H 2 2 2 9.9.9.9.9.",
"9.9.9.9.9.9.l l h 2.3.3.|       f l x E 7.3.8.6       9.9.9.9.9.9.9.9.9.9.l l l k 3.3.3.}       f l l ~ 7.3.8.5       9.9.9.9.9.",
"9.9.9.l l l l l h 3.3.3.|       f l z ~ 7.7.3.6     # z 9.9.9.9.9.9.9.l l l l l l 2.3.7.}       f l l ~ 7.3.8.5     # z 9.9.9.9.",
"9.9.9.l l l l l k %.>.2.:.[ u r l l z P %.2.3.} ] e y l 9.9.9.9.9.9.9.l l l l l k 5.2.3.| 5 * & f l l Q >.3.8.( 3 & 9 z 9.9.9.9.",
"9.9.9.l l l l l l k %.3.3.3.N l l l l l h 2.3.3.>.h l l 9.9.9.9.9.9.9.l l l l l l h &.3.7.8.m l l l l h h 2.7.8.4.j z l 9.9.9.9.",
"9.9.9.l l l l l l l ..-.=.=.n l l l l l h *.=.=.%.h l l 9.9.9.9.9.9.9.l l l l l l k %.2.2.2.m l l l l l h 1.2.2.=.h l l 9.9.9.9.",
"9.9.9.l l l l l l l h h h h l l l l l l l h h h h l l l 9.9.9.9.9.9.9.l l l l l l l h h h h l l l l l l l h h h h l l l 9.9.9.9.",
"9.9.9.l l l l l l l l l l l l l l l l l l l l l l l l l 9.9.9.9.9.9.9.l l l l l l l l l l l l l l l l l l l l l l l l l 9.9.9.9.",
"9.9.9.l l l l l l l l l l l l l l l l l l l l l l l l l 9.9.9.9.9.9.9.l l l l l l l l l l l l l l l l l l l l l l l l l 9.9.9.9.",
"9.9.9.l l l l l l l l l l l l l l l l l l l l l l l l l 9.9.9.9.9.9.9.l l l l l l l l l l l l l l l l l l l l l l l l l 9.9.9.9.",
"9.9.9.l l l l l l l l l l l l l l l l l l l l l l l l l 9.9.9.9.9.9.9.l l l l l l l l l l l l l l l l l l l l l l l l l 9.9.9.9.",
"9.9.9.l l l l l l l l l l l l l l l l l l l l l l l l l 9.9.9.9.9.9.9.l l l l l l l l l l l l l l l l l l l l l l l l l 9.9.9.9.",
"9.9.9.l l l l l l l l l l l l l l l l l l l l l l l l l 9.9.9.9.9.9.9.l l l l l l l l l l l l l l l l l l l l l l l l l 9.9.9.9.",
"9.9.9.l l l l l l l 9.9.l l l l l l l l 9.l l l l l l l 9.9.9.9.9.9.9.l l l 9.9.l l l l l l 9.9.9.9.l l l l l 9.9.l l l 9.9.9.9.",
"9.9.9.9.9.l l l 9.9.9.9.9.9.l l l l 9.9.9.9.9.l l l 9.9.9.9.9.9.9.9.9.l l 9.9.9.9.9.l l l l 9.9.9.9.l l l 9.9.9.9.9.9.l 9.9.9.9.",
"9.9.9.9.9.9.l l 9.9.9.9.9.9.l l l l 9.9.9.9.9.l l l 9.9.9.9.9.9.9.9.9.l l 9.9.9.9.9.l l l l 9.9.9.9.l l l 9.9.9.9.9.9.l 9.9.9.9.",
"9.9.9.9.9.9.9.9.9.9.9.9.9.9.9.9.9.9.9.9.9.9.9.9.9.9.9.9.9.9.9.9.9.9.9.9.9.9.9.9.9.9.9.l l l 9.9.9.9.l l l 9.9.9.9.9.9.l 9.9.9.9.",
"9.9.9.9.9.9.9.9.9.9.9.9.9.9.9.9.9.9.9.9.9.9.9.9.9.9.9.9.9.9.9.9.9.9.9.9.9.9.9.9.9.9.9.9.9.9.9.9.9.9.9.9.9.9.9.9.9.9.9.9.9.9.9.9.",
"9.9.9.9.9.9.9.9.9.9.9.9.9.9.9.9.9.9.9.9.9.9.9.9.9.9.9.9.9.9.9.9.9.9.9.9.9.9.9.9.9.9.9.9.9.9.9.9.9.9.9.9.9.9.9.9.9.9.9.9.9.9.9.9.",
"9.9.9.9.9.9.9.9.9.9.9.9.9.9.9.9.9.9.9.9.9.9.9.9.9.9.9.9.9.9.9.9.9.9.9.9.9.9.9.9.9.9.9.9.9.9.9.9.9.9.9.9.9.9.9.9.9.9.9.9.9.9.9.9.",
"9.9.9.9.9.9.9.9.9.9.9.9.9.9.9.9.9.9.9.9.9.9.9.9.9.9.9.9.9.9.9.9.9.9.9.9.9.9.9.9.9.9.9.9.9.9.9.9.9.9.9.9.9.9.9.9.9.9.9.9.9.9.9.9.",
"9.9.9.9.9.9.9.9.9.9.9.9.9.9.9.9.9.9.9.9.9.9.9.9.9.9.9.9.9.9.9.9.9.9.9.9.9.9.9.9.9.9.9.9.9.9.9.9.9.9.9.9.9.9.9.9.9.9.9.9.9.9.9.9.",
"9.9.9.9.9.9.9.9.9.9.9.9.9.9.9.9.9.9.9.9.9.9.9.9.9.9.9.9.9.9.9.9.9.9.9.9.9.9.9.9.9.9.9.9.9.9.9.9.9.9.9.9.9.9.9.9.9.9.9.9.9.9.9.9.",
"9.9.9.9.9.9.9.9.9.9.9.9.9.9.9.9.9.9.9.9.9.9.9.9.9.9.9.9.9.9.9.9.9.9.9.9.9.9.9.9.9.9.9.9.9.l l l l l l l 9.9.9.9.9.9.9.9.9.9.9.9.",
"9.9.9.9.9.9.9.9.9.9.9.9.9.l l l l l l l 9.9.9.9.9.9.9.9.9.9.9.9.9.9.9.9.9.9.9.9.9.9.9.9.l l l l l l l l 9.9.9.9.9.9.9.9.9.9.9.9.",
"9.9.9.9.9.9.9.9.9.l l l l l l l l l l l l l l 9.9.9.9.9.9.9.9.9.9.9.9.9.9.9.9.9.9.l l l l l l l l l l l l l l 9.9.9.9.9.9.9.9.9.",
"9.9.9.9.9.9.9.9.9.l l l l l l l l l l l l l l 9.9.9.9.9.9.9.9.9.9.9.9.9.9.9.9.9.9.l l l l l l l l l l l l l l l 9.9.9.9.9.9.9.9.",
"9.9.9.9.9.9.9.l l l l l l l l l l l l l l l l l l 9.9.9.9.9.9.9.9.9.9.9.9.9.9.h h h h l l l l l l k h h h k l l l 9.9.9.9.9.9.9.",
"9.9.9.9.9.9.9.%.O.O.! l l l l l l W %.O.O.V l l l 9.9.9.9.9.9.9.9.9.9.9.9.9.h 6.2.2.*.h l l l l l Q 2.2.3.Q l l l l l 9.9.9.9.9.",
"9.9.9.9.9.9.V 7.3.3.%.l l l l l l o.3.3.7.L l l l l l 9.9.9.9.9.9.9.9.9.9.9.h 3.3.3.=.h h l l l h W 7.3.7.W h h l l l 9.9.9.9.9.",
"9.9.9.9.9.9. .6.3.3.*.^ Q k l h ^ &.7.3.3...^ F l l l 9.9.9.9.9.9.9.9.9.9.9.5.8.7.3.2.>.=.h l h *.1.3.3.7.1.>. .l l l 9.9.9.9.9.",
"9.9.9.9.9.9.8.8.8.3.3.7.=.h l h 6.8.6.8.3.7.7.Q l l l 9.9.9.9.9.9.9.9.9.9.9.| ;.| 3.7.3.>.h l h @.;.;.;.3.3.7...l l l 9.9.9.9.9.",
"9.9.9.9.9.9.+ + O 3.3.3.*.h l z > + + 7 8.3.7.Q l l l 9.9.9.9.9.9.9.9.9.9.9.      <.3.3.>.h l z =     @ 8.3.7...l l l 9.9.9.9.9.",
"9.9.9.9.9.9.      2.7.3.=.j l z $     6 8.3.7.Q l l l 9.9.9.9.9.9.9.9.9.9.9.      <.3.3.>.h l z -     , 8.3.7.X.l l l 9.9.9.9.9.",
"9.9.9.l z t       3.3.3.=.h l z $     6 8.3.7.! l l l l 9.9.9.9.9.9.9.9.l a       <.3.3.>.h l z =     @ 8.3.7.o.l l l l 9.9.9.9.",
"9.9.9.l z y w ( ( 3.5.=.O.h l l q G ( ' 7.-.=.T l l l l 9.9.9.9.9.9.9.9.l l s :.,.2.4.Y Y k l l f E ,.<.7. .T D l l l l 9.9.9.9.",
"9.9.9.l l z V 8.3.3.%.h h l l l z o.7.6.7.K h k l l l l 9.9.9.9.9.9.9.9.l l h 3.3.7.=.h l l l l l Q 7.7.7.Q l l l l l l 9.9.9.9.",
"9.9.9.l l l V >.>.>.o.k l l l l l  .1.5.1.K l l l l l l 9.9.9.9.9.9.9.9.l l k ^  . .Q k l l l l l D  . . .F l l l l l l 9.9.9.9.",
"9.9.9.l l l l h h h h l l l l l l h h h h k l l l l l l 9.9.9.9.9.9.9.9.l l l l l l l l l l l l l l l l l l l l l l l l 9.9.9.9.",
"9.9.9.l l l l l l l l l l l l l l l l l l l l l l l l l 9.9.9.9.9.9.9.9.l l l l l l l l l l l l l l l l l l l l l l l l 9.9.9.9.",
"9.9.9.l l l l l l l l l l l l l l l l l l l l l l l l l 9.9.9.9.9.9.9.9.l l l l l l l l l l l l l l l l l l l l l l l l 9.9.9.9.",
"9.9.9.l l l l l l l l l l l l l l l l l l l l l l l l l 9.9.9.9.9.9.9.9.l l l l l l l l l l l l l l l l l l l l l l l l 9.9.9.9.",
"9.9.9.l l l l l l l l l l l l l l l l l l l l l l l l l 9.9.9.9.9.9.9.9.l l l l l l l l l l l l l l l l l l l l l l l l 9.9.9.9.",
"9.9.9.l l l l l l l l l l l l l l l l l l l l l l l l l 9.9.9.9.9.9.9.9.l l l l l l l l l l l l l l l l l l l l l l l l 9.9.9.9.",
"9.9.9.l l l l l l l l l l l l l l l l l l l l l l l l l 9.9.9.9.9.9.9.9.l l l 9.l l l l l l l 9.9.l l l l l l l 9.l l l 9.9.9.9.",
"9.9.9.l l l l l l l 9.9.l l l l l l l l 9.l l l l l l l 9.9.9.9.9.9.9.9.l l 9.9.9.l l l l l 9.9.9.9.l l l l l 9.9.9.l l 9.9.9.9.",
"9.9.9.9.9.l l l 9.9.9.9.9.9.l l l l 9.9.9.9.9.l l l 9.9.9.9.9.9.9.9.9.9.l 9.9.9.9.9.9.l l l 9.9.9.9.l l l 9.9.9.9.9.9.l 9.9.9.9.",
"9.9.9.9.9.9.l l 9.9.9.9.9.9.l l l l 9.9.9.9.9.l l l 9.9.9.9.9.9.9.9.9.9.l 9.9.9.9.9.9.l l l 9.9.9.9.l l l 9.9.9.9.9.9.l 9.9.9.9.",
"9.9.9.9.9.9.9.9.9.9.9.9.9.9.9.9.9.9.9.9.9.9.9.9.9.9.9.9.9.9.9.9.9.9.9.9.9.9.9.9.9.9.9.9.9.9.9.9.9.9.9.9.9.9.9.9.9.9.9.9.9.9.9.9.",
"9.9.9.9.9.9.9.9.9.9.9.9.9.9.9.9.9.9.9.9.9.9.9.9.9.9.9.9.9.9.9.9.9.9.9.9.9.9.9.9.9.9.9.9.9.9.9.9.9.9.9.9.9.9.9.9.9.9.9.9.9.9.9.9.",
"9.9.9.9.9.9.9.9.9.9.9.9.9.9.9.9.9.9.9.9.9.9.9.9.9.9.9.9.9.9.9.9.9.9.9.9.9.9.9.9.9.9.9.9.9.9.9.9.9.9.9.9.9.9.9.9.9.9.9.9.9.9.9.9.",
"9.9.9.9.9.9.9.9.9.9.9.9.9.9.9.9.9.9.9.9.9.9.9.9.9.9.9.9.9.9.9.9.9.9.9.9.9.9.9.9.9.9.9.9.9.9.9.9.9.9.9.9.9.9.9.9.9.9.9.9.9.9.9.9.",
"9.9.9.9.9.9.9.9.9.9.9.9.9.9.9.9.9.9.9.9.9.9.9.9.9.9.9.9.9.9.9.9.9.9.9.9.9.9.9.9.9.9.9.9.9.9.9.9.9.9.9.9.9.9.9.9.9.9.9.9.9.9.9.9.",
"9.9.9.9.9.9.9.9.9.9.9.9.9.9.9.9.9.9.9.9.9.9.9.9.9.9.9.9.9.9.9.9.9.9.9.9.9.9.9.9.9.9.9.9.9.9.9.9.9.9.9.9.9.9.9.9.9.9.9.9.9.9.9.9.",
"9.9.9.9.9.9.9.9.9.9.9.9.9.9.9.9.9.9.9.9.9.9.9.9.9.9.9.9.9.9.9.9.9.9.9.9.9.9.9.9.9.9.9.9.9.9.9.9.9.9.9.9.9.9.9.9.9.9.9.9.9.9.9.9.",
"9.9.9.9.9.9.9.9.9.9.9.9.9.l l l l l l 9.9.9.9.9.9.9.9.9.9.9.9.9.9.9.9.9.9.9.9.9.9.9.9.9.9.9.9.9.9.9.9.9.9.9.9.9.9.9.9.9.9.9.9.9.",
"9.9.9.9.9.9.9.9.9.9.9.9.9.l l l l l l l 9.9.9.9.9.9.9.9.9.9.9.9.9.9.9.9.9.9.9.9.9.9.9.9.9.l l l l l l l 9.9.9.9.9.9.9.9.9.9.9.9.",
"9.9.9.9.9.9.9.9.9.l l l l l l l l l l l l l l 9.9.9.9.9.9.9.9.9.9.9.9.9.9.9.9.9.9.l l l l l l l l l l l l l l 9.9.9.9.9.9.9.9.9.",
"9.9.9.9.9.9.9.9.9.l l l l l l l l l l l l l l 9.9.9.9.9.9.9.9.9.9.9.9.9.9.9.9.9.9.l l l l l l l l l l l l l l 9.9.9.9.9.9.9.9.9.",
"9.9.9.9.9.9.9.l l l l l l l l l l l l l l l l l l 9.9.9.9.9.9.9.9.9.9.9.9.9.9.l l l l l l l l l l l l l l l l l l 9.9.9.9.9.9.9.",
"9.9.9.9.9.9.l l l l l l l l l l l l l l l l l l l l l 9.9.9.9.9.9.9.9.9.9.9.9.l l l l l l l l l l l l l l l l l l 9.9.9.9.9.9.9.",
"9.9.9.9.9.9.l l l l l l l l l l l l l l l l l l l l l 9.9.9.9.9.9.9.9.9.9.9.l l l l l l l l l l l l l l l l l l l l l 9.9.9.9.9.",
"9.9.9.9.9.9.l l k ....X.~ k k l l l l K o...X.K l l l 9.9.9.9.9.9.9.9.9.9.9.l l k n n n n l l l l l l x n n n v l l l 9.9.9.9.9.",
"9.9.9.9.9.9.l c k 3.7.7.=.k l l l x c ! 7.7.7.Q c l l 9.9.9.9.9.9.9.9.9.9.9.l h h <.7.7.>.h k l l k h K 7.3.3...h l l 9.9.9.9.9.",
"9.9.9.9.9.9.A 2.3.3.3.3.3.3.N l l ..3.3.3.3.3.3.4.h l 9.9.9.9.9.9.9.9.9.9.9.k *.*.2.3.3.6.*.K l z T =.=.7.7.3.4.&.h l 9.9.9.9.9.",
"9.9.9.9.9.9.V 7.7.3.3.3.3.3.N l l o.3.3.3.7.3.3.4.h l 9.9.9.9.9.9.9.9.9.9.9.h 2.3.3.3.3.7.3.I l z E 3.3.3.3.3.3.1.h l 9.9.9.9.9.",
"9.9.9.l l l V 7.3.3.7.3.3.3.N l l o.7.3.3.3.3.3.4.h l l 9.9.9.9.9.9.9.9.9.l h 2.3.3.3.7.7.7.I l l Q 7.3.3.3.7.3.6.h l 9.9.9.9.9.",
"9.9.9.l l l V 7.3.} { { ;.7.N l l X.3.<.{ { { 3.4.h l l 9.9.9.9.9.9.9.9.l l h 3.3.3.3.2.3.7.U l l Q 7.3.3.2.3.3.6.h l l 9.9.9.9.",
"9.9.9.l l l V 3.7.O     ( 6.B z l X.7.:.      :.>.h l l 9.9.9.9.9.9.9.9.l l h 3.8.<     5 8.U l l Q 7.3.      } 6.h l l 9.9.9.9.",
"9.9.9.l l l B 4.4.o     H 5.N l l / >.@.      #.&.h l l 9.9.9.9.9.9.9.9.l l h 2.8.<     5 8.U l l Q 7.<.      } 6.h l l 9.9.9.9.",
"9.9.9.l l l l h h X     0 j l l l h h s       s h l l l 9.9.9.9.9.9.9.9.l l l A Z %     ; Z x l l v A M       i A l l l 9.9.9.9.",
"9.9.9.l l l l l l f l f l l l l l l l l f l f l l l l l 9.9.9.9.9.9.9.9.l l l l z y t t y l l l l l l l r t t d l l l l 9.9.9.9.",
"9.9.9.l l l l l l l l l l l l l l l l l l l l l l l l l 9.9.9.9.9.9.9.9.l l l l l l l l l l l l l l l l l l l l l l l l 9.9.9.9.",
"9.9.9.l l l l l l l l l l l l l l l l l l l l l l l l l 9.9.9.9.9.9.9.9.l l l l l l l l l l l l l l l l l l l l l l l l 9.9.9.9.",
"9.9.9.l l l l l l l l l l l l l l l l l l l l l l l l l 9.9.9.9.9.9.9.9.l l l l l l l l l l l l l l l l l l l l l l l l 9.9.9.9.",
"9.9.9.l l l l l l l l l l l l l l l l l l l l l l l l l 9.9.9.9.9.9.9.9.l l l l l l l l l l l l l l l l l l l l l l l l 9.9.9.9.",
"9.9.9.l l l l l l l l l l l l l l l l l l l l l l l l l 9.9.9.9.9.9.9.9.l l l l l l l l l l l l l l l l l l l l l l l l 9.9.9.9.",
"9.9.9.l l l l l l l 9.9.l l l l l l l l 9.l l l l l l l 9.9.9.9.9.9.9.9.l l 9.9.l l l l l l 9.9.9.9.l l l l l 9.9.l l l 9.9.9.9.",
"9.9.9.9.9.l l l 9.9.9.9.9.9.l l l l 9.9.9.9.9.l l l 9.9.9.9.9.9.9.9.9.9.l l 9.9.9.l l l l l 9.9.9.9.l l l l l 9.9.9.l l 9.9.9.9.",
"9.9.9.9.9.9.l l 9.9.9.9.9.9.l l l l 9.9.9.9.9.l l l 9.9.9.9.9.9.9.9.9.9.l 9.9.9.9.9.9.l l l 9.9.9.9.l l l 9.9.9.9.9.9.l 9.9.9.9.",
"9.9.9.9.9.9.9.9.9.9.9.9.9.9.9.9.9.9.9.9.9.9.9.9.9.9.9.9.9.9.9.9.9.9.9.9.l 9.9.9.9.9.9.l l l 9.9.9.9.l l l 9.9.9.9.9.9.l 9.9.9.9.",
"9.9.9.9.9.9.9.9.9.9.9.9.9.9.9.9.9.9.9.9.9.9.9.9.9.9.9.9.9.9.9.9.9.9.9.9.9.9.9.9.9.9.9.9.9.9.9.9.9.9.9.9.9.9.9.9.9.9.9.9.9.9.9.9.",
"9.9.9.9.9.9.9.9.9.9.9.9.9.9.9.9.9.9.9.9.9.9.9.9.9.9.9.9.9.9.9.9.9.9.9.9.9.9.9.9.9.9.9.9.9.9.9.9.9.9.9.9.9.9.9.9.9.9.9.9.9.9.9.9.",
"9.9.9.9.9.9.9.9.9.9.9.9.9.9.9.9.9.9.9.9.9.9.9.9.9.9.9.9.9.9.9.9.9.9.9.9.9.9.9.9.9.9.9.9.9.9.9.9.9.9.9.9.9.9.9.9.9.9.9.9.9.9.9.9.",
"9.9.9.9.9.9.9.9.9.9.9.9.9.9.9.9.9.9.9.9.9.9.9.9.9.9.9.9.9.9.9.9.9.9.9.9.9.9.9.9.9.9.9.9.9.9.9.9.9.9.9.9.9.9.9.9.9.9.9.9.9.9.9.9.",
"9.9.9.9.9.9.9.9.9.9.9.9.9.9.9.9.9.9.9.9.9.9.9.9.9.9.9.9.9.9.9.9.9.9.9.9.9.9.9.9.9.9.9.9.9.9.9.9.9.9.9.9.9.9.9.9.9.9.9.9.9.9.9.9.",
"9.9.9.9.9.9.9.9.9.9.9.9.9.9.9.9.9.9.9.9.9.9.9.9.9.9.9.9.9.9.9.9.9.9.9.9.9.9.9.9.9.9.9.9.9.9.9.9.9.9.9.9.9.9.9.9.9.9.9.9.9.9.9.9.",
"9.9.9.9.9.9.9.9.9.9.9.9.9.9.9.9.9.9.9.9.9.9.9.9.9.9.9.9.9.9.9.9.9.9.9.9.9.9.9.9.9.9.9.9.9.l l l l l l l 9.9.9.9.9.9.9.9.9.9.9.9.",
"9.9.9.9.9.9.9.9.9.9.9.9.9.l l l x l l l 9.9.9.9.9.9.9.9.9.9.9.9.9.9.9.9.9.9.9.9.9.9.9.9.9.l l l l l l l 9.9.9.9.9.9.9.9.9.9.9.9.",
"9.9.9.9.9.9.9.9.9.      0 z l l l l l d       9.9.9.9.9.9.9.9.9.9.9.9.9.9.9.9.9.9.      & z l l l l l f       9.9.9.9.9.9.9.9.9.",
"9.9.9.9.9.9.9.9.9.      0 j l l l h h p       9.9.9.9.9.9.9.9.9.9.9.9.9.9.9.9.9.9..     : U b l l N I J       9.9.9.9.9.9.9.9.9.",
"9.9.9.9.9.9.9.3.6.O     ) 6.N l l ..2.$.      :.3.9.9.9.9.9.9.9.9.9.9.9.9.9.9.3.8.<     5 7.I l l Q 7.3.      } 3.9.9.9.9.9.9.9.",
"9.9.9.9.9.9.9.3.3.` _ _ { 3.N l l X.7.<._ _ _ <.1.9.9.9.9.9.9.9.9.9.9.9.9.9.h 3.3.,.:.:.,.7.I l l Q 7.3.:.:.:.2.2.h l 9.9.9.9.9.",
"9.9.9.9.9.9.V 7.3.7.8.8.7.7.N l l X.3.3.7.3.3.3.4.h l 9.9.9.9.9.9.9.9.9.9.9.h 2.3.3.3.3.3.7.I l l Q 7.3.3.3.3.7.1.h l 9.9.9.9.9.",
"9.9.9.9.9.9.V 7.7.7.3.3.3.3.N l l X.3.3.3.3.3.7.4.h l 9.9.9.9.9.9.9.9.9.9.9.h 3.3.7.3.3.3.7.I l x E 7.3.3.3.3.3.2.h l 9.9.9.9.9.",
"9.9.9.9.9.9.V 7.7.7.6.3.3.7.N l l o.7.7.3.7.3.7.4.h l 9.9.9.9.9.9.9.9.9.9.9.k >.1.3.7.3.2.6.P l z W 1.1.7.3.3.6.4.h l 9.9.9.9.9.",
"9.9.9.9.9.9.x L L 3.7.3.=.K x l l B L ^ 7.7.7.^ F l l 9.9.9.9.9.9.9.9.9.9.9.l h h 1.3.3.5.h l l z k h F 7.3.7...h l l 9.9.9.9.9.",
"9.9.9.9.9.9.l l h 2.7.7.=.h l l l l l ! 7.7.7.Q l l l 9.9.9.9.9.9.9.9.9.9.9.l l h >.2.2.5.h l l l l l K 3.2.3...l l l 9.9.9.9.9.",
"9.9.9.l l l l l l Q Q Q T k l l l l l A Q Q Q A l l l l 9.9.9.9.9.9.9.9.l l l l l h h h h l l l l l l l h h h k l l l l 9.9.9.9.",
"9.9.9.l l l l l l l l l l l l l l l l l l l l l l l l l 9.9.9.9.9.9.9.9.l l l l l l l l l l l l l l l l l l l l l l l l 9.9.9.9.",
"9.9.9.l l l l l l l l l l l l l l l l l l l l l l l l l 9.9.9.9.9.9.9.9.l l l l l l l l l l l l l l l l l l l l l l l l 9.9.9.9.",
"9.9.9.l l l l l l l l l l l l l l l l l l l l l l l l l 9.9.9.9.9.9.9.9.l l l l l l l l l l l l l l l l l l l l l l l l 9.9.9.9.",
"9.9.9.l l l l l l l l l l l l l l l l l l l l l l l l l 9.9.9.9.9.9.9.9.l l l l l l l l l l l l l l l l l l l l l l l l 9.9.9.9.",
"9.9.9.l l l l l l l l l l l l l l l l l l l l l l l l l 9.9.9.9.9.9.9.9.l l l l l l l l l l l l l l l l l l l l l l l l 9.9.9.9.",
"9.9.9.l l l l l l l l l l l l l l l l l l l l l l l l l 9.9.9.9.9.9.9.9.l l l l l l l l l l l l l l l l l l l l l l l l 9.9.9.9.",
"9.9.9.l l l l l l l l l l l l l l l l l l l l l l l l l 9.9.9.9.9.9.9.9.l l l l l l l l l l l l l l l l l l l l l l l l 9.9.9.9.",
"9.9.9.l l l l l l l l l l l l l l l l l l l l l l l l l 9.9.9.9.9.9.9.9.l l l l l l l l l l l l l l l l l l l l l l l l 9.9.9.9.",
"9.9.9.l l l l l l l l l l l l l l l l l l l l l l l l l 9.9.9.9.9.9.9.9.l l l l l l l l l l l l l l l l l l l l l l l l 9.9.9.9.",
"9.9.9.l l l l l l l l l l l l l l l l l l l l l l l l l 9.9.9.9.9.9.9.9.l l l l l l l l l l l l l l l l l l l l l l l l 9.9.9.9.",
"9.9.9.l l l l l l l 9.9.l l l l l l l l 9.l l l l l l l 9.9.9.9.9.9.9.9.l l 9.9.l l l l l l 9.9.9.9.l l l l l 9.9.9.l l 9.9.9.9.",
"9.9.9.9.9.l l l l 9.9.9.9.9.l l l l 9.9.9.9.9.l l l 9.9.9.9.9.9.9.9.9.9.l 9.9.9.9.9.9.l l l 9.9.9.9.l l l 9.9.9.9.9.9.l 9.9.9.9.",
"9.9.9.9.9.9.l l 9.9.9.9.9.9.l l l l 9.9.9.9.9.l l l 9.9.9.9.9.9.9.9.9.9.l 9.9.9.9.9.9.l l l 9.9.9.9.l l l 9.9.9.9.9.9.l 9.9.9.9.",
"9.9.9.9.9.9.9.9.9.9.9.9.9.9.9.9.9.9.9.9.9.9.9.9.9.l 9.9.9.9.9.9.9.9.9.9.9.9.9.9.9.9.9.9.9.9.9.9.9.9.9.9.9.9.9.9.9.9.9.9.9.9.9.9.",
"9.9.9.9.9.9.9.9.9.9.9.9.9.9.9.9.9.9.9.9.9.9.9.9.9.9.9.9.9.9.9.9.9.9.9.9.9.9.9.9.9.9.9.9.9.9.9.9.9.9.9.9.9.9.9.9.9.9.9.9.9.9.9.9.",
"9.9.9.9.9.9.9.9.9.9.9.9.9.9.9.9.9.9.9.9.9.9.9.9.9.9.9.9.9.9.9.9.9.9.9.9.9.9.9.9.9.9.9.9.9.9.9.9.9.9.9.9.9.9.9.9.9.9.9.9.9.9.9.9.",
"9.9.9.9.9.9.9.9.9.9.9.9.9.9.9.9.9.9.9.9.9.9.9.9.9.9.9.9.9.9.9.9.9.9.9.9.9.9.9.9.9.9.9.9.9.9.9.9.9.9.9.9.9.9.9.9.9.9.9.9.9.9.9.9."
};
